HarrisonEXE/WomboComboOfMedusa/logs/joint_data_arm_0.csv
timestamp,j1,j2,j3,j4,j5,j6,j7
1682116563.2117348,-0.24998148601557815,87.38001716623694,-2.0000237754631645,126.4999711359432,-14.99997778074544,51.73001019540199,-44.99999063801583
1682116569.2286887,-0.24998148601557815,0.0005729577951308233,-2.0000237754631645,126.4999711359432,-0.00011459155902616463,51.73001019540199,-44.99999063801583
1682116569.2308347,-0.24998148601557815,0.0005729577951308233,-2.0000237754631645,126.4999711359432,-0.00011459155902616463,51.73001019540199,-44.99999063801583
1682116569.2321346,-0.24998148601557815,0.0005729577951308233,-2.0000237754631645,126.4999711359432,-0.00011459155902616463,51.73001019540199,-44.99999063801583
1682116569.2328565,-0.24998148601557815,0.0005729577951308233,-2.0000237754631645,126.4999711359432,-0.00011459155902616463,51.73001019540199,-44.99999063801583
1682116569.2339444,-0.24998148601557815,0.0005729577951308233,-2.0000237754631645,126.4999711359432,-0.00011459155902616463,51.73001019540199,-44.99999063801583
1682116569.2346427,-0.24998148601557815,0.0005729577951308233,-2.0000237754631645,126.4999711359432,-0.00011459155902616463,51.73001019540199,-44.99999063801583
1682116569.235922,-0.24998148601557815,0.0005729577951308233,-2.0000237754631645,126.4999711359432,-0.00011459155902616463,51.73001019540199,-44.99999063801583
1682116569.2375493,-0.24998148601557815,0.0005729577951308233,-2.0000237754631645,126.4999711359432,-0.00011459155902616463,51.73001019540199,-44.99999063801583
1682116569.2383988,-0.24998148601557815,0.0005729577951308233,-2.0000237754631645,126.4999711359432,-0.00011459155902616463,51.73001019540199,-44.99999063801583
1682116569.239108,-0.24998148601557815,0.0005729577951308233,-2.0000237754631645,126.4999711359432,-0.00011459155902616463,51.73001019540199,-44.99999063801583
1682116569.2400317,-0.24998148601557815,0.0005729577951308233,-2.0000237754631645,126.4999711359432,-0.00011459155902616463,51.73001019540199,-44.99999063801583
1682116569.2412138,-0.24998148601557815,0.0005729577951308233,-2.0000237754631645,126.4999711359432,-0.00011459155902616463,51.73001019540199,-44.99999063801583
1682116569.2424574,-0.24998148601557815,0.0005729577951308233,-2.0000237754631645,126.4999711359432,-0.00011459155902616463,51.73001019540199,-44.99999063801583
1682116569.2452962,-0.24998148601557815,0.0005729577951308233,-2.0000237754631645,126.4999711359432,-0.00011459155902616463,51.73001019540199,-44.99999063801583
1682116569.2470782,-0.24998148601557815,0.0005729577951308233,-2.0000237754631645,126.4999711359432,-0.00011459155902616463,51.73001019540199,-44.99999063801583
1682116569.2482972,-0.24998148601557815,0.0005729577951308233,-2.0000237754631645,126.4999711359432,-0.00011459155902616463,51.73001019540199,-44.99999063801583
1682116569.2510839,-0.24998148601557815,0.0005729577951308233,-2.0000237754631645,126.4999711359432,-0.00011459155902616463,51.73001019540199,-44.99999063801583
1682116569.251703,-0.24998148601557815,0.0005729577951308233,-2.0000237754631645,126.4999711359432,-0.00011459155902616463,51.73001019540199,-44.99999063801583
1682116569.2540967,-0.24998148601557815,0.0005729577951308233,-2.0000237754631645,126.4999711359432,-0.00011459155902616463,51.73001019540199,-44.99999063801583
1682116569.2566218,-0.24998148601557815,0.0005729577951308233,-2.0000237754631645,126.4999711359432,-0.00011459155902616463,51.73001019540199,-44.99999063801583
1682116569.2595344,-0.24998148601557815,0.0005729577951308233,-2.0000237754631645,126.4999711359432,-0.00011459155902616463,51.73001019540199,-44.99999063801583
1682116569.2610943,-0.24998148601557815,0.0005729577951308233,-2.0000237754631645,126.4999711359432,-0.00011459155902616463,51.73001019540199,-44.99999063801583
1682116569.2634547,-0.24998148601557815,0.0005729577951308233,-2.0000237754631645,126.4999711359432,-0.00011459155902616463,51.73001019540199,-44.99999063801583
1682116569.2652733,-0.24998148601557815,0.0005729577951308233,-2.0000237754631645,126.4999711359432,-0.00011459155902616463,51.73001019540199,-44.99999063801583
1682116569.2677236,-0.24998148601557815,0.0005729577951308233,-2.0000237754631645,126.4999711359432,-0.00011459155902616463,51.73001019540199,-44.99999063801583
1682116569.2703578,-0.24998148601557815,0.0005729577951308233,-2.0000237754631645,126.4999711359432,-0.00011459155902616463,51.73001019540199,-44.99999063801583
1682116569.2722614,-0.24998148601557815,0.0005729577951308233,-2.0000237754631645,126.4999711359432,-0.00011459155902616463,51.73001019540199,-44.99999063801583
1682116569.2745214,-0.24998148601557815,0.0005729577951308233,-2.0000237754631645,126.4999711359432,-0.00011459155902616463,51.73001019540199,-44.99999063801583
1682116569.2766154,-0.24998148601557815,0.0005729577951308233,-2.0000237754631645,126.4999711359432,-0.00011459155902616463,51.73001019540199,-44.99999063801583
1682116569.2783577,-0.24998148601557815,0.0005729577951308233,-2.0000237754631645,126.4999711359432,-0.00011459155902616463,51.73001019540199,-44.99999063801583
1682116569.2801359,-0.24998148601557815,0.0005729577951308233,-2.0000237754631645,126.4999711359432,-0.00011459155902616463,51.73001019540199,-44.99999063801583
1682116569.2820492,-0.24998148601557815,0.0005729577951308233,-2.0000237754631645,126.4999711359432,-0.00011459155902616463,51.73001019540199,-44.99999063801583
1682116569.2837613,-0.24998148601557815,0.0005729577951308233,-2.0000237754631645,126.4999711359432,-0.00011459155902616463,51.73001019540199,-44.99999063801583
1682116569.2860787,-0.24998148601557815,0.0005729577951308233,-2.0000237754631645,126.4999711359432,-0.00011459155902616463,51.73001019540199,-44.99999063801583
1682116569.2893934,-0.24998148601557815,0.0005729577951308233,-2.0000237754631645,126.4999711359432,-0.00011459155902616463,51.73001019540199,-44.99999063801583
1682116569.2913165,-0.24998148601557815,0.0005729577951308233,-2.0000237754631645,126.4999711359432,-0.00011459155902616463,51.73001019540199,-44.99999063801583
1682116569.29224,-0.24998148601557815,0.0005729577951308233,-2.0000237754631645,126.4999711359432,-0.00011459155902616463,51.73001019540199,-44.99999063801583
1682116569.2931232,-0.24998148601557815,0.0005729577951308233,-2.0000237754631645,126.4999711359432,-0.00011459155902616463,51.73001019540199,-44.99999063801583
1682116593.6850727,-0.24998148601557815,0.0005729577951308233,-2.0000237754631645,126.4999711359432,-0.00011459155902616463,51.73001019540199,-44.99999063801583
1682116593.7677941,-0.24998148601557815,0.0005729577951308233,-2.0000237754631645,126.4999711359432,-0.00011459155902616463,51.73001019540199,-44.99999063801583
1682116593.8545468,-0.24998148601557815,0.0005729577951308233,-2.0000237754631645,126.4999711359432,-0.00011459155902616463,51.73001019540199,-44.99999063801583
1682116593.9442062,-0.24998148601557815,0.0005729577951308233,-2.0000237754631645,126.4999711359432,-0.00011459155902616463,51.73001019540199,-44.99999063801583
1682116594.0209713,-0.24998148601557815,0.0005729577951308233,-2.0000237754631645,126.4999711359432,-0.00011459155902616463,51.73001019540199,-44.99999063801583
1682116594.124714,-0.24998148601557815,0.0005729577951308233,-2.0000237754631645,126.4999711359432,-0.00011459155902616463,51.73001019540199,-44.99999063801583
1682116594.2059667,-0.24998148601557815,0.0005729577951308233,-2.0000237754631645,126.4999711359432,-0.00011459155902616463,51.73001019540199,-44.99999063801583
1682116594.2829995,-0.24998148601557815,0.0005729577951308233,-2.0000237754631645,126.4999711359432,-0.00011459155902616463,51.73001019540199,-44.99999063801583
1682116594.378798,-0.24998148601557815,0.0005729577951308233,-2.0000237754631645,126.4999711359432,-0.00011459155902616463,51.73001019540199,-44.99999063801583
1682116594.4615204,-0.24998148601557815,0.0005729577951308233,-2.0000237754631645,126.4999711359432,-0.00011459155902616463,51.73001019540199,-44.99999063801583
1682116594.549388,-0.24998148601557815,0.0005729577951308233,-2.0000237754631645,126.4999711359432,-0.00011459155902616463,51.73001019540199,-44.99999063801583
1682116594.6268384,-0.24998148601557815,0.0005729577951308233,-2.0000237754631645,126.4999711359432,-0.00011459155902616463,51.73001019540199,-44.99999063801583
1682116594.7289457,-0.24998148601557815,0.0005729577951308233,-2.0000237754631645,126.4999711359432,-0.00011459155902616463,51.73001019540199,-44.99999063801583
1682116594.8157563,-0.24998148601557815,0.0005729577951308233,-2.0000237754631645,126.4999711359432,-0.00011459155902616463,51.73001019540199,-44.99999063801583
1682116594.9038925,-0.24998148601557815,0.0005729577951308233,-2.0000237754631645,126.4999711359432,-0.00011459155902616463,51.73001019540199,-44.99999063801583
1682116594.975202,-0.24998148601557815,0.0005729577951308233,-2.0000237754631645,126.4999711359432,-0.00011459155902616463,51.73001019540199,-44.99999063801583
1682116595.0702057,-0.24998148601557815,0.0005729577951308233,-2.0000237754631645,126.4999711359432,-0.00011459155902616463,51.73001019540199,-44.99999063801583
1682116595.164826,-0.24998148601557815,0.0005729577951308233,-2.0000237754631645,126.4999711359432,-0.00011459155902616463,51.73001019540199,-44.99999063801583
1682116595.2604003,-0.24998148601557815,0.0005729577951308233,-2.0000237754631645,126.4999711359432,-0.00011459155902616463,51.73001019540199,-44.99999063801583
1682116595.3410676,-0.24998148601557815,0.0005729577951308233,-2.0000237754631645,126.4999711359432,-0.00011459155902616463,51.73001019540199,-44.99999063801583
1682116595.4233088,-0.24998148601557815,0.0005729577951308233,-2.0000237754631645,126.4999711359432,-0.00011459155902616463,51.73001019540199,-44.99999063801583
1682116595.5187452,-0.24998148601557815,0.0005729577951308233,-2.0000237754631645,126.4999711359432,-0.00011459155902616463,51.73001019540199,-44.99999063801583
1682116595.6177688,-0.24998148601557815,0.0005729577951308233,-2.0000237754631645,126.4999711359432,-0.00011459155902616463,51.73001019540199,-44.99999063801583
1682116595.7175913,-0.24998148601557815,0.0005729577951308233,-2.0000237754631645,126.4999711359432,-0.00011459155902616463,51.73001019540199,-44.99999063801583
1682116595.800201,-0.24998148601557815,0.0005729577951308233,-2.0000237754631645,126.4999711359432,-0.00011459155902616463,51.73001019540199,-44.99999063801583
1682116595.8829188,-0.24998148601557815,0.0005729577951308233,-2.0000237754631645,126.4999711359432,-0.00011459155902616463,51.73001019540199,-44.99999063801583
1682116595.9731634,-0.24998148601557815,0.0005729577951308233,-2.0000237754631645,126.4999711359432,-0.00011459155902616463,51.73001019540199,-44.99999063801583
1682116596.0490112,-0.24998148601557815,0.0005729577951308233,-2.0000237754631645,126.4999711359432,-0.00011459155902616463,51.73001019540199,-44.99999063801583
1682116596.132976,-0.24998148601557815,0.0005729577951308233,-2.0000237754631645,126.4999711359432,-0.00011459155902616463,51.73001019540199,-44.99999063801583
1682116596.1994872,-0.24998148601557815,0.0005729577951308233,-2.0000237754631645,126.4999711359432,-0.00011459155902616463,51.73001019540199,-44.99999063801583
1682116596.2817228,-0.24998148601557815,0.0005729577951308233,-2.0000237754631645,126.4999711359432,-0.00011459155902616463,51.73001019540199,-44.99999063801583
1682116596.364827,-0.24998148601557815,0.0005729577951308233,-2.0000237754631645,126.4999711359432,-0.00011459155902616463,51.73001019540199,-44.99999063801583
1682116596.4512799,-0.24998148601557815,0.0005729577951308233,-2.0000237754631645,126.4999711359432,-0.00011459155902616463,51.73001019540199,-44.99999063801583
1682116596.5319736,-0.24998148601557815,0.0005729577951308233,-2.0000237754631645,126.4999711359432,-0.00011459155902616463,51.73001019540199,-44.99999063801583
1682116596.6029205,-0.24998148601557815,0.0005729577951308233,-2.0000237754631645,126.4999711359432,-0.00011459155902616463,51.73001019540199,-44.99999063801583
1682116596.684778,-0.24998148601557815,0.0005729577951308233,-2.0000237754631645,126.4999711359432,-0.00011459155902616463,51.73001019540199,-44.99999063801583
1682116596.7806704,-0.24998148601557815,0.0005729577951308233,-2.0000237754631645,126.4999711359432,-0.00011459155902616463,51.73001019540199,-44.99999063801583
1682116596.8744633,-0.24998148601557815,0.0005729577951308233,-2.0000237754631645,126.4999711359432,-0.00011459155902616463,51.73001019540199,-44.99999063801583
1682116596.9557962,-0.24998148601557815,0.0005729577951308233,-2.0000237754631645,126.4999711359432,-0.00011459155902616463,51.73001019540199,-44.99999063801583
1682116597.053115,-0.24998148601557815,0.0005729577951308233,-2.0000237754631645,126.4999711359432,-0.00011459155902616463,51.73001019540199,-44.99999063801583
1682116597.145605,-0.24998148601557815,0.0005729577951308233,-2.0000237754631645,126.4999711359432,-0.00011459155902616463,51.73001019540199,-44.99999063801583
1682116597.232041,-0.24998148601557815,0.0005729577951308233,-2.0000237754631645,126.4999711359432,-0.00011459155902616463,51.73001019540199,-44.99999063801583
1682116597.3248932,-0.24998148601557815,0.0005729577951308233,-2.0000237754631645,126.4999711359432,-0.00011459155902616463,51.73001019540199,-44.99999063801583
1682116597.4132526,-0.24998148601557815,0.0005729577951308233,-2.0000237754631645,126.4999711359432,-0.00011459155902616463,51.73001019540199,-44.99999063801583
1682116597.5030494,-0.24998148601557815,0.0005729577951308233,-2.0000237754631645,126.4999711359432,-0.00011459155902616463,51.73001019540199,-44.99999063801583
1682116597.5904422,-0.24998148601557815,0.0005729577951308233,-2.0000237754631645,126.4999711359432,-0.00011459155902616463,51.73001019540199,-44.99999063801583
1682116597.6752331,-0.24998148601557815,0.0005729577951308233,-2.0000237754631645,126.4999711359432,-0.00011459155902616463,51.73001019540199,-44.99999063801583
1682116597.778155,-0.24998148601557815,0.0005729577951308233,-2.0000237754631645,126.4999711359432,-0.00011459155902616463,51.73001019540199,-44.99999063801583
1682116597.8659902,-0.24998148601557815,0.0005729577951308233,-2.0000237754631645,126.4999711359432,-0.00011459155902616463,51.73001019540199,-44.99999063801583
1682116597.9507084,-0.24998148601557815,0.0005729577951308233,-2.0000237754631645,126.4999711359432,-0.00011459155902616463,51.73001019540199,-44.99999063801583
1682116598.0400229,-0.24998148601557815,0.0005729577951308233,-2.0000237754631645,126.4999711359432,-0.00011459155902616463,51.73001019540199,-44.99999063801583
1682116598.1177142,-0.24998148601557815,0.0005729577951308233,-2.0000237754631645,126.4999711359432,-0.00011459155902616463,51.73001019540199,-44.99999063801583
1682116598.2221045,-0.24998148601557815,0.0005729577951308233,-2.0000237754631645,126.4999711359432,-0.00011459155902616463,51.73001019540199,-44.99999063801583
1682116598.312138,-0.24998148601557815,0.0005729577951308233,-2.0000237754631645,126.4999711359432,-0.00011459155902616463,51.73001019540199,-44.99999063801583
1682116598.3962674,-0.24998148601557815,0.0005729577951308233,-2.0000237754631645,126.4999711359432,-0.00011459155902616463,51.73001019540199,-44.99999063801583
1682116598.4908524,-0.24998148601557815,0.0005729577951308233,-2.0000237754631645,126.4999711359432,-0.00011459155902616463,51.73001019540199,-44.99999063801583
1682116598.5754185,-0.24998148601557815,0.0005729577951308233,-2.0000237754631645,126.4999711359432,-0.00011459155902616463,51.73001019540199,-44.99999063801583
1682116598.651473,-0.24998148601557815,0.0005729577951308233,-2.0000237754631645,126.4999711359432,-0.00011459155902616463,51.73001019540199,-44.99999063801583
1682116598.751285,-0.24998148601557815,0.0005729577951308233,-2.0000237754631645,126.4999711359432,-0.00011459155902616463,51.73001019540199,-44.99999063801583
1682116598.8449273,-0.24998148601557815,0.0005729577951308233,-2.0000237754631645,126.4999711359432,-0.00011459155902616463,51.73001019540199,-44.99999063801583
1682116598.9234087,-0.24998148601557815,0.0005729577951308233,-2.0000237754631645,126.4999711359432,-0.00011459155902616463,51.73001019540199,-44.99999063801583
1682116599.0189352,-0.24998148601557815,0.0005729577951308233,-2.0000237754631645,126.4999711359432,-0.00011459155902616463,51.73001019540199,-44.99999063801583
1682116599.1154168,-0.24998148601557815,0.0005729577951308233,-2.0000237754631645,126.4999711359432,-0.00011459155902616463,51.73001019540199,-44.99999063801583
1682116599.200223,-0.24998148601557815,0.0005729577951308233,-2.0000237754631645,126.4999711359432,-0.00011459155902616463,51.73001019540199,-44.99999063801583
1682116599.287008,-0.24998148601557815,0.0005729577951308233,-2.0000237754631645,126.4999711359432,-0.00011459155902616463,51.73001019540199,-44.99999063801583
1682116599.3914745,-0.24998148601557815,0.0005729577951308233,-2.0000237754631645,126.4999711359432,-0.00011459155902616463,51.73001019540199,-44.99999063801583
1682116599.4801455,-0.24998148601557815,0.0005729577951308233,-2.0000237754631645,126.4999711359432,-0.00011459155902616463,51.73001019540199,-44.99999063801583
1682116599.565086,-0.24998148601557815,0.0005729577951308233,-2.0000237754631645,126.4999711359432,-0.00011459155902616463,51.73001019540199,-44.99999063801583
1682116599.6590607,-0.24998148601557815,0.0005729577951308233,-2.0000237754631645,126.4999711359432,-0.00011459155902616463,51.73001019540199,-44.99999063801583
1682116599.7481096,-0.24998148601557815,0.0005729577951308233,-2.0000237754631645,126.4999711359432,-0.00011459155902616463,51.73001019540199,-44.99999063801583
1682116599.8372047,-0.24998148601557815,0.0005729577951308233,-2.0000237754631645,126.4999711359432,-0.00011459155902616463,51.73001019540199,-44.99999063801583
1682116599.9163342,-0.24998148601557815,0.0005729577951308233,-2.0000237754631645,126.4999711359432,-0.00011459155902616463,51.73001019540199,-44.99999063801583
1682116600.0136845,-0.24998148601557815,0.0005729577951308233,-2.0000237754631645,126.4999711359432,-0.00011459155902616463,51.73001019540199,-44.99999063801583
1682116600.1032503,-0.24998148601557815,0.0005729577951308233,-2.0000237754631645,126.4999711359432,-0.00011459155902616463,51.73001019540199,-44.99999063801583
1682116600.1957693,-0.24998148601557815,0.0005729577951308233,-2.0000237754631645,126.4999711359432,-0.00011459155902616463,51.73001019540199,-44.99999063801583
1682116600.277386,-0.24998148601557815,0.0005729577951308233,-2.0000237754631645,126.4999711359432,-0.00011459155902616463,51.73001019540199,-44.99999063801583
1682116600.3546154,-0.24998148601557815,0.0005729577951308233,-2.0000237754631645,126.4999711359432,-0.00011459155902616463,51.73001019540199,-44.99999063801583
1682116600.42647,-0.24998148601557815,0.0005729577951308233,-2.0000237754631645,126.4999711359432,-0.00011459155902616463,51.73001019540199,-44.99999063801583
1682116600.503407,-0.24998148601557815,0.0005729577951308233,-2.0000237754631645,126.4999711359432,-0.00011459155902616463,51.73001019540199,-44.99999063801583
1682116600.5721323,-0.24998148601557815,0.0005729577951308233,-2.0000237754631645,126.4999711359432,-0.00011459155902616463,51.73001019540199,-44.99999063801583
1682116600.640323,-0.24998148601557815,0.0005729577951308233,-2.0000237754631645,126.4999711359432,-0.00011459155902616463,51.73001019540199,-44.99999063801583
1682116600.7297938,-0.24998148601557815,0.0005729577951308233,-2.0000237754631645,126.4999711359432,-0.00011459155902616463,51.73001019540199,-44.99999063801583
1682116600.8084567,-0.24998148601557815,0.0005729577951308233,-2.0000237754631645,126.4999711359432,-0.00011459155902616463,51.73001019540199,-44.99999063801583
1682116600.890589,-0.24998148601557815,0.0005729577951308233,-2.0000237754631645,126.4999711359432,-0.00011459155902616463,51.73001019540199,-44.99999063801583
1682116600.9773943,-0.24998148601557815,0.0005729577951308233,-2.0000237754631645,126.4999711359432,-0.00011459155902616463,51.73001019540199,-44.99999063801583
1682116601.068191,-0.24998148601557815,0.0005729577951308233,-2.0000237754631645,126.4999711359432,-0.00011459155902616463,51.73001019540199,-44.99999063801583
1682116601.1505814,-0.24998148601557815,0.0005729577951308233,-2.0000237754631645,126.4999711359432,-0.00011459155902616463,51.73001019540199,-44.99999063801583
1682116601.2199774,-0.24998148601557815,0.0005729577951308233,-2.0000237754631645,126.4999711359432,-0.00011459155902616463,51.73001019540199,-44.99999063801583
1682116601.2993884,-0.24998148601557815,0.0005729577951308233,-2.0000237754631645,126.4999711359432,-0.00011459155902616463,51.73001019540199,-44.99999063801583
1682116601.3794446,-0.24998148601557815,0.0005729577951308233,-2.0000237754631645,126.4999711359432,-0.00011459155902616463,51.73001019540199,-44.99999063801583
1682116601.4650161,-0.24998148601557815,0.0005729577951308233,-2.0000237754631645,126.4999711359432,-0.00011459155902616463,51.73001019540199,-44.99999063801583
1682116601.55685,-0.24998148601557815,0.0005729577951308233,-2.0000237754631645,126.4999711359432,-0.00011459155902616463,51.73001019540199,-44.99999063801583
1682116601.744304,-0.24998148601557815,0.0005729577951308233,-2.0000237754631645,126.4999711359432,-0.00011459155902616463,51.73001019540199,-44.99999063801583
1682116601.8260267,-0.24998148601557815,0.0005729577951308233,-2.0000237754631645,126.4999711359432,-0.00011459155902616463,51.73001019540199,-44.99999063801583
1682116601.913783,-0.24998148601557815,0.0005729577951308233,-2.0000237754631645,126.4999711359432,-0.00011459155902616463,51.73001019540199,-44.99999063801583
1682116601.9854953,-0.24998148601557815,0.0005729577951308233,-2.0000237754631645,126.4999711359432,-0.00011459155902616463,51.73001019540199,-44.99999063801583
1682116602.067494,-0.24998148601557815,0.0005729577951308233,-2.0000237754631645,126.4999711359432,-0.00011459155902616463,51.73001019540199,-44.99999063801583
1682116602.1581197,-0.24998148601557815,0.0005729577951308233,-2.0000237754631645,126.4999711359432,-0.00011459155902616463,51.73001019540199,-44.99999063801583
1682116602.2341325,-0.24998148601557815,0.0005729577951308233,-2.0000237754631645,126.4999711359432,-0.00011459155902616463,51.73001019540199,-44.99999063801583
1682116602.3239365,-0.24998148601557815,0.0005729577951308233,-2.0000237754631645,126.4999711359432,-0.00011459155902616463,51.73001019540199,-44.99999063801583
1682116602.409153,-0.24998148601557815,0.0005729577951308233,-2.0000237754631645,126.4999711359432,-0.00011459155902616463,51.73001019540199,-44.99999063801583
1682116602.4855342,-0.24998148601557815,0.0005729577951308233,-2.0000237754631645,126.4999711359432,-0.00011459155902616463,51.73001019540199,-44.99999063801583
1682116602.5844705,-0.24998148601557815,0.0005729577951308233,-2.0000237754631645,126.4999711359432,-0.00011459155902616463,51.73001019540199,-44.99999063801583
1682116602.6609461,-0.24998148601557815,0.0005729577951308233,-2.0000237754631645,126.4999711359432,-0.00011459155902616463,51.73001019540199,-44.99999063801583
1682116602.7410855,-0.24998148601557815,0.0005729577951308233,-2.0000237754631645,126.4999711359432,-0.00011459155902616463,51.73001019540199,-44.99999063801583
1682116602.8377912,-0.24998148601557815,0.0005729577951308233,-2.0000237754631645,126.4999711359432,-0.00011459155902616463,51.73001019540199,-44.99999063801583
1682116602.9275727,-0.24998148601557815,0.0005729577951308233,-2.0000237754631645,126.4999711359432,-0.00011459155902616463,51.73001019540199,-44.99999063801583
1682116603.0102654,-0.24998148601557815,0.0005729577951308233,-2.0000237754631645,126.4999711359432,-0.00011459155902616463,51.73001019540199,-44.99999063801583
1682116603.0924516,-0.24998148601557815,0.0005729577951308233,-2.0000237754631645,126.4999711359432,-0.00011459155902616463,51.73001019540199,-44.99999063801583
1682116603.1796098,-0.24998148601557815,0.0005729577951308233,-2.0000237754631645,126.4999711359432,-0.00011459155902616463,51.73001019540199,-44.99999063801583
1682116603.2675128,-0.24998148601557815,0.0005729577951308233,-2.0000237754631645,126.4999711359432,-0.00011459155902616463,51.73001019540199,-44.99999063801583
1682116603.3601325,-0.24998148601557815,0.0005729577951308233,-2.0000237754631645,126.4999711359432,-0.00011459155902616463,51.73001019540199,-44.99999063801583
1682116603.4450102,-0.24998148601557815,0.0005729577951308233,-2.0000237754631645,126.4999711359432,-0.00011459155902616463,51.73001019540199,-44.99999063801583
1682116603.5246556,-0.24998148601557815,0.0005729577951308233,-2.0000237754631645,126.4999711359432,-0.00011459155902616463,51.73001019540199,-44.99999063801583
1682116603.6226416,-0.24998148601557815,0.0005729577951308233,-2.0000237754631645,126.4999711359432,-0.00011459155902616463,51.73001019540199,-44.99999063801583
1682116603.6991112,-0.24998148601557815,0.0005729577951308233,-2.0000237754631645,126.4999711359432,-0.00011459155902616463,51.73001019540199,-44.99999063801583
1682116603.775975,-0.24998148601557815,0.0005729577951308233,-2.0000237754631645,126.4999711359432,-0.00011459155902616463,51.73001019540199,-44.99999063801583
1682116603.8646574,-0.24998148601557815,0.0005729577951308233,-2.0000237754631645,126.4999711359432,-0.00011459155902616463,51.73001019540199,-44.99999063801583
1682116603.9466598,-0.24998148601557815,0.0005729577951308233,-2.0000237754631645,126.4999711359432,-0.00011459155902616463,51.73001019540199,-44.99999063801583
1682116604.0418189,-0.24998148601557815,0.0005729577951308233,-2.0000237754631645,126.4999711359432,-0.00011459155902616463,51.73001019540199,-44.99999063801583
1682116604.1220763,-0.24998148601557815,0.0005729577951308233,-2.0000237754631645,126.4999711359432,-0.00011459155902616463,51.73001019540199,-44.99999063801583
1682116604.2231936,-0.24998148601557815,0.0005729577951308233,-2.0000237754631645,126.4999711359432,-0.00011459155902616463,51.73001019540199,-44.99999063801583
1682116604.3185787,-0.24998148601557815,0.0005729577951308233,-2.0000237754631645,126.4999711359432,-0.00011459155902616463,51.73001019540199,-44.99999063801583
1682116604.4035764,-0.24998148601557815,0.0005729577951308233,-2.0000237754631645,126.4999711359432,-0.00011459155902616463,51.73001019540199,-44.99999063801583
1682116604.486558,-0.24998148601557815,0.0005729577951308233,-2.0000237754631645,126.4999711359432,-0.00011459155902616463,51.73001019540199,-44.99999063801583
1682116604.579617,-0.24998148601557815,0.0005729577951308233,-2.0000237754631645,126.4999711359432,-0.00011459155902616463,51.73001019540199,-44.99999063801583
1682116604.6598504,-0.24998148601557815,0.0005729577951308233,-2.0000237754631645,126.4999711359432,-0.00011459155902616463,51.73001019540199,-44.99999063801583
1682116604.7547853,-0.24998148601557815,0.0005729577951308233,-2.0000237754631645,126.4999711359432,-0.00011459155902616463,51.73001019540199,-44.99999063801583
1682116604.8315086,-0.24998148601557815,0.0005729577951308233,-2.0000237754631645,126.4999711359432,-0.00011459155902616463,51.73001019540199,-44.99999063801583
1682116604.9141316,-0.24998148601557815,0.0005729577951308233,-2.0000237754631645,126.4999711359432,-0.00011459155902616463,51.73001019540199,-44.99999063801583
1682116604.9844968,-0.24998148601557815,0.0005729577951308233,-2.0000237754631645,126.4999711359432,-0.00011459155902616463,51.73001019540199,-44.99999063801583
1682118328.3227718,-0.24998148601557815,87.38001716623694,-2.0000237754631645,126.4999711359432,-14.99997778074544,51.73001019540199,-44.99999063801583
1682118334.335728,-0.24998148601557815,0.017131438074411615,-2.0000237754631645,126.4999711359432,-0.0029220847551671984,51.73001019540199,-44.99999063801583
1682118334.336525,-0.24998148601557815,0.017131438074411615,-2.0000237754631645,126.4999711359432,-0.0029220847551671984,51.73001019540199,-44.99999063801583
1682118334.337226,-0.24998148601557815,0.017131438074411615,-2.0000237754631645,126.4999711359432,-0.0029220847551671984,51.73001019540199,-44.99999063801583
1682118334.3389726,-0.24998148601557815,0.017131438074411615,-2.0000237754631645,126.4999711359432,-0.0029220847551671984,51.73001019540199,-44.99999063801583
1682118334.340143,-0.24998148601557815,0.017131438074411615,-2.0000237754631645,126.4999711359432,-0.0029220847551671984,51.73001019540199,-44.99999063801583
1682118334.3413274,-0.24998148601557815,0.017131438074411615,-2.0000237754631645,126.4999711359432,-0.0029220847551671984,51.73001019540199,-44.99999063801583
1682118334.3426087,-0.24998148601557815,0.017131438074411615,-2.0000237754631645,126.4999711359432,-0.0029220847551671984,51.73001019540199,-44.99999063801583
1682118334.3433928,-0.24998148601557815,0.017131438074411615,-2.0000237754631645,126.4999711359432,-0.0029220847551671984,51.73001019540199,-44.99999063801583
1682118334.3440723,-0.24998148601557815,0.017131438074411615,-2.0000237754631645,126.4999711359432,-0.0029220847551671984,51.73001019540199,-44.99999063801583
1682118334.3450184,-0.24998148601557815,0.017131438074411615,-2.0000237754631645,126.4999711359432,-0.0029220847551671984,51.73001019540199,-44.99999063801583
1682118334.3471568,-0.24998148601557815,0.017131438074411615,-2.0000237754631645,126.4999711359432,-0.0029220847551671984,51.73001019540199,-44.99999063801583
1682118334.349051,-0.24998148601557815,0.017131438074411615,-2.0000237754631645,126.4999711359432,-0.0029220847551671984,51.73001019540199,-44.99999063801583
1682118334.3515506,-0.24998148601557815,0.017131438074411615,-2.0000237754631645,126.4999711359432,-0.0029220847551671984,51.73001019540199,-44.99999063801583
1682118334.3528326,-0.24998148601557815,0.017131438074411615,-2.0000237754631645,126.4999711359432,-0.0029220847551671984,51.73001019540199,-44.99999063801583
1682118334.353342,-0.24998148601557815,0.017131438074411615,-2.0000237754631645,126.4999711359432,-0.0029220847551671984,51.73001019540199,-44.99999063801583
1682118334.3540998,-0.24998148601557815,0.017131438074411615,-2.0000237754631645,126.4999711359432,-0.0029220847551671984,51.73001019540199,-44.99999063801583
1682119406.509915,-0.24998148601557815,87.38001716623694,-2.0000237754631645,126.4999711359432,-14.99997778074544,51.73001019540199,-44.99999063801583
1682119412.5212123,-0.24998148601557815,0.024064227395494575,-2.0000237754631645,126.4999711359432,-0.004125296124941927,51.73001019540199,-44.99999063801583
1682119412.5217645,-0.24998148601557815,0.024064227395494575,-2.0000237754631645,126.4999711359432,-0.004125296124941927,51.73001019540199,-44.99999063801583
1682119412.5225177,-0.24998148601557815,0.024064227395494575,-2.0000237754631645,126.4999711359432,-0.004125296124941927,51.73001019540199,-44.99999063801583
1682119412.5253985,-0.24998148601557815,0.024064227395494575,-2.0000237754631645,126.4999711359432,-0.004125296124941927,51.73001019540199,-44.99999063801583
1682119412.5268793,-0.24998148601557815,0.024064227395494575,-2.0000237754631645,126.4999711359432,-0.004125296124941927,51.73001019540199,-44.99999063801583
1682119412.5273693,-0.24998148601557815,0.024064227395494575,-2.0000237754631645,126.4999711359432,-0.004125296124941927,51.73001019540199,-44.99999063801583
1682119412.5281043,-0.24998148601557815,0.024064227395494575,-2.0000237754631645,126.4999711359432,-0.004125296124941927,51.73001019540199,-44.99999063801583
1682119412.5291944,-0.24998148601557815,0.024064227395494575,-2.0000237754631645,126.4999711359432,-0.004125296124941927,51.73001019540199,-44.99999063801583
1682119412.5308878,-0.24998148601557815,0.024064227395494575,-2.0000237754631645,126.4999711359432,-0.004125296124941927,51.73001019540199,-44.99999063801583
1682119412.5324287,-0.24998148601557815,0.024064227395494575,-2.0000237754631645,126.4999711359432,-0.004125296124941927,51.73001019540199,-44.99999063801583
1682119412.533218,-0.24998148601557815,0.024064227395494575,-2.0000237754631645,126.4999711359432,-0.004125296124941927,51.73001019540199,-44.99999063801583
1682119412.534715,-0.24998148601557815,0.024064227395494575,-2.0000237754631645,126.4999711359432,-0.004125296124941927,51.73001019540199,-44.99999063801583
1682119412.5361085,-0.24998148601557815,0.024064227395494575,-2.0000237754631645,126.4999711359432,-0.004125296124941927,51.73001019540199,-44.99999063801583
1682119412.5373678,-0.24998148601557815,0.024064227395494575,-2.0000237754631645,126.4999711359432,-0.004125296124941927,51.73001019540199,-44.99999063801583
1682119412.5412743,-0.24998148601557815,0.024064227395494575,-2.0000237754631645,126.4999711359432,-0.004125296124941927,51.73001019540199,-44.99999063801583
1682119412.5481687,-0.24998148601557815,0.0005729577951308233,-2.0000237754631645,126.4999711359432,-0.00011459155902616463,51.73001019540199,-44.99999063801583
1682119412.5524838,-0.24998148601557815,0.0005729577951308233,-2.0000237754631645,126.4999711359432,-0.00011459155902616463,51.73001019540199,-44.99999063801583
1682119412.555684,-0.24998148601557815,0.0005729577951308233,-2.0000237754631645,126.4999711359432,-0.00011459155902616463,51.73001019540199,-44.99999063801583
1682119412.5581474,-0.24998148601557815,0.0005729577951308233,-2.0000237754631645,126.4999711359432,-0.00011459155902616463,51.73001019540199,-44.99999063801583
1682119412.5628111,-0.24998148601557815,0.0005729577951308233,-2.0000237754631645,126.4999711359432,-0.00011459155902616463,51.73001019540199,-44.99999063801583
1682119412.5664783,-0.24998148601557815,0.0005729577951308233,-2.0000237754631645,126.4999711359432,-0.00011459155902616463,51.73001019540199,-44.99999063801583
1682119412.5705392,-0.24998148601557815,0.0005729577951308233,-2.0000237754631645,126.4999711359432,-0.00011459155902616463,51.73001019540199,-44.99999063801583
1682119412.5743144,-0.24998148601557815,0.0005729577951308233,-2.0000237754631645,126.4999711359432,-0.00011459155902616463,51.73001019540199,-44.99999063801583
1682119412.577432,-0.24998148601557815,0.0005729577951308233,-2.0000237754631645,126.4999711359432,-0.00011459155902616463,51.73001019540199,-44.99999063801583
1682119412.5820408,-0.24998148601557815,0.0005729577951308233,-2.0000237754631645,126.4999711359432,-0.00011459155902616463,51.73001019540199,-44.99999063801583
1682119412.5859482,-0.24998148601557815,0.0005729577951308233,-2.0000237754631645,126.4999711359432,-0.00011459155902616463,51.73001019540199,-44.99999063801583
1682119412.5902684,-0.24998148601557815,0.0005729577951308233,-2.0000237754631645,126.4999711359432,-0.00011459155902616463,51.73001019540199,-44.99999063801583
1682119412.594596,-0.24998148601557815,0.0005729577951308233,-2.0000237754631645,126.4999711359432,-0.00011459155902616463,51.73001019540199,-44.99999063801583
1682119412.5997176,-0.24998148601557815,0.0005729577951308233,-2.0000237754631645,126.4999711359432,-0.00011459155902616463,51.73001019540199,-44.99999063801583
1682119412.6036031,-0.24998148601557815,0.0005729577951308233,-2.0000237754631645,126.4999711359432,-0.00011459155902616463,51.73001019540199,-44.99999063801583
1682119412.6072025,-0.24998148601557815,0.0005729577951308233,-2.0000237754631645,126.4999711359432,-0.00011459155902616463,51.73001019540199,-44.99999063801583
1682119412.60966,-0.24998148601557815,0.0005729577951308233,-2.0000237754631645,126.4999711359432,-0.00011459155902616463,51.73001019540199,-44.99999063801583
1682119412.6144753,-0.24998148601557815,0.0005729577951308233,-2.0000237754631645,126.4999711359432,-0.00011459155902616463,51.73001019540199,-44.99999063801583
1682119412.6186388,-0.24998148601557815,0.0005729577951308233,-2.0000237754631645,126.4999711359432,-0.00011459155902616463,51.73001019540199,-44.99999063801583
1682119412.623617,-0.24998148601557815,0.0005729577951308233,-2.0000237754631645,126.4999711359432,-0.00011459155902616463,51.73001019540199,-44.99999063801583
1682119412.629626,-0.24998148601557815,0.0005729577951308233,-2.0000237754631645,126.4999711359432,-0.00011459155902616463,51.73001019540199,-44.99999063801583
1682119412.6337574,-0.24998148601557815,0.0005729577951308233,-2.0000237754631645,126.4999711359432,-0.00011459155902616463,51.73001019540199,-44.99999063801583
1682119412.6398563,-0.24998148601557815,0.0005729577951308233,-2.0000237754631645,126.4999711359432,-0.00011459155902616463,51.73001019540199,-44.99999063801583
1682119412.6429775,-0.24998148601557815,0.0005729577951308233,-2.0000237754631645,126.4999711359432,-0.00011459155902616463,51.73001019540199,-44.99999063801583
1682119412.6487973,-0.24998148601557815,0.0005729577951308233,-2.0000237754631645,126.4999711359432,-0.00011459155902616463,51.73001019540199,-44.99999063801583
1682119412.654602,-0.24998148601557815,0.0005729577951308233,-2.0000237754631645,126.4999711359432,-0.00011459155902616463,51.73001019540199,-44.99999063801583
1682119412.659054,-0.24998148601557815,0.0005729577951308233,-2.0000237754631645,126.4999711359432,-0.00011459155902616463,51.73001019540199,-44.99999063801583
1682119412.6616662,-0.24998148601557815,0.0005729577951308233,-2.0000237754631645,126.4999711359432,-0.00011459155902616463,51.73001019540199,-44.99999063801583
1682119412.6645284,-0.24998148601557815,0.0005729577951308233,-2.0000237754631645,126.4999711359432,-0.00011459155902616463,51.73001019540199,-44.99999063801583
1682119412.667246,-0.24998148601557815,0.0005729577951308233,-2.0000237754631645,126.4999711359432,-0.00011459155902616463,51.73001019540199,-44.99999063801583
1682119412.6713557,-0.24998148601557815,0.0005729577951308233,-2.0000237754631645,126.4999711359432,-0.00011459155902616463,51.73001019540199,-44.99999063801583
1682119412.6751163,-0.24998148601557815,0.0005729577951308233,-2.0000237754631645,126.4999711359432,-0.00011459155902616463,51.73001019540199,-44.99999063801583
1682119412.6781101,-0.24998148601557815,0.0005729577951308233,-2.0000237754631645,126.4999711359432,-0.00011459155902616463,51.73001019540199,-44.99999063801583
1682119412.6821513,-0.24998148601557815,0.0005729577951308233,-2.0000237754631645,126.4999711359432,-0.00011459155902616463,51.73001019540199,-44.99999063801583
1682119412.6853323,-0.24998148601557815,0.0005729577951308233,-2.0000237754631645,126.4999711359432,-0.00011459155902616463,51.73001019540199,-44.99999063801583
1682119412.6896932,-0.24998148601557815,0.0005729577951308233,-2.0000237754631645,126.4999711359432,-0.00011459155902616463,51.73001019540199,-44.99999063801583
1682119412.693507,-0.24998148601557815,0.0005729577951308233,-2.0000237754631645,126.4999711359432,-0.00011459155902616463,51.73001019540199,-44.99999063801583
1682119412.6960287,-0.24998148601557815,0.0005729577951308233,-2.0000237754631645,126.4999711359432,-0.00011459155902616463,51.73001019540199,-44.99999063801583
1682119412.6990776,-0.24998148601557815,0.0005729577951308233,-2.0000237754631645,126.4999711359432,-0.00011459155902616463,51.73001019540199,-44.99999063801583
1682119412.7018785,-0.24998148601557815,0.0005729577951308233,-2.0000237754631645,126.4999711359432,-0.00011459155902616463,51.73001019540199,-44.99999063801583
1682119412.7070158,-0.24998148601557815,0.0005729577951308233,-2.0000237754631645,126.4999711359432,-0.00011459155902616463,51.73001019540199,-44.99999063801583
1682119412.7098534,-0.24998148601557815,0.0005729577951308233,-2.0000237754631645,126.4999711359432,-0.00011459155902616463,51.73001019540199,-44.99999063801583
1682119412.7121408,-0.24998148601557815,0.0005729577951308233,-2.0000237754631645,126.4999711359432,-0.00011459155902616463,51.73001019540199,-44.99999063801583
1682119412.7144456,-0.24998148601557815,0.0005729577951308233,-2.0000237754631645,126.4999711359432,-0.00011459155902616463,51.73001019540199,-44.99999063801583
1682119412.7173204,-0.24998148601557815,0.0005729577951308233,-2.0000237754631645,126.4999711359432,-0.00011459155902616463,51.73001019540199,-44.99999063801583
1682119412.7198803,-0.24998148601557815,0.0005729577951308233,-2.0000237754631645,126.4999711359432,-0.00011459155902616463,51.73001019540199,-44.99999063801583
1682119412.7228918,-0.24998148601557815,0.0005729577951308233,-2.0000237754631645,126.4999711359432,-0.00011459155902616463,51.73001019540199,-44.99999063801583
1682119412.7244465,-0.24998148601557815,0.0005729577951308233,-2.0000237754631645,126.4999711359432,-0.00011459155902616463,51.73001019540199,-44.99999063801583
1682119412.7256992,-0.24998148601557815,0.0005729577951308233,-2.0000237754631645,126.4999711359432,-0.00011459155902616463,51.73001019540199,-44.99999063801583
1682119412.7276306,-0.24998148601557815,0.0005729577951308233,-2.0000237754631645,126.4999711359432,-0.00011459155902616463,51.73001019540199,-44.99999063801583
1682119412.7330043,-0.24998148601557815,0.0005729577951308233,-2.0000237754631645,126.4999711359432,-0.00011459155902616463,51.73001019540199,-44.99999063801583
1682119412.8242192,-0.24998148601557815,0.0005729577951308233,-2.0000237754631645,126.4999711359432,-0.00011459155902616463,51.73001019540199,-44.99999063801583
1682119412.8982992,-0.24998148601557815,0.0005729577951308233,-2.0000237754631645,126.4999711359432,-0.00011459155902616463,51.73001019540199,-44.99999063801583
1682119412.9874568,-0.24998148601557815,0.0005729577951308233,-2.0000237754631645,126.4999711359432,-0.00011459155902616463,51.73001019540199,-44.99999063801583
1682119413.0714092,-0.24998148601557815,0.0005729577951308233,-2.0000237754631645,126.4999711359432,-0.00011459155902616463,51.73001019540199,-44.99999063801583
1682119413.155182,-0.24998148601557815,0.0005729577951308233,-2.0000237754631645,126.4999711359432,-0.00011459155902616463,51.73001019540199,-44.99999063801583
1682119413.246639,-0.24998148601557815,0.0005729577951308233,-2.0000237754631645,126.4999711359432,-0.00011459155902616463,51.73001019540199,-44.99999063801583
1682119413.3366568,-0.24998148601557815,0.0005729577951308233,-2.0000237754631645,126.4999711359432,-0.00011459155902616463,51.73001019540199,-44.99999063801583
1682119413.4221354,-0.24998148601557815,0.0005729577951308233,-2.0000237754631645,126.4999711359432,-0.00011459155902616463,51.73001019540199,-44.99999063801583
1682119413.5151052,-0.24998148601557815,0.0005729577951308233,-2.0000237754631645,126.4999711359432,-0.00011459155902616463,51.73001019540199,-44.99999063801583
1682119413.6009278,-0.24998148601557815,0.0005729577951308233,-2.0000237754631645,126.4999711359432,-0.00011459155902616463,51.73001019540199,-44.99999063801583
1682119413.6910362,-0.24998148601557815,0.0005729577951308233,-2.0000237754631645,126.4999711359432,-0.00011459155902616463,51.73001019540199,-44.99999063801583
1682119413.784833,-0.24998148601557815,0.0005729577951308233,-2.0000237754631645,126.4999711359432,-0.00011459155902616463,51.73001019540199,-44.99999063801583
1682119413.8706503,-0.24998148601557815,0.0005729577951308233,-2.0000237754631645,126.4999711359432,-0.00011459155902616463,51.73001019540199,-44.99999063801583
1682119413.9591675,-0.24998148601557815,0.0005729577951308233,-2.0000237754631645,126.4999711359432,-0.00011459155902616463,51.73001019540199,-44.99999063801583
1682119414.040562,-0.24998148601557815,0.0005729577951308233,-2.0000237754631645,126.4999711359432,-0.00011459155902616463,51.73001019540199,-44.99999063801583
1682119414.120887,-0.24998148601557815,0.0005729577951308233,-2.0000237754631645,126.4999711359432,-0.00011459155902616463,51.73001019540199,-44.99999063801583
1682119414.2040458,-0.24998148601557815,0.0005729577951308233,-2.0000237754631645,126.4999711359432,-0.00011459155902616463,51.73001019540199,-44.99999063801583
1682119414.2951639,-0.24998148601557815,0.0005729577951308233,-2.0000237754631645,126.4999711359432,-0.00011459155902616463,51.73001019540199,-44.99999063801583
1682119414.387076,-0.24998148601557815,0.0005729577951308233,-2.0000237754631645,126.4999711359432,-0.00011459155902616463,51.73001019540199,-44.99999063801583
1682119414.4925427,-0.24998148601557815,0.0005729577951308233,-2.0000237754631645,126.4999711359432,-0.00011459155902616463,51.73001019540199,-44.99999063801583
1682119414.5755503,-0.24998148601557815,0.0005729577951308233,-2.0000237754631645,126.4999711359432,-0.00011459155902616463,51.73001019540199,-44.99999063801583
1682119414.6587439,-0.24998148601557815,0.0005729577951308233,-2.0000237754631645,126.4999711359432,-0.00011459155902616463,51.73001019540199,-44.99999063801583
1682119414.750169,-0.24998148601557815,0.0005729577951308233,-2.0000237754631645,126.4999711359432,-0.00011459155902616463,51.73001019540199,-44.99999063801583
1682119414.8322988,-0.24998148601557815,0.0005729577951308233,-2.0000237754631645,126.4999711359432,-0.00011459155902616463,51.73001019540199,-44.99999063801583
1682119414.9195623,-0.24998148601557815,0.0005729577951308233,-2.0000237754631645,126.4999711359432,-0.00011459155902616463,51.73001019540199,-44.99999063801583
1682119415.0113285,-0.24998148601557815,0.0005729577951308233,-2.0000237754631645,126.4999711359432,-0.00011459155902616463,51.73001019540199,-44.99999063801583
1682119415.0879335,-0.24998148601557815,0.0005729577951308233,-2.0000237754631645,126.4999711359432,-0.00011459155902616463,51.73001019540199,-44.99999063801583
1682119415.166184,-0.24998148601557815,0.0005729577951308233,-2.0000237754631645,126.4999711359432,-0.00011459155902616463,51.73001019540199,-44.99999063801583
1682119415.2523334,-0.24998148601557815,0.0005729577951308233,-2.0000237754631645,126.4999711359432,-0.00011459155902616463,51.73001019540199,-44.99999063801583
1682119415.3371027,-0.24998148601557815,0.0005729577951308233,-2.0000237754631645,126.4999711359432,-0.00011459155902616463,51.73001019540199,-44.99999063801583
1682119415.4177892,-0.24998148601557815,0.0005729577951308233,-2.0000237754631645,126.4999711359432,-0.00011459155902616463,51.73001019540199,-44.99999063801583
1682119415.514981,-0.24998148601557815,0.0005729577951308233,-2.0000237754631645,126.4999711359432,-0.00011459155902616463,51.73001019540199,-44.99999063801583
1682119415.61279,-0.24998148601557815,0.0005729577951308233,-2.0000237754631645,126.4999711359432,-0.00011459155902616463,51.73001019540199,-44.99999063801583
1682119415.7047846,-0.24998148601557815,0.0005729577951308233,-2.0000237754631645,126.4999711359432,-0.00011459155902616463,51.73001019540199,-44.99999063801583
1682119415.7897363,-0.24998148601557815,0.0005729577951308233,-2.0000237754631645,126.4999711359432,-0.00011459155902616463,51.73001019540199,-44.99999063801583
1682119415.8753772,-0.24998148601557815,0.0005729577951308233,-2.0000237754631645,126.4999711359432,-0.00011459155902616463,51.73001019540199,-44.99999063801583
1682119415.9644642,-0.24998148601557815,0.0005729577951308233,-2.0000237754631645,126.4999711359432,-0.00011459155902616463,51.73001019540199,-44.99999063801583
1682119416.052734,-0.24998148601557815,0.0005729577951308233,-2.0000237754631645,126.4999711359432,-0.00011459155902616463,51.73001019540199,-44.99999063801583
1682119416.1404538,-0.24998148601557815,0.0005729577951308233,-2.0000237754631645,126.4999711359432,-0.00011459155902616463,51.73001019540199,-44.99999063801583
1682119416.2225053,-0.24998148601557815,0.0005729577951308233,-2.0000237754631645,126.4999711359432,-0.00011459155902616463,51.73001019540199,-44.99999063801583
1682119416.3064854,-0.24998148601557815,0.0005729577951308233,-2.0000237754631645,126.4999711359432,-0.00011459155902616463,51.73001019540199,-44.99999063801583
1682119416.389131,-0.24998148601557815,0.0005729577951308233,-2.0000237754631645,126.4999711359432,-0.00011459155902616463,51.73001019540199,-44.99999063801583
1682119416.4853396,-0.24998148601557815,0.0005729577951308233,-2.0000237754631645,126.4999711359432,-0.00011459155902616463,51.73001019540199,-44.99999063801583
1682119416.5713348,-0.24998148601557815,0.0005729577951308233,-2.0000237754631645,126.4999711359432,-0.00011459155902616463,51.73001019540199,-44.99999063801583
1682119416.664045,-0.24998148601557815,0.0005729577951308233,-2.0000237754631645,126.4999711359432,-0.00011459155902616463,51.73001019540199,-44.99999063801583
1682119416.7395844,-0.24998148601557815,0.0005729577951308233,-2.0000237754631645,126.4999711359432,-0.00011459155902616463,51.73001019540199,-44.99999063801583
1682119416.8273575,-0.24998148601557815,0.0005729577951308233,-2.0000237754631645,126.4999711359432,-0.00011459155902616463,51.73001019540199,-44.99999063801583
1682119416.9292,-0.24998148601557815,0.0005729577951308233,-2.0000237754631645,126.4999711359432,-0.00011459155902616463,51.73001019540199,-44.99999063801583
1682119417.0188286,-0.24998148601557815,0.0005729577951308233,-2.0000237754631645,126.4999711359432,-0.00011459155902616463,51.73001019540199,-44.99999063801583
1682119417.1050963,-0.24998148601557815,0.0005729577951308233,-2.0000237754631645,126.4999711359432,-0.00011459155902616463,51.73001019540199,-44.99999063801583
1682119417.1918154,-0.24998148601557815,0.0005729577951308233,-2.0000237754631645,126.4999711359432,-0.00011459155902616463,51.73001019540199,-44.99999063801583
1682119417.274923,-0.24998148601557815,0.0005729577951308233,-2.0000237754631645,126.4999711359432,-0.00011459155902616463,51.73001019540199,-44.99999063801583
1682119417.359373,-0.24998148601557815,0.0005729577951308233,-2.0000237754631645,126.4999711359432,-0.00011459155902616463,51.73001019540199,-44.99999063801583
1682119417.4457512,-0.24998148601557815,0.0005729577951308233,-2.0000237754631645,126.4999711359432,-0.00011459155902616463,51.73001019540199,-44.99999063801583
1682119417.532194,-0.24998148601557815,0.0005729577951308233,-2.0000237754631645,126.4999711359432,-0.00011459155902616463,51.73001019540199,-44.99999063801583
1682119417.6208918,-0.24998148601557815,0.0005729577951308233,-2.0000237754631645,126.4999711359432,-0.00011459155902616463,51.73001019540199,-44.99999063801583
1682119417.7020316,-0.24998148601557815,0.0005729577951308233,-2.0000237754631645,126.4999711359432,-0.00011459155902616463,51.73001019540199,-44.99999063801583
1682119417.7927718,-0.24998148601557815,0.0005729577951308233,-2.0000237754631645,126.4999711359432,-0.00011459155902616463,51.73001019540199,-44.99999063801583
1682119417.878274,-0.24998148601557815,0.0005729577951308233,-2.0000237754631645,126.4999711359432,-0.00011459155902616463,51.73001019540199,-44.99999063801583
1682119417.985259,-0.24998148601557815,0.0005729577951308233,-2.0000237754631645,126.4999711359432,-0.00011459155902616463,51.73001019540199,-44.99999063801583
1682119418.0754488,-0.24998148601557815,0.0005729577951308233,-2.0000237754631645,126.4999711359432,-0.00011459155902616463,51.73001019540199,-44.99999063801583
1682119418.1513343,-0.24998148601557815,0.0005729577951308233,-2.0000237754631645,126.4999711359432,-0.00011459155902616463,51.73001019540199,-44.99999063801583
1682119418.2380803,-0.24998148601557815,0.0005729577951308233,-2.0000237754631645,126.4999711359432,-0.00011459155902616463,51.73001019540199,-44.99999063801583
1682119418.3342438,-0.24998148601557815,0.0005729577951308233,-2.0000237754631645,126.4999711359432,-0.00011459155902616463,51.73001019540199,-44.99999063801583
1682119418.416661,-0.24998148601557815,0.0005729577951308233,-2.0000237754631645,126.4999711359432,-0.00011459155902616463,51.73001019540199,-44.99999063801583
1682119418.4918096,-0.24998148601557815,0.0005729577951308233,-2.0000237754631645,126.4999711359432,-0.00011459155902616463,51.73001019540199,-44.99999063801583
1682119418.5859997,-0.24998148601557815,0.0005729577951308233,-2.0000237754631645,126.4999711359432,-0.00011459155902616463,51.73001019540199,-44.99999063801583
1682119418.6712468,-0.24998148601557815,0.0005729577951308233,-2.0000237754631645,126.4999711359432,-0.00011459155902616463,51.73001019540199,-44.99999063801583
1682119418.7528396,-0.24998148601557815,0.0005729577951308233,-2.0000237754631645,126.4999711359432,-0.00011459155902616463,51.73001019540199,-44.99999063801583
1682119418.8330853,-0.24998148601557815,0.0005729577951308233,-2.0000237754631645,126.4999711359432,-0.00011459155902616463,51.73001019540199,-44.99999063801583
1682119418.9122217,-0.24998148601557815,0.0005729577951308233,-2.0000237754631645,126.4999711359432,-0.00011459155902616463,51.73001019540199,-44.99999063801583
1682119418.9954126,-0.24998148601557815,0.0005729577951308233,-2.0000237754631645,126.4999711359432,-0.00011459155902616463,51.73001019540199,-44.99999063801583
1682119419.0857816,-0.24998148601557815,0.0005729577951308233,-2.0000237754631645,126.4999711359432,-0.00011459155902616463,51.73001019540199,-44.99999063801583
1682119419.1908782,-0.24998148601557815,0.0005729577951308233,-2.0000237754631645,126.4999711359432,-0.00011459155902616463,51.73001019540199,-44.99999063801583
1682119419.2757118,-0.24998148601557815,0.0005729577951308233,-2.0000237754631645,126.4999711359432,-0.00011459155902616463,51.73001019540199,-44.99999063801583
1682119419.3696175,-0.24998148601557815,0.0005729577951308233,-2.0000237754631645,126.4999711359432,-0.00011459155902616463,51.73001019540199,-44.99999063801583
1682119419.4540648,-0.24998148601557815,0.0005729577951308233,-2.0000237754631645,126.4999711359432,-0.00011459155902616463,51.73001019540199,-44.99999063801583
1682119419.536227,-0.24998148601557815,0.0005729577951308233,-2.0000237754631645,126.4999711359432,-0.00011459155902616463,51.73001019540199,-44.99999063801583
1682119419.6232297,-0.24998148601557815,0.0005729577951308233,-2.0000237754631645,126.4999711359432,-0.00011459155902616463,51.73001019540199,-44.99999063801583
1682119419.7125247,-0.24998148601557815,0.0005729577951308233,-2.0000237754631645,126.4999711359432,-0.00011459155902616463,51.73001019540199,-44.99999063801583
1682119419.8042178,-0.24998148601557815,0.0005729577951308233,-2.0000237754631645,126.4999711359432,-0.00011459155902616463,51.73001019540199,-44.99999063801583
1682119419.8883216,-0.24998148601557815,0.0005729577951308233,-2.0000237754631645,126.4999711359432,-0.00011459155902616463,51.73001019540199,-44.99999063801583
1682119419.967447,-0.24998148601557815,0.0005729577951308233,-2.0000237754631645,126.4999711359432,-0.00011459155902616463,51.73001019540199,-44.99999063801583
1682119420.055328,-0.24998148601557815,0.0005729577951308233,-2.0000237754631645,126.4999711359432,-0.00011459155902616463,51.73001019540199,-44.99999063801583
1682119420.1439238,-0.24998148601557815,0.0005729577951308233,-2.0000237754631645,126.4999711359432,-0.00011459155902616463,51.73001019540199,-44.99999063801583
1682119420.2188966,-0.24998148601557815,0.0005729577951308233,-2.0000237754631645,126.4999711359432,-0.00011459155902616463,51.73001019540199,-44.99999063801583
1682119420.298797,-0.24998148601557815,0.0005729577951308233,-2.0000237754631645,126.4999711359432,-0.00011459155902616463,51.73001019540199,-44.99999063801583
1682119420.383823,-0.24998148601557815,0.0005729577951308233,-2.0000237754631645,126.4999711359432,-0.00011459155902616463,51.73001019540199,-44.99999063801583
1682119420.473698,-0.24998148601557815,0.0005729577951308233,-2.0000237754631645,126.4999711359432,-0.00011459155902616463,51.73001019540199,-44.99999063801583
1682119420.5564718,-0.24998148601557815,0.0005729577951308233,-2.0000237754631645,126.4999711359432,-0.00011459155902616463,51.73001019540199,-44.99999063801583
1682119420.6370645,-0.24998148601557815,0.0005729577951308233,-2.0000237754631645,126.4999711359432,-0.00011459155902616463,51.73001019540199,-44.99999063801583
1682119420.7301075,-0.24998148601557815,0.0005729577951308233,-2.0000237754631645,126.4999711359432,-0.00011459155902616463,51.73001019540199,-44.99999063801583
1682119420.8107262,-0.24998148601557815,0.0005729577951308233,-2.0000237754631645,126.4999711359432,-0.00011459155902616463,51.73001019540199,-44.99999063801583
1682119420.903632,-0.24998148601557815,0.0005729577951308233,-2.0000237754631645,126.4999711359432,-0.00011459155902616463,51.73001019540199,-44.99999063801583
1682119420.988131,-0.24998148601557815,0.0005729577951308233,-2.0000237754631645,126.4999711359432,-0.00011459155902616463,51.73001019540199,-44.99999063801583
1682119421.0647943,-0.24998148601557815,0.0005729577951308233,-2.0000237754631645,126.4999711359432,-0.00011459155902616463,51.73001019540199,-44.99999063801583
1682119421.1465428,-0.24998148601557815,0.0005729577951308233,-2.0000237754631645,126.4999711359432,-0.00011459155902616463,51.73001019540199,-44.99999063801583
1682119421.2198966,-0.24998148601557815,0.0005729577951308233,-2.0000237754631645,126.4999711359432,-0.00011459155902616463,51.73001019540199,-44.99999063801583
1682119421.2954364,-0.24998148601557815,0.0005729577951308233,-2.0000237754631645,126.4999711359432,-0.00011459155902616463,51.73001019540199,-44.99999063801583
1682119421.3835773,-0.24998148601557815,0.0005729577951308233,-2.0000237754631645,126.4999711359432,-0.00011459155902616463,51.73001019540199,-44.99999063801583
1682119421.4612057,-0.24998148601557815,0.0005729577951308233,-2.0000237754631645,126.4999711359432,-0.00011459155902616463,51.73001019540199,-44.99999063801583
1682119421.5523524,-0.24998148601557815,0.0005729577951308233,-2.0000237754631645,126.4999711359432,-0.00011459155902616463,51.73001019540199,-44.99999063801583
1682119421.6386642,-0.24998148601557815,0.0005729577951308233,-2.0000237754631645,126.4999711359432,-0.00011459155902616463,51.73001019540199,-44.99999063801583
1682119421.719099,-0.24998148601557815,0.0005729577951308233,-2.0000237754631645,126.4999711359432,-0.00011459155902616463,51.73001019540199,-44.99999063801583
1682119421.8075652,-0.24998148601557815,0.0005729577951308233,-2.0000237754631645,126.4999711359432,-0.00011459155902616463,51.73001019540199,-44.99999063801583
1682119421.8919082,-0.24998148601557815,0.0005729577951308233,-2.0000237754631645,126.4999711359432,-0.00011459155902616463,51.73001019540199,-44.99999063801583
1682119421.9882588,-0.24998148601557815,0.0005729577951308233,-2.0000237754631645,126.4999711359432,-0.00011459155902616463,51.73001019540199,-44.99999063801583
1682119422.0676045,-0.24998148601557815,0.0005729577951308233,-2.0000237754631645,126.4999711359432,-0.00011459155902616463,51.73001019540199,-44.99999063801583
1682119422.147444,-0.24998148601557815,0.0005729577951308233,-2.0000237754631645,126.4999711359432,-0.00011459155902616463,51.73001019540199,-44.99999063801583
1682119422.2277522,-0.24998148601557815,0.0005729577951308233,-2.0000237754631645,126.4999711359432,-0.00011459155902616463,51.73001019540199,-44.99999063801583
1682119422.3221679,-0.24998148601557815,0.0005729577951308233,-2.0000237754631645,126.4999711359432,-0.00011459155902616463,51.73001019540199,-44.99999063801583
1682119422.4147284,-0.24998148601557815,0.0005729577951308233,-2.0000237754631645,126.4999711359432,-0.00011459155902616463,51.73001019540199,-44.99999063801583
1682119422.4951818,-0.24998148601557815,0.0005729577951308233,-2.0000237754631645,126.4999711359432,-0.00011459155902616463,51.73001019540199,-44.99999063801583
1682119422.5848386,-0.24998148601557815,0.0005729577951308233,-2.0000237754631645,126.4999711359432,-0.00011459155902616463,51.73001019540199,-44.99999063801583
1682119422.67264,-0.24998148601557815,0.0005729577951308233,-2.0000237754631645,126.4999711359432,-0.00011459155902616463,51.73001019540199,-44.99999063801583
1682119422.7521114,-0.24998148601557815,0.0005729577951308233,-2.0000237754631645,126.4999711359432,-0.00011459155902616463,51.73001019540199,-44.99999063801583
1682119422.8300204,-0.24998148601557815,0.0005729577951308233,-2.0000237754631645,126.4999711359432,-0.00011459155902616463,51.73001019540199,-44.99999063801583
1682119422.9172215,-0.24998148601557815,0.0005729577951308233,-2.0000237754631645,126.4999711359432,-0.00011459155902616463,51.73001019540199,-44.99999063801583
1682119423.0049767,-0.24998148601557815,0.0005729577951308233,-2.0000237754631645,126.4999711359432,-0.00011459155902616463,51.73001019540199,-44.99999063801583
1682119423.0766883,-0.24998148601557815,0.0005729577951308233,-2.0000237754631645,126.4999711359432,-0.00011459155902616463,51.73001019540199,-44.99999063801583
1682119423.171103,-0.24998148601557815,0.0005729577951308233,-2.0000237754631645,126.4999711359432,-0.00011459155902616463,51.73001019540199,-44.99999063801583
1682119423.2463615,-0.24998148601557815,0.0005729577951308233,-2.0000237754631645,126.4999711359432,-0.00011459155902616463,51.73001019540199,-44.99999063801583
1682119423.3276122,-0.24998148601557815,0.0005729577951308233,-2.0000237754631645,126.4999711359432,-0.00011459155902616463,51.73001019540199,-44.99999063801583
1682119423.406952,-0.24998148601557815,0.0005729577951308233,-2.0000237754631645,126.4999711359432,-0.00011459155902616463,51.73001019540199,-44.99999063801583
1682119423.483479,-0.24998148601557815,0.0005729577951308233,-2.0000237754631645,126.4999711359432,-0.00011459155902616463,51.73001019540199,-44.99999063801583
1682119423.5659058,-0.24998148601557815,0.0005729577951308233,-2.0000237754631645,126.4999711359432,-0.00011459155902616463,51.73001019540199,-44.99999063801583
1682119423.648576,-0.24998148601557815,0.0005729577951308233,-2.0000237754631645,126.4999711359432,-0.00011459155902616463,51.73001019540199,-44.99999063801583
1682119423.734144,-0.24998148601557815,0.0005729577951308233,-2.0000237754631645,126.4999711359432,-0.00011459155902616463,51.73001019540199,-44.99999063801583
1682119423.8283238,-0.24998148601557815,0.0005729577951308233,-2.0000237754631645,126.4999711359432,-0.00011459155902616463,51.73001019540199,-44.99999063801583
1682119423.90995,-0.24998148601557815,0.0005729577951308233,-2.0000237754631645,126.4999711359432,-0.00011459155902616463,51.73001019540199,-44.99999063801583
1682119423.9922094,-0.24998148601557815,0.0005729577951308233,-2.0000237754631645,126.4999711359432,-0.00011459155902616463,51.73001019540199,-44.99999063801583
1682119424.0700543,-0.24998148601557815,0.0005729577951308233,-2.0000237754631645,126.4999711359432,-0.00011459155902616463,51.73001019540199,-44.99999063801583
1682119424.1456995,-0.24998148601557815,0.0005729577951308233,-2.0000237754631645,126.4999711359432,-0.00011459155902616463,51.73001019540199,-44.99999063801583
1682119424.2227354,-0.24998148601557815,0.0005729577951308233,-2.0000237754631645,126.4999711359432,-0.00011459155902616463,51.73001019540199,-44.99999063801583
1682119424.30216,-0.24998148601557815,0.0005729577951308233,-2.0000237754631645,126.4999711359432,-0.00011459155902616463,51.73001019540199,-44.99999063801583
1682119424.3794987,-0.24998148601557815,0.0005729577951308233,-2.0000237754631645,126.4999711359432,-0.00011459155902616463,51.73001019540199,-44.99999063801583
1682119424.455457,-0.24998148601557815,0.0005729577951308233,-2.0000237754631645,126.4999711359432,-0.00011459155902616463,51.73001019540199,-44.99999063801583
1682119424.5474794,-0.24998148601557815,0.0005729577951308233,-2.0000237754631645,126.4999711359432,-0.00011459155902616463,51.73001019540199,-44.99999063801583
1682119424.627265,-0.24998148601557815,0.0005729577951308233,-2.0000237754631645,126.4999711359432,-0.00011459155902616463,51.73001019540199,-44.99999063801583
1682119424.7127488,-0.24998148601557815,0.0005729577951308233,-2.0000237754631645,126.4999711359432,-0.00011459155902616463,51.73001019540199,-44.99999063801583
1682119424.7998078,-0.24998148601557815,0.0005729577951308233,-2.0000237754631645,126.4999711359432,-0.00011459155902616463,51.73001019540199,-44.99999063801583
1682119424.8868883,-0.24998148601557815,0.0005729577951308233,-2.0000237754631645,126.4999711359432,-0.00011459155902616463,51.73001019540199,-44.99999063801583
1682119424.9679248,-0.24998148601557815,0.0005729577951308233,-2.0000237754631645,126.4999711359432,-0.00011459155902616463,51.73001019540199,-44.99999063801583
1682119425.0579536,-0.24998148601557815,0.0005729577951308233,-2.0000237754631645,126.4999711359432,-0.00011459155902616463,51.73001019540199,-44.99999063801583
1682119425.1384435,-0.24998148601557815,0.0005729577951308233,-2.0000237754631645,126.4999711359432,-0.00011459155902616463,51.73001019540199,-44.99999063801583
1682119425.2186744,-0.24998148601557815,0.0005729577951308233,-2.0000237754631645,126.4999711359432,-0.00011459155902616463,51.73001019540199,-44.99999063801583
1682119425.315202,-0.24998148601557815,0.0005729577951308233,-2.0000237754631645,126.4999711359432,-0.00011459155902616463,51.73001019540199,-44.99999063801583
1682119425.3912973,-0.24998148601557815,0.0005729577951308233,-2.0000237754631645,126.4999711359432,-0.00011459155902616463,51.73001019540199,-44.99999063801583
1682119425.4740613,-0.24998148601557815,0.0005729577951308233,-2.0000237754631645,126.4999711359432,-0.00011459155902616463,51.73001019540199,-44.99999063801583
1682119425.5544655,-0.24998148601557815,0.0005729577951308233,-2.0000237754631645,126.4999711359432,-0.00011459155902616463,51.73001019540199,-44.99999063801583
1682119425.6392121,-0.24998148601557815,0.0005729577951308233,-2.0000237754631645,126.4999711359432,-0.00011459155902616463,51.73001019540199,-44.99999063801583
1682119425.7322378,-0.24998148601557815,0.0005729577951308233,-2.0000237754631645,126.4999711359432,-0.00011459155902616463,51.73001019540199,-44.99999063801583
1682119425.825049,-0.24998148601557815,0.0005729577951308233,-2.0000237754631645,126.4999711359432,-0.00011459155902616463,51.73001019540199,-44.99999063801583
1682119425.915343,-0.24998148601557815,0.0005729577951308233,-2.0000237754631645,126.4999711359432,-0.00011459155902616463,51.73001019540199,-44.99999063801583
1682119426.0168827,-0.24998148601557815,0.0005729577951308233,-2.0000237754631645,126.4999711359432,-0.00011459155902616463,51.73001019540199,-44.99999063801583
1682119426.1051996,-0.24998148601557815,0.0005729577951308233,-2.0000237754631645,126.4999711359432,-0.00011459155902616463,51.73001019540199,-44.99999063801583
1682119426.1961963,-0.24998148601557815,0.0005729577951308233,-2.0000237754631645,126.4999711359432,-0.00011459155902616463,51.73001019540199,-44.99999063801583
1682119426.2872283,-0.24998148601557815,0.0005729577951308233,-2.0000237754631645,126.4999711359432,-0.00011459155902616463,51.73001019540199,-44.99999063801583
1682119426.3817296,-0.24998148601557815,0.0005729577951308233,-2.0000237754631645,126.4999711359432,-0.00011459155902616463,51.73001019540199,-44.99999063801583
1682119426.453142,-0.24998148601557815,0.0005729577951308233,-2.0000237754631645,126.4999711359432,-0.00011459155902616463,51.73001019540199,-44.99999063801583
1682119426.531793,-0.24998148601557815,0.0005729577951308233,-2.0000237754631645,126.4999711359432,-0.00011459155902616463,51.73001019540199,-44.99999063801583
1682119426.6156151,-0.24998148601557815,0.0005729577951308233,-2.0000237754631645,126.4999711359432,-0.00011459155902616463,51.73001019540199,-44.99999063801583
1682119426.6953142,-0.24998148601557815,0.0005729577951308233,-2.0000237754631645,126.4999711359432,-0.00011459155902616463,51.73001019540199,-44.99999063801583
1682119426.7733207,-0.24998148601557815,0.0005729577951308233,-2.0000237754631645,126.4999711359432,-0.00011459155902616463,51.73001019540199,-44.99999063801583
1682119426.855489,-0.24998148601557815,0.0005729577951308233,-2.0000237754631645,126.4999711359432,-0.00011459155902616463,51.73001019540199,-44.99999063801583
1682119426.9645915,-0.24998148601557815,0.0005729577951308233,-2.0000237754631645,126.4999711359432,-0.00011459155902616463,51.73001019540199,-44.99999063801583
1682119427.0501232,-0.24998148601557815,0.0005729577951308233,-2.0000237754631645,126.4999711359432,-0.00011459155902616463,51.73001019540199,-44.99999063801583
1682119427.1316416,-0.24998148601557815,0.0005729577951308233,-2.0000237754631645,126.4999711359432,-0.00011459155902616463,51.73001019540199,-44.99999063801583
1682119427.2134075,-0.24998148601557815,0.0005729577951308233,-2.0000237754631645,126.4999711359432,-0.00011459155902616463,51.73001019540199,-44.99999063801583
1682119427.2973564,-0.24998148601557815,0.0005729577951308233,-2.0000237754631645,126.4999711359432,-0.00011459155902616463,51.73001019540199,-44.99999063801583
1682119427.384827,-0.24998148601557815,0.0005729577951308233,-2.0000237754631645,126.4999711359432,-0.00011459155902616463,51.73001019540199,-44.99999063801583
1682119427.4650042,-0.24998148601557815,0.0005729577951308233,-2.0000237754631645,126.4999711359432,-0.00011459155902616463,51.73001019540199,-44.99999063801583
1682119427.5425498,-0.24998148601557815,0.0005729577951308233,-2.0000237754631645,126.4999711359432,-0.00011459155902616463,51.73001019540199,-44.99999063801583
1682119427.632371,-0.24998148601557815,0.0005729577951308233,-2.0000237754631645,126.4999711359432,-0.00011459155902616463,51.73001019540199,-44.99999063801583
1682119427.7101247,-0.24998148601557815,0.0005729577951308233,-2.0000237754631645,126.4999711359432,-0.00011459155902616463,51.73001019540199,-44.99999063801583
1682119427.788518,-0.24998148601557815,0.0005729577951308233,-2.0000237754631645,126.4999711359432,-0.00011459155902616463,51.73001019540199,-44.99999063801583
1682119427.8854368,-0.24998148601557815,0.0005729577951308233,-2.0000237754631645,126.4999711359432,-0.00011459155902616463,51.73001019540199,-44.99999063801583
1682119427.9742503,-0.24998148601557815,0.0005729577951308233,-2.0000237754631645,126.4999711359432,-0.00011459155902616463,51.73001019540199,-44.99999063801583
1682119428.0693345,-0.24998148601557815,0.0005729577951308233,-2.0000237754631645,126.4999711359432,-0.00011459155902616463,51.73001019540199,-44.99999063801583
1682119428.1649015,-0.24998148601557815,0.0005729577951308233,-2.0000237754631645,126.4999711359432,-0.00011459155902616463,51.73001019540199,-44.99999063801583
1682119428.2612684,-0.24998148601557815,0.0005729577951308233,-2.0000237754631645,126.4999711359432,-0.00011459155902616463,51.73001019540199,-44.99999063801583
1682119428.3500342,-0.24998148601557815,0.0005729577951308233,-2.0000237754631645,126.4999711359432,-0.00011459155902616463,51.73001019540199,-44.99999063801583
1682119428.4279618,-0.24998148601557815,0.0005729577951308233,-2.0000237754631645,126.4999711359432,-0.00011459155902616463,51.73001019540199,-44.99999063801583
1682119428.5256479,-0.24998148601557815,0.0005729577951308233,-2.0000237754631645,126.4999711359432,-0.00011459155902616463,51.73001019540199,-44.99999063801583
1682119428.6106455,-0.24998148601557815,0.0005729577951308233,-2.0000237754631645,126.4999711359432,-0.00011459155902616463,51.73001019540199,-44.99999063801583
1682119428.6933582,-0.24998148601557815,0.0005729577951308233,-2.0000237754631645,126.4999711359432,-0.00011459155902616463,51.73001019540199,-44.99999063801583
1682119428.7710333,-0.24998148601557815,0.0005729577951308233,-2.0000237754631645,126.4999711359432,-0.00011459155902616463,51.73001019540199,-44.99999063801583
1682119428.8548603,-0.24998148601557815,0.0005729577951308233,-2.0000237754631645,126.4999711359432,-0.00011459155902616463,51.73001019540199,-44.99999063801583
1682119428.931324,-0.24998148601557815,0.0005729577951308233,-2.0000237754631645,126.4999711359432,-0.00011459155902616463,51.73001019540199,-44.99999063801583
1682119429.0105443,-0.24998148601557815,0.0005729577951308233,-2.0000237754631645,126.4999711359432,-0.00011459155902616463,51.73001019540199,-44.99999063801583
1682119429.0880322,-0.24998148601557815,0.0005729577951308233,-2.0000237754631645,126.4999711359432,-0.00011459155902616463,51.73001019540199,-44.99999063801583
1682119429.1814811,-0.24998148601557815,0.0005729577951308233,-2.0000237754631645,126.4999711359432,-0.00011459155902616463,51.73001019540199,-44.99999063801583
1682119429.273296,-0.24998148601557815,0.0005729577951308233,-2.0000237754631645,126.4999711359432,-0.00011459155902616463,51.73001019540199,-44.99999063801583
1682119429.363472,-0.24998148601557815,0.0005729577951308233,-2.0000237754631645,126.4999711359432,-0.00011459155902616463,51.73001019540199,-44.99999063801583
1682119429.4350975,-0.24998148601557815,0.0005729577951308233,-2.0000237754631645,126.4999711359432,-0.00011459155902616463,51.73001019540199,-44.99999063801583
1682119429.5079286,-0.24998148601557815,0.0005729577951308233,-2.0000237754631645,126.4999711359432,-0.00011459155902616463,51.73001019540199,-44.99999063801583
1682119429.5906255,-0.24998148601557815,0.0005729577951308233,-2.0000237754631645,126.4999711359432,-0.00011459155902616463,51.73001019540199,-44.99999063801583
1682119429.6807675,-0.24998148601557815,0.0005729577951308233,-2.0000237754631645,126.4999711359432,-0.00011459155902616463,51.73001019540199,-44.99999063801583
1682119429.7612367,-0.24998148601557815,0.0005729577951308233,-2.0000237754631645,126.4999711359432,-0.00011459155902616463,51.73001019540199,-44.99999063801583
1682119429.8532426,-0.24998148601557815,0.0005729577951308233,-2.0000237754631645,126.4999711359432,-0.00011459155902616463,51.73001019540199,-44.99999063801583
1682119429.9420402,-0.24998148601557815,0.0005729577951308233,-2.0000237754631645,126.4999711359432,-0.00011459155902616463,51.73001019540199,-44.99999063801583
1682119430.0162766,-0.24998148601557815,0.0005729577951308233,-2.0000237754631645,126.4999711359432,-0.00011459155902616463,51.73001019540199,-44.99999063801583
1682119430.1013162,-0.24998148601557815,0.0005729577951308233,-2.0000237754631645,126.4999711359432,-0.00011459155902616463,51.73001019540199,-44.99999063801583
1682119430.181436,-0.24998148601557815,0.0005729577951308233,-2.0000237754631645,126.4999711359432,-0.00011459155902616463,51.73001019540199,-44.99999063801583
1682119430.2681456,-0.24998148601557815,0.0005729577951308233,-2.0000237754631645,126.4999711359432,-0.00011459155902616463,51.73001019540199,-44.99999063801583
1682119430.349051,-0.24998148601557815,0.0005729577951308233,-2.0000237754631645,126.4999711359432,-0.00011459155902616463,51.73001019540199,-44.99999063801583
1682119430.4188292,-0.24998148601557815,0.0005729577951308233,-2.0000237754631645,126.4999711359432,-0.00011459155902616463,51.73001019540199,-44.99999063801583
1682119430.497016,-0.24998148601557815,0.0005729577951308233,-2.0000237754631645,126.4999711359432,-0.00011459155902616463,51.73001019540199,-44.99999063801583
1682183458.1140103,19.749969789718502,57.570111705390964,-2.0000237754631645,126.39999000069287,-0.0006875493541569879,51.73001019540199,-44.99999063801583
1682183464.126602,-0.24969500711801276,0.0008021409131831525,-2.0000237754631645,126.4999711359432,-0.0,51.73001019540199,-44.99999063801583
1682183464.1272755,-0.24969500711801276,0.0008021409131831525,-2.0000237754631645,126.4999711359432,-0.0,51.73001019540199,-44.99999063801583
1682183464.1280732,-0.24969500711801276,0.0008021409131831525,-2.0000237754631645,126.4999711359432,-0.0,51.73001019540199,-44.99999063801583
1682183464.128722,-0.24969500711801276,0.0008021409131831525,-2.0000237754631645,126.4999711359432,-0.0,51.73001019540199,-44.99999063801583
1682183464.1295762,-0.24969500711801276,0.0008021409131831525,-2.0000237754631645,126.4999711359432,-0.0,51.73001019540199,-44.99999063801583
1682183464.1302545,-0.24969500711801276,0.0008021409131831525,-2.0000237754631645,126.4999711359432,-0.0,51.73001019540199,-44.99999063801583
1682183464.1311154,-0.24969500711801276,0.0008021409131831525,-2.0000237754631645,126.4999711359432,-0.0,51.73001019540199,-44.99999063801583
1682183464.1319568,-0.24969500711801276,0.0008021409131831525,-2.0000237754631645,126.4999711359432,-0.0,51.73001019540199,-44.99999063801583
1682183464.1323662,-0.24969500711801276,0.0008021409131831525,-2.0000237754631645,126.4999711359432,-0.0,51.73001019540199,-44.99999063801583
1682183464.133184,-0.24969500711801276,0.0008021409131831525,-2.0000237754631645,126.4999711359432,-0.0,51.73001019540199,-44.99999063801583
1682183464.134294,-0.24969500711801276,0.0008021409131831525,-2.0000237754631645,126.4999711359432,-0.0,51.73001019540199,-44.99999063801583
1682183464.136,-0.24969500711801276,0.0008021409131831525,-2.0000237754631645,126.4999711359432,-0.0,51.73001019540199,-44.99999063801583
1682183464.13677,-0.24969500711801276,0.0008021409131831525,-2.0000237754631645,126.4999711359432,-0.0,51.73001019540199,-44.99999063801583
1682183464.137453,-0.24969500711801276,0.0008021409131831525,-2.0000237754631645,126.4999711359432,-0.0,51.73001019540199,-44.99999063801583
1682183464.1382637,-0.24969500711801276,0.0008021409131831525,-2.0000237754631645,126.4999711359432,-0.0,51.73001019540199,-44.99999063801583
1682183464.1395085,-0.24969500711801276,0.0008021409131831525,-2.0000237754631645,126.4999711359432,-0.0,51.73001019540199,-44.99999063801583
1682183464.1405156,-0.24969500711801276,0.0008021409131831525,-2.0000237754631645,126.4999711359432,-0.0,51.73001019540199,-44.99999063801583
1682183464.1417594,-0.24969500711801276,0.0008021409131831525,-2.0000237754631645,126.4999711359432,-0.0,51.73001019540199,-44.99999063801583
1682183464.142529,-0.24969500711801276,0.0008021409131831525,-2.0000237754631645,126.4999711359432,-0.0,51.73001019540199,-44.99999063801583
1682183464.1433275,-0.24969500711801276,0.0008021409131831525,-2.0000237754631645,126.4999711359432,-0.0,51.73001019540199,-44.99999063801583
1682183464.1442833,-0.24969500711801276,0.0008021409131831525,-2.0000237754631645,126.4999711359432,-0.0,51.73001019540199,-44.99999063801583
1682183464.1485567,-0.24969500711801276,0.0008021409131831525,-2.0000237754631645,126.4999711359432,-0.0,51.73001019540199,-44.99999063801583
1682183464.153855,-0.24969500711801276,0.0008021409131831525,-2.0000237754631645,126.4999711359432,-0.0,51.73001019540199,-44.99999063801583
1682183464.1562395,-0.24969500711801276,0.0008021409131831525,-2.0000237754631645,126.4999711359432,-0.0,51.73001019540199,-44.99999063801583
1682183464.15882,-0.24969500711801276,0.0008021409131831525,-2.0000237754631645,126.4999711359432,-0.0,51.73001019540199,-44.99999063801583
1682183464.1618545,-0.24969500711801276,0.0008021409131831525,-2.0000237754631645,126.4999711359432,-0.0,51.73001019540199,-44.99999063801583
1682183464.1652331,-0.24969500711801276,0.0008021409131831525,-2.0000237754631645,126.4999711359432,-0.0,51.73001019540199,-44.99999063801583
1682183464.1686532,-0.24969500711801276,0.0008021409131831525,-2.0000237754631645,126.4999711359432,-0.0,51.73001019540199,-44.99999063801583
1682183464.1731348,-0.24969500711801276,0.0008021409131831525,-2.0000237754631645,126.4999711359432,-0.0,51.73001019540199,-44.99999063801583
1682183464.1816702,-0.24969500711801276,0.0008021409131831525,-2.0000237754631645,126.4999711359432,-0.0,51.73001019540199,-44.99999063801583
1682183464.1850512,-0.24969500711801276,0.0008021409131831525,-2.0000237754631645,126.4999711359432,-0.0,51.73001019540199,-44.99999063801583
1682183464.189068,-0.24969500711801276,0.0008021409131831525,-2.0000237754631645,126.4999711359432,-0.0,51.73001019540199,-44.99999063801583
1682183464.1940963,-0.24969500711801276,0.0008021409131831525,-2.0000237754631645,126.4999711359432,-0.0,51.73001019540199,-44.99999063801583
1682183464.1976461,-0.24969500711801276,0.0008021409131831525,-2.0000237754631645,126.4999711359432,-0.0,51.73001019540199,-44.99999063801583
1682183464.2002788,-0.24969500711801276,0.0008021409131831525,-2.0000237754631645,126.4999711359432,-0.0,51.73001019540199,-44.99999063801583
1682183464.2017336,-0.24969500711801276,0.0008021409131831525,-2.0000237754631645,126.4999711359432,-0.0,51.73001019540199,-44.99999063801583
1682183464.2045662,-0.24969500711801276,0.0008021409131831525,-2.0000237754631645,126.4999711359432,-0.0,51.73001019540199,-44.99999063801583
1682183464.207196,-0.24969500711801276,0.0008021409131831525,-2.0000237754631645,126.4999711359432,-0.0,51.73001019540199,-44.99999063801583
1682183464.21126,-0.24969500711801276,0.0008021409131831525,-2.0000237754631645,126.4999711359432,-0.0,51.73001019540199,-44.99999063801583
1682183464.2141902,-0.24969500711801276,0.0008021409131831525,-2.0000237754631645,126.4999711359432,-0.0,51.73001019540199,-44.99999063801583
1682183464.218192,-0.24969500711801276,0.0008021409131831525,-2.0000237754631645,126.4999711359432,-0.0,51.73001019540199,-44.99999063801583
1682183464.2213066,-0.24969500711801276,0.0008021409131831525,-2.0000237754631645,126.4999711359432,-0.0,51.73001019540199,-44.99999063801583
1682183464.2256007,-0.24969500711801276,0.0008021409131831525,-2.0000237754631645,126.4999711359432,-0.0,51.73001019540199,-44.99999063801583
1682183464.227778,-0.24969500711801276,0.0008021409131831525,-2.0000237754631645,126.4999711359432,-0.0,51.73001019540199,-44.99999063801583
1682183464.2297676,-0.24969500711801276,0.0008021409131831525,-2.0000237754631645,126.4999711359432,-0.0,51.73001019540199,-44.99999063801583
1682183464.2318816,-0.24969500711801276,0.0008021409131831525,-2.0000237754631645,126.4999711359432,-0.0,51.73001019540199,-44.99999063801583
1682183464.2351835,-0.24969500711801276,0.0008021409131831525,-2.0000237754631645,126.4999711359432,-0.0,51.73001019540199,-44.99999063801583
1682183464.237481,-0.24969500711801276,0.0008021409131831525,-2.0000237754631645,126.4999711359432,-0.0,51.73001019540199,-44.99999063801583
1682183464.2400472,-0.24969500711801276,0.0008021409131831525,-2.0000237754631645,126.4999711359432,-0.0,51.73001019540199,-44.99999063801583
1682183464.2423022,-0.24969500711801276,0.0008021409131831525,-2.0000237754631645,126.4999711359432,-0.0,51.73001019540199,-44.99999063801583
1682183464.2444777,-0.24969500711801276,0.0008021409131831525,-2.0000237754631645,126.4999711359432,-0.0,51.73001019540199,-44.99999063801583
1682183464.2478287,-0.24969500711801276,0.0008021409131831525,-2.0000237754631645,126.4999711359432,-0.0,51.73001019540199,-44.99999063801583
1682183464.2514555,-0.24969500711801276,0.0008021409131831525,-2.0000237754631645,126.4999711359432,-0.0,51.73001019540199,-44.99999063801583
1682183464.2541194,-0.24969500711801276,0.0008021409131831525,-2.0000237754631645,126.4999711359432,-0.0,51.73001019540199,-44.99999063801583
1682183464.257001,-0.24969500711801276,0.0008021409131831525,-2.0000237754631645,126.4999711359432,-0.0,51.73001019540199,-44.99999063801583
1682183464.2590458,-0.24969500711801276,0.0008021409131831525,-2.0000237754631645,126.4999711359432,-0.0,51.73001019540199,-44.99999063801583
1682183464.2624679,-0.24969500711801276,0.0008021409131831525,-2.0000237754631645,126.4999711359432,-0.0,51.73001019540199,-44.99999063801583
1682183464.265751,-0.24969500711801276,0.0008021409131831525,-2.0000237754631645,126.4999711359432,-0.0,51.73001019540199,-44.99999063801583
1682183464.2702901,-0.24969500711801276,0.0008021409131831525,-2.0000237754631645,126.4999711359432,-0.0,51.73001019540199,-44.99999063801583
1682183464.2730527,-0.24969500711801276,0.0008021409131831525,-2.0000237754631645,126.4999711359432,-0.0,51.73001019540199,-44.99999063801583
1682183464.2759662,-0.24969500711801276,0.0008021409131831525,-2.0000237754631645,126.4999711359432,-0.0,51.73001019540199,-44.99999063801583
1682183464.2786236,-0.24969500711801276,0.0008021409131831525,-2.0000237754631645,126.4999711359432,-0.0,51.73001019540199,-44.99999063801583
1682183464.2812765,-0.24969500711801276,0.0008021409131831525,-2.0000237754631645,126.4999711359432,-0.0,51.73001019540199,-44.99999063801583
1682183464.2850764,-0.24969500711801276,0.0008021409131831525,-2.0000237754631645,126.4999711359432,-0.0,51.73001019540199,-44.99999063801583
1682183464.2901845,-0.24969500711801276,0.0008021409131831525,-2.0000237754631645,126.4999711359432,-0.0,51.73001019540199,-44.99999063801583
1682183464.2927794,-0.24969500711801276,0.0008021409131831525,-2.0000237754631645,126.4999711359432,-0.0,51.73001019540199,-44.99999063801583
1682183464.2954628,-0.24969500711801276,0.0008021409131831525,-2.0000237754631645,126.4999711359432,-0.0,51.73001019540199,-44.99999063801583
1682183464.2975821,-0.24969500711801276,0.0008021409131831525,-2.0000237754631645,126.4999711359432,-0.0,51.73001019540199,-44.99999063801583
1682183464.300122,-0.24969500711801276,0.0008021409131831525,-2.0000237754631645,126.4999711359432,-0.0,51.73001019540199,-44.99999063801583
1682183464.3838398,-0.24969500711801276,0.0008021409131831525,-2.0000237754631645,126.4999711359432,-0.0,51.73001019540199,-44.99999063801583
1682183464.4594414,-0.24969500711801276,0.0008021409131831525,-2.0000237754631645,126.4999711359432,-0.0,51.73001019540199,-44.99999063801583
1682183464.5390713,-0.24969500711801276,0.0008021409131831525,-2.0000237754631645,126.4999711359432,-0.0,51.73001019540199,-44.99999063801583
1682183464.6174214,-0.24969500711801276,0.0008021409131831525,-2.0000237754631645,126.4999711359432,-0.0,51.73001019540199,-44.99999063801583
1682183464.6979668,-0.24969500711801276,0.0008021409131831525,-2.0000237754631645,126.4999711359432,-0.0,51.73001019540199,-44.99999063801583
1682183464.7730505,-0.24969500711801276,0.0008021409131831525,-2.0000237754631645,126.4999711359432,-0.0,51.73001019540199,-44.99999063801583
1682183464.854429,-0.24969500711801276,0.0008021409131831525,-2.0000237754631645,126.4999711359432,-0.0,51.73001019540199,-44.99999063801583
1682183464.9448113,-0.24969500711801276,0.0008021409131831525,-2.0000237754631645,126.4999711359432,-0.0,51.73001019540199,-44.99999063801583
1682183465.0168624,-0.24969500711801276,0.0008021409131831525,-2.0000237754631645,126.4999711359432,-0.0,51.73001019540199,-44.99999063801583
1682183465.09173,-0.24969500711801276,0.0008021409131831525,-2.0000237754631645,126.4999711359432,-0.0,51.73001019540199,-44.99999063801583
1682183465.1748166,-0.24969500711801276,0.0008021409131831525,-2.0000237754631645,126.4999711359432,-0.0,51.73001019540199,-44.99999063801583
1682183465.250587,-0.24969500711801276,0.0008021409131831525,-2.0000237754631645,126.4999711359432,-0.0,51.73001019540199,-44.99999063801583
1682183465.3315287,-0.24969500711801276,0.0008021409131831525,-2.0000237754631645,126.4999711359432,-0.0,51.73001019540199,-44.99999063801583
1682183465.404879,-0.24969500711801276,0.0008021409131831525,-2.0000237754631645,126.4999711359432,-0.0,51.73001019540199,-44.99999063801583
1682183465.4758549,-0.24969500711801276,0.0008021409131831525,-2.0000237754631645,126.4999711359432,-0.0,51.73001019540199,-44.99999063801583
1682183465.5701787,-0.24969500711801276,0.0008021409131831525,-2.0000237754631645,126.4999711359432,-0.0,51.73001019540199,-44.99999063801583
1682183465.6447067,-0.24969500711801276,0.0008021409131831525,-2.0000237754631645,126.4999711359432,-0.0,51.73001019540199,-44.99999063801583
1682183465.71932,-0.24969500711801276,0.0008021409131831525,-2.0000237754631645,126.4999711359432,-0.0,51.73001019540199,-44.99999063801583
1682183465.7940135,-0.24969500711801276,0.0008021409131831525,-2.0000237754631645,126.4999711359432,-0.0,51.73001019540199,-44.99999063801583
1682183465.8660326,-0.24969500711801276,0.0008021409131831525,-2.0000237754631645,126.4999711359432,-0.0,51.73001019540199,-44.99999063801583
1682183465.9302275,-0.24969500711801276,0.0008021409131831525,-2.0000237754631645,126.4999711359432,-0.0,51.73001019540199,-44.99999063801583
1682183466.030037,-0.24969500711801276,0.0008021409131831525,-2.0000237754631645,126.4999711359432,-0.0,51.73001019540199,-44.99999063801583
1682183466.1105125,-0.24969500711801276,0.0008021409131831525,-2.0000237754631645,126.4999711359432,-0.0,51.73001019540199,-44.99999063801583
1682183466.19892,-0.24969500711801276,0.0008021409131831525,-2.0000237754631645,126.4999711359432,-0.0,51.73001019540199,-44.99999063801583
1682183466.2826135,-0.24969500711801276,0.0008021409131831525,-2.0000237754631645,126.4999711359432,-0.0,51.73001019540199,-44.99999063801583
1682183466.3574677,-0.24969500711801276,0.0008021409131831525,-2.0000237754631645,126.4999711359432,-0.0,51.73001019540199,-44.99999063801583
1682183466.4340544,-0.24969500711801276,0.0008021409131831525,-2.0000237754631645,126.4999711359432,-0.0,51.73001019540199,-44.99999063801583
1682183466.5152743,-0.24969500711801276,0.0008021409131831525,-2.0000237754631645,126.4999711359432,-0.0,51.73001019540199,-44.99999063801583
1682183466.5951161,-0.24969500711801276,0.0008021409131831525,-2.0000237754631645,126.4999711359432,-0.0,51.73001019540199,-44.99999063801583
1682183466.681004,-0.24969500711801276,0.0008021409131831525,-2.0000237754631645,126.4999711359432,-0.0,51.73001019540199,-44.99999063801583
1682183466.7633162,-0.24969500711801276,0.0008021409131831525,-2.0000237754631645,126.4999711359432,-0.0,51.73001019540199,-44.99999063801583
1682183466.852113,-0.24969500711801276,0.0008021409131831525,-2.0000237754631645,126.4999711359432,-0.0,51.73001019540199,-44.99999063801583
1682183466.9452603,-0.24969500711801276,0.0008021409131831525,-2.0000237754631645,126.4999711359432,-0.0,51.73001019540199,-44.99999063801583
1682183467.0304031,-0.24969500711801276,0.0008021409131831525,-2.0000237754631645,126.4999711359432,-0.0,51.73001019540199,-44.99999063801583
1682183467.10565,-0.24969500711801276,0.0008021409131831525,-2.0000237754631645,126.4999711359432,-0.0,51.73001019540199,-44.99999063801583
1682183467.1834195,-0.24969500711801276,0.0008021409131831525,-2.0000237754631645,126.4999711359432,-0.0,51.73001019540199,-44.99999063801583
1682183467.2700453,-0.24969500711801276,0.0008021409131831525,-2.0000237754631645,126.4999711359432,-0.0,51.73001019540199,-44.99999063801583
1682183467.3554025,-0.24969500711801276,0.0008021409131831525,-2.0000237754631645,126.4999711359432,-0.0,51.73001019540199,-44.99999063801583
1682183467.4453056,-0.24969500711801276,0.0008021409131831525,-2.0000237754631645,126.4999711359432,-0.0,51.73001019540199,-44.99999063801583
1682183467.5349157,-0.24969500711801276,0.0008021409131831525,-2.0000237754631645,126.4999711359432,-0.0,51.73001019540199,-44.99999063801583
1682183467.6101289,-0.24969500711801276,0.0008021409131831525,-2.0000237754631645,126.4999711359432,-0.0,51.73001019540199,-44.99999063801583
1682183467.6802003,-0.24969500711801276,0.0008021409131831525,-2.0000237754631645,126.4999711359432,-0.0,51.73001019540199,-44.99999063801583
1682183467.7586238,-0.24969500711801276,0.0008021409131831525,-2.0000237754631645,126.4999711359432,-0.0,51.73001019540199,-44.99999063801583
1682183467.8401594,-0.24969500711801276,0.0008021409131831525,-2.0000237754631645,126.4999711359432,-0.0,51.73001019540199,-44.99999063801583
1682183467.938242,-0.24969500711801276,0.0008021409131831525,-2.0000237754631645,126.4999711359432,-0.0,51.73001019540199,-44.99999063801583
1682183468.018461,-0.24969500711801276,0.0008021409131831525,-2.0000237754631645,126.4999711359432,-0.0,51.73001019540199,-44.99999063801583
1682183468.0988076,-0.24969500711801276,0.0008021409131831525,-2.0000237754631645,126.4999711359432,-0.0,51.73001019540199,-44.99999063801583
1682183468.1839616,-0.24969500711801276,0.0008021409131831525,-2.0000237754631645,126.4999711359432,-0.0,51.73001019540199,-44.99999063801583
1682183468.2515175,-0.24969500711801276,0.0008021409131831525,-2.0000237754631645,126.4999711359432,-0.0,51.73001019540199,-44.99999063801583
1682183468.3329902,-0.24969500711801276,0.0008021409131831525,-2.0000237754631645,126.4999711359432,-0.0,51.73001019540199,-44.99999063801583
1682183468.4106498,-0.24969500711801276,0.0008021409131831525,-2.0000237754631645,126.4999711359432,-0.0,51.73001019540199,-44.99999063801583
1682183468.50112,-0.24969500711801276,0.0008021409131831525,-2.0000237754631645,126.4999711359432,-0.0,51.73001019540199,-44.99999063801583
1682183468.5868735,-0.24969500711801276,0.0008021409131831525,-2.0000237754631645,126.4999711359432,-0.0,51.73001019540199,-44.99999063801583
1682183468.6649864,-0.24969500711801276,0.0008021409131831525,-2.0000237754631645,126.4999711359432,-0.0,51.73001019540199,-44.99999063801583
1682183468.7326298,-0.24969500711801276,0.0008021409131831525,-2.0000237754631645,126.4999711359432,-0.0,51.73001019540199,-44.99999063801583
1682183468.797884,-0.24969500711801276,0.0008021409131831525,-2.0000237754631645,126.4999711359432,-0.0,51.73001019540199,-44.99999063801583
1682183468.872578,-0.24969500711801276,0.0008021409131831525,-2.0000237754631645,126.4999711359432,-0.0,51.73001019540199,-44.99999063801583
1682183468.95281,-0.24969500711801276,0.0008021409131831525,-2.0000237754631645,126.4999711359432,-0.0,51.73001019540199,-44.99999063801583
1682183469.0247314,-0.24969500711801276,0.0008021409131831525,-2.0000237754631645,126.4999711359432,-0.0,51.73001019540199,-44.99999063801583
1682183469.1143594,-0.24969500711801276,0.0008021409131831525,-2.0000237754631645,126.4999711359432,-0.0,51.73001019540199,-44.99999063801583
1682183469.1923125,-0.24969500711801276,0.0008021409131831525,-2.0000237754631645,126.4999711359432,-0.0,51.73001019540199,-44.99999063801583
1682183469.2761118,-0.24969500711801276,0.0008021409131831525,-2.0000237754631645,126.4999711359432,-0.0,51.73001019540199,-44.99999063801583
1682183469.355879,-0.24969500711801276,0.0008021409131831525,-2.0000237754631645,126.4999711359432,-0.0,51.73001019540199,-44.99999063801583
1682183469.4546683,-0.24969500711801276,0.0008021409131831525,-2.0000237754631645,126.4999711359432,-0.0,51.73001019540199,-44.99999063801583
1682183469.5374608,-0.24969500711801276,0.0008021409131831525,-2.0000237754631645,126.4999711359432,-0.0,51.73001019540199,-44.99999063801583
1682183469.618833,-0.24969500711801276,0.0008021409131831525,-2.0000237754631645,126.4999711359432,-0.0,51.73001019540199,-44.99999063801583
1682183469.7001927,-0.24969500711801276,0.0008021409131831525,-2.0000237754631645,126.4999711359432,-0.0,51.73001019540199,-44.99999063801583
1682183469.7797396,-0.24969500711801276,0.0008021409131831525,-2.0000237754631645,126.4999711359432,-0.0,51.73001019540199,-44.99999063801583
1682183469.863341,-0.24969500711801276,0.0008021409131831525,-2.0000237754631645,126.4999711359432,-0.0,51.73001019540199,-44.99999063801583
1682183469.9587107,-0.24969500711801276,0.0008021409131831525,-2.0000237754631645,126.4999711359432,-0.0,51.73001019540199,-44.99999063801583
1682183470.0587,-0.24969500711801276,0.0008021409131831525,-2.0000237754631645,126.4999711359432,-0.0,51.73001019540199,-44.99999063801583
1682183470.1495454,-0.24969500711801276,0.0008021409131831525,-2.0000237754631645,126.4999711359432,-0.0,51.73001019540199,-44.99999063801583
1682183470.2350416,-0.24969500711801276,0.0008021409131831525,-2.0000237754631645,126.4999711359432,-0.0,51.73001019540199,-44.99999063801583
1682183470.3087718,-0.24969500711801276,0.0008021409131831525,-2.0000237754631645,126.4999711359432,-0.0,51.73001019540199,-44.99999063801583
1682183470.3769214,-0.24969500711801276,0.0008021409131831525,-2.0000237754631645,126.4999711359432,-0.0,51.73001019540199,-44.99999063801583
1682183470.4769878,-0.24969500711801276,0.0008021409131831525,-2.0000237754631645,126.4999711359432,-0.0,51.73001019540199,-44.99999063801583
1682183470.5593555,-0.24969500711801276,0.0008021409131831525,-2.0000237754631645,126.4999711359432,-0.0,51.73001019540199,-44.99999063801583
1682183470.6574142,-0.24969500711801276,0.0008021409131831525,-2.0000237754631645,126.4999711359432,-0.0,51.73001019540199,-44.99999063801583
1682183470.7332077,-0.24969500711801276,0.0008021409131831525,-2.0000237754631645,126.4999711359432,-0.0,51.73001019540199,-44.99999063801583
1682183470.8153028,-0.24969500711801276,0.0008021409131831525,-2.0000237754631645,126.4999711359432,-0.0,51.73001019540199,-44.99999063801583
1682183470.9187875,-0.24969500711801276,0.0008021409131831525,-2.0000237754631645,126.4999711359432,-0.0,51.73001019540199,-44.99999063801583
1682183470.9943533,-0.24969500711801276,0.0008021409131831525,-2.0000237754631645,126.4999711359432,-0.0,51.73001019540199,-44.99999063801583
1682183471.0748684,-0.24969500711801276,0.0008021409131831525,-2.0000237754631645,126.4999711359432,-0.0,51.73001019540199,-44.99999063801583
1682183471.1458967,-0.24969500711801276,0.0008021409131831525,-2.0000237754631645,126.4999711359432,-0.0,51.73001019540199,-44.99999063801583
1682183471.227732,-0.24969500711801276,0.0008021409131831525,-2.0000237754631645,126.4999711359432,-0.0,51.73001019540199,-44.99999063801583
1682183471.3028467,-0.24969500711801276,0.0008021409131831525,-2.0000237754631645,126.4999711359432,-0.0,51.73001019540199,-44.99999063801583
1682183471.382754,-0.24969500711801276,0.0008021409131831525,-2.0000237754631645,126.4999711359432,-0.0,51.73001019540199,-44.99999063801583
1682183471.4659102,-0.24969500711801276,0.0008021409131831525,-2.0000237754631645,126.4999711359432,-0.0,51.73001019540199,-44.99999063801583
1682183471.538478,-0.24969500711801276,0.0008021409131831525,-2.0000237754631645,126.4999711359432,-0.0,51.73001019540199,-44.99999063801583
1682183471.6280847,-0.24969500711801276,0.0008021409131831525,-2.0000237754631645,126.4999711359432,-0.0,51.73001019540199,-44.99999063801583
1682183471.7019842,-0.24969500711801276,0.0008021409131831525,-2.0000237754631645,126.4999711359432,-0.0,51.73001019540199,-44.99999063801583
1682183471.7829902,-0.24969500711801276,0.0008021409131831525,-2.0000237754631645,126.4999711359432,-0.0,51.73001019540199,-44.99999063801583
1682183471.8790586,-0.24969500711801276,0.0008021409131831525,-2.0000237754631645,126.4999711359432,-0.0,51.73001019540199,-44.99999063801583
1682183471.956447,-0.24969500711801276,0.0008021409131831525,-2.0000237754631645,126.4999711359432,-0.0,51.73001019540199,-44.99999063801583
1682183472.0459282,-0.24969500711801276,0.0008021409131831525,-2.0000237754631645,126.4999711359432,-0.0,51.73001019540199,-44.99999063801583
1682183472.1306171,-0.24969500711801276,0.0008021409131831525,-2.0000237754631645,126.4999711359432,-0.0,51.73001019540199,-44.99999063801583
1682183472.2181628,-0.24969500711801276,0.0008021409131831525,-2.0000237754631645,126.4999711359432,-0.0,51.73001019540199,-44.99999063801583
1682183472.2989368,-0.24969500711801276,0.0008021409131831525,-2.0000237754631645,126.4999711359432,-0.0,51.73001019540199,-44.99999063801583
1682183472.3856013,-0.24969500711801276,0.0008021409131831525,-2.0000237754631645,126.4999711359432,-0.0,51.73001019540199,-44.99999063801583
1682183472.4785204,-0.24969500711801276,0.0008021409131831525,-2.0000237754631645,126.4999711359432,-0.0,51.73001019540199,-44.99999063801583
1682183472.5565653,-0.24969500711801276,0.0008021409131831525,-2.0000237754631645,126.4999711359432,-0.0,51.73001019540199,-44.99999063801583
1682183472.6400712,-0.24969500711801276,0.0008021409131831525,-2.0000237754631645,126.4999711359432,-0.0,51.73001019540199,-44.99999063801583
1682183472.7275329,-0.24969500711801276,0.0008021409131831525,-2.0000237754631645,126.4999711359432,-0.0,51.73001019540199,-44.99999063801583
1682183472.8236053,-0.24969500711801276,0.0008021409131831525,-2.0000237754631645,126.4999711359432,-0.0,51.73001019540199,-44.99999063801583
1682183472.9096043,-0.24969500711801276,0.0008021409131831525,-2.0000237754631645,126.4999711359432,-0.0,51.73001019540199,-44.99999063801583
1682183472.9900153,-0.24969500711801276,0.0008021409131831525,-2.0000237754631645,126.4999711359432,-0.0,51.73001019540199,-44.99999063801583
1682183473.1436436,-0.24969500711801276,0.0008021409131831525,-2.0000237754631645,126.4999711359432,-0.0,51.73001019540199,-44.99999063801583
1682183473.213353,-0.24969500711801276,0.0008021409131831525,-2.0000237754631645,126.4999711359432,-0.0,51.73001019540199,-44.99999063801583
1682183473.3476992,-0.24969500711801276,0.0008021409131831525,-2.0000237754631645,126.4999711359432,-0.0,51.73001019540199,-44.99999063801583
1682183473.4487963,-0.24969500711801276,0.0008021409131831525,-2.0000237754631645,126.4999711359432,-0.0,51.73001019540199,-44.99999063801583
1682183473.5499382,-0.24969500711801276,0.0008021409131831525,-2.0000237754631645,126.4999711359432,-0.0,51.73001019540199,-44.99999063801583
1682183473.627831,-0.24969500711801276,0.0008021409131831525,-2.0000237754631645,126.4999711359432,-0.0,51.73001019540199,-44.99999063801583
