HarrisonEXE/WomboComboOfMedusa/logs/joint_data_arm_3.csv
timestamp,j1,j2,j3,j4,j5,j6,j7
1682116563.2118154,-1.4000223724021665,83.95000532568626,0.0,119.99999413330205,-14.99997778074544,50.64998475158039,-44.99999063801583
1682116569.2269857,-1.4000223724021665,56.80040020341221,0.0,184.99907661035925,-14.99997778074544,44.50008496176418,-44.99999063801583
1682116569.2279036,-1.4000223724021665,56.80040020341221,0.0,184.99907661035925,-14.99997778074544,44.50008496176418,-44.99999063801583
1682116569.228532,-1.4000223724021665,56.80040020341221,0.0,184.99907661035925,-14.99997778074544,44.50008496176418,-44.99999063801583
1682116569.2306705,-1.4000223724021665,56.80040020341221,0.0,184.99907661035925,-14.99997778074544,44.50008496176418,-44.99999063801583
1682116569.2319,-1.4000223724021665,56.80040020341221,0.0,184.99907661035925,-14.99997778074544,44.50008496176418,-44.99999063801583
1682116569.2331057,-1.4000223724021665,56.80040020341221,0.0,184.99907661035925,-14.99997778074544,44.50008496176418,-44.99999063801583
1682116569.2338789,-1.4000223724021665,56.80040020341221,0.0,184.99907661035925,-14.99997778074544,44.50008496176418,-44.99999063801583
1682116569.2351952,-1.4000223724021665,56.80040020341221,0.0,184.99907661035925,-14.99997778074544,44.50008496176418,-44.99999063801583
1682116569.236226,-1.4000223724021665,56.80040020341221,0.0,184.99907661035925,-14.99997778074544,44.50008496176418,-44.99999063801583
1682116569.237459,-1.4000223724021665,56.80040020341221,0.0,184.99907661035925,-14.99997778074544,44.50008496176418,-44.99999063801583
1682116569.2383091,-1.4000223724021665,56.80040020341221,0.0,184.99907661035925,-14.99997778074544,44.50008496176418,-44.99999063801583
1682116569.2392478,-1.4000223724021665,56.80040020341221,0.0,184.99907661035925,-14.99997778074544,44.50008496176418,-44.99999063801583
1682116569.239943,-1.4000223724021665,56.80040020341221,0.0,184.99907661035925,-14.99997778074544,44.50008496176418,-44.99999063801583
1682116569.2408721,-1.4000223724021665,56.80040020341221,0.0,184.99907661035925,-14.99997778074544,44.50008496176418,-44.99999063801583
1682116569.2419748,-1.4000223724021665,56.80040020341221,0.0,184.99907661035925,-14.99997778074544,44.50008496176418,-44.99999063801583
1682116569.244742,-1.4000223724021665,56.80040020341221,0.0,184.99907661035925,-14.99997778074544,44.50008496176418,-44.99999063801583
1682116569.2465348,-1.4000223724021665,56.80040020341221,0.0,184.99907661035925,-14.99997778074544,44.50008496176418,-44.99999063801583
1682116569.2484286,-1.4000223724021665,56.80040020341221,0.0,184.99907661035925,-14.99997778074544,44.50008496176418,-44.99999063801583
1682116569.2495897,-1.4000223724021665,56.80040020341221,0.0,184.99907661035925,-14.99997778074544,44.50008496176418,-44.99999063801583
1682116569.250831,-1.4000223724021665,56.80040020341221,0.0,184.99907661035925,-14.99997778074544,44.50008496176418,-44.99999063801583
1682116569.252645,-1.4000223724021665,56.80040020341221,0.0,184.99907661035925,-14.99997778074544,44.50008496176418,-44.99999063801583
1682116569.2554028,-1.4000223724021665,56.80040020341221,0.0,184.99907661035925,-14.99997778074544,44.50008496176418,-44.99999063801583
1682116569.2579243,-1.4000223724021665,56.80040020341221,0.0,184.99907661035925,-14.99997778074544,44.50008496176418,-44.99999063801583
1682116569.2603886,-1.4000223724021665,56.80040020341221,0.0,184.99907661035925,-14.99997778074544,44.50008496176418,-44.99999063801583
1682116569.2627802,-1.4000223724021665,56.80040020341221,0.0,184.99907661035925,-14.99997778074544,44.50008496176418,-44.99999063801583
1682116569.2657268,-1.4000223724021665,56.80040020341221,0.0,184.99907661035925,-14.99997778074544,44.50008496176418,-44.99999063801583
1682116569.2684655,-1.4000223724021665,56.80040020341221,0.0,184.99907661035925,-14.99997778074544,44.50008496176418,-44.99999063801583
1682116569.2706883,-1.4000223724021665,56.80040020341221,0.0,184.99907661035925,-14.99997778074544,44.50008496176418,-44.99999063801583
1682116569.2719567,-1.4000223724021665,56.80040020341221,0.0,184.99907661035925,-14.99997778074544,44.50008496176418,-44.99999063801583
1682116569.2733848,-1.4000223724021665,56.80040020341221,0.0,184.99907661035925,-14.99997778074544,44.50008496176418,-44.99999063801583
1682116569.275033,-1.4000223724021665,56.80040020341221,0.0,184.99907661035925,-14.99997778074544,44.50008496176418,-44.99999063801583
1682116569.277016,-1.4000223724021665,56.80040020341221,0.0,184.99907661035925,-14.99997778074544,44.50008496176418,-44.99999063801583
1682116569.27889,-1.4000223724021665,56.80040020341221,0.0,184.99907661035925,-14.99997778074544,44.50008496176418,-44.99999063801583
1682116569.2807267,-1.4000223724021665,56.80040020341221,0.0,184.99907661035925,-14.99997778074544,44.50008496176418,-44.99999063801583
1682116569.2822964,-1.4000223724021665,56.80040020341221,0.0,184.99907661035925,-14.99997778074544,44.50008496176418,-44.99999063801583
1682116569.2845886,-1.4000223724021665,56.80040020341221,0.0,184.99907661035925,-14.99997778074544,44.50008496176418,-44.99999063801583
1682116569.2899036,-1.4000223724021665,56.80040020341221,0.0,184.99907661035925,-14.99997778074544,44.50008496176418,-44.99999063801583
1682116569.291252,-1.4000223724021665,56.80040020341221,0.0,184.99907661035925,-14.99997778074544,44.50008496176418,-44.99999063801583
1682116593.6854134,-1.4000223724021665,56.80011372451465,0.0,184.99964956815438,-14.99997778074544,44.500027665984675,-44.99999063801583
1682116593.7679865,-1.4000223724021665,56.80011372451465,0.0,184.99964956815438,-14.99997778074544,44.500027665984675,-44.99999063801583
1682116593.8547382,-1.4000223724021665,56.80011372451465,0.0,184.99964956815438,-14.99997778074544,44.500027665984675,-44.99999063801583
1682116593.944116,-1.4000223724021665,56.80011372451465,0.0,184.99964956815438,-14.99997778074544,44.500027665984675,-44.99999063801583
1682116594.0207987,-1.4000223724021665,56.80011372451465,0.0,184.99964956815438,-14.99997778074544,44.500027665984675,-44.99999063801583
1682116594.123651,-1.4000223724021665,56.80011372451465,0.0,184.99964956815438,-14.99997778074544,44.500027665984675,-44.99999063801583
1682116594.2065718,-1.4000223724021665,56.80011372451465,0.0,184.99964956815438,-14.99997778074544,44.500027665984675,-44.99999063801583
1682116594.2830617,-1.4000223724021665,56.80011372451465,0.0,184.99964956815438,-14.99997778074544,44.500027665984675,-44.99999063801583
1682116594.3787208,-1.4000223724021665,56.80011372451465,0.0,184.99964956815438,-14.99997778074544,44.500027665984675,-44.99999063801583
1682116594.462045,-1.4000223724021665,56.80011372451465,0.0,184.99964956815438,-14.99997778074544,44.500027665984675,-44.99999063801583
1682116594.549323,-1.4000223724021665,56.80011372451465,0.0,184.99964956815438,-14.99997778074544,44.500027665984675,-44.99999063801583
1682116594.6271489,-1.4000223724021665,56.80011372451465,0.0,184.99964956815438,-14.99997778074544,44.500027665984675,-44.99999063801583
1682116594.7290378,-1.4000223724021665,56.80011372451465,0.0,184.99964956815438,-14.99997778074544,44.500027665984675,-44.99999063801583
1682116594.81635,-1.4000223724021665,56.80011372451465,0.0,184.99964956815438,-14.99997778074544,44.500027665984675,-44.99999063801583
1682116594.9043293,-1.4000223724021665,56.80011372451465,0.0,184.99964956815438,-14.99997778074544,44.500027665984675,-44.99999063801583
1682116594.9756756,-1.4000223724021665,56.80011372451465,0.0,184.99964956815438,-14.99997778074544,44.500027665984675,-44.99999063801583
1682116595.0700939,-1.4000223724021665,56.80011372451465,0.0,184.99964956815438,-14.99997778074544,44.500027665984675,-44.99999063801583
1682116595.1648834,-1.4000223724021665,56.80011372451465,0.0,184.99964956815438,-14.99997778074544,44.500027665984675,-44.99999063801583
1682116595.2613206,-1.4000223724021665,56.80011372451465,0.0,184.99964956815438,-14.99997778074544,44.500027665984675,-44.99999063801583
1682116595.3416831,-1.4000223724021665,56.80011372451465,0.0,184.99964956815438,-14.99997778074544,44.500027665984675,-44.99999063801583
1682116595.4234157,-1.4000223724021665,56.80011372451465,0.0,184.99964956815438,-14.99997778074544,44.500027665984675,-44.99999063801583
1682116595.5207913,-1.4000223724021665,56.80011372451465,0.0,184.99964956815438,-14.99997778074544,44.500027665984675,-44.99999063801583
1682116595.617509,-1.4000223724021665,56.80011372451465,0.0,184.99964956815438,-14.99997778074544,44.500027665984675,-44.99999063801583
1682116595.71806,-1.4000223724021665,56.80011372451465,0.0,184.99964956815438,-14.99997778074544,44.500027665984675,-44.99999063801583
1682116595.8004289,-1.4000223724021665,56.80011372451465,0.0,184.99964956815438,-14.99997778074544,44.500027665984675,-44.99999063801583
1682116595.8830345,-1.4000223724021665,56.80011372451465,0.0,184.99964956815438,-14.99997778074544,44.500027665984675,-44.99999063801583
1682116595.9733627,-1.4000223724021665,56.80011372451465,0.0,184.99964956815438,-14.99997778074544,44.500027665984675,-44.99999063801583
1682116596.0491264,-1.4000223724021665,56.80011372451465,0.0,184.99964956815438,-14.99997778074544,44.500027665984675,-44.99999063801583
1682116596.1330123,-1.4000223724021665,56.80011372451465,0.0,184.99964956815438,-14.99997778074544,44.500027665984675,-44.99999063801583
1682116596.1997209,-1.4000223724021665,56.80011372451465,0.0,184.99964956815438,-14.99997778074544,44.500027665984675,-44.99999063801583
1682116596.281953,-1.4000223724021665,56.80011372451465,0.0,184.99964956815438,-14.99997778074544,44.500027665984675,-44.99999063801583
1682116596.3650575,-1.4000223724021665,56.80011372451465,0.0,184.99964956815438,-14.99997778074544,44.500027665984675,-44.99999063801583
1682116596.451499,-1.4000223724021665,56.80011372451465,0.0,184.99964956815438,-14.99997778074544,44.500027665984675,-44.99999063801583
1682116596.5319517,-1.4000223724021665,56.80011372451465,0.0,184.99964956815438,-14.99997778074544,44.500027665984675,-44.99999063801583
1682116596.6033883,-1.4000223724021665,56.80011372451465,0.0,184.99964956815438,-14.99997778074544,44.500027665984675,-44.99999063801583
1682116596.68414,-1.4000223724021665,56.80011372451465,0.0,184.99964956815438,-14.99997778074544,44.500027665984675,-44.99999063801583
1682116596.780477,-1.4000223724021665,56.80011372451465,0.0,184.99964956815438,-14.99997778074544,44.500027665984675,-44.99999063801583
1682116596.8747294,-1.4000223724021665,56.80011372451465,0.0,184.99964956815438,-14.99997778074544,44.500027665984675,-44.99999063801583
1682116596.955667,-1.4000223724021665,56.80011372451465,0.0,184.99964956815438,-14.99997778074544,44.500027665984675,-44.99999063801583
1682116597.0532908,-1.4000223724021665,56.80011372451465,0.0,184.99964956815438,-14.99997778074544,44.500027665984675,-44.99999063801583
1682116597.1462002,-1.4000223724021665,56.80011372451465,0.0,184.99964956815438,-14.99997778074544,44.500027665984675,-44.99999063801583
1682116597.2321377,-1.4000223724021665,56.80011372451465,0.0,184.99964956815438,-14.99997778074544,44.500027665984675,-44.99999063801583
1682116597.3249388,-1.4000223724021665,56.80011372451465,0.0,184.99964956815438,-14.99997778074544,44.500027665984675,-44.99999063801583
1682116597.4127896,-1.4000223724021665,56.80011372451465,0.0,184.99964956815438,-14.99997778074544,44.500027665984675,-44.99999063801583
1682116597.5036416,-1.4000223724021665,56.80011372451465,0.0,184.99964956815438,-14.99997778074544,44.500027665984675,-44.99999063801583
1682116597.5901914,-1.4000223724021665,56.80011372451465,0.0,184.99964956815438,-14.99997778074544,44.500027665984675,-44.99999063801583
1682116597.6754146,-1.4000223724021665,56.80011372451465,0.0,184.99964956815438,-14.99997778074544,44.500027665984675,-44.99999063801583
1682116597.778209,-1.4000223724021665,56.80011372451465,0.0,184.99964956815438,-14.99997778074544,44.500027665984675,-44.99999063801583
1682116597.8681762,-1.4000223724021665,56.80011372451465,0.0,184.99964956815438,-14.99997778074544,44.500027665984675,-44.99999063801583
1682116597.9508064,-1.4000223724021665,56.80011372451465,0.0,184.99964956815438,-14.99997778074544,44.500027665984675,-44.99999063801583
1682116598.040585,-1.4000223724021665,56.80011372451465,0.0,184.99964956815438,-14.99997778074544,44.500027665984675,-44.99999063801583
1682116598.117822,-1.4000223724021665,56.80011372451465,0.0,184.99964956815438,-14.99997778074544,44.500027665984675,-44.99999063801583
1682116598.2228153,-1.4000223724021665,56.80011372451465,0.0,184.99964956815438,-14.99997778074544,44.500027665984675,-44.99999063801583
1682116598.312261,-1.4000223724021665,56.80011372451465,0.0,184.99964956815438,-14.99997778074544,44.500027665984675,-44.99999063801583
1682116598.3964813,-1.4000223724021665,56.80011372451465,0.0,184.99964956815438,-14.99997778074544,44.500027665984675,-44.99999063801583
1682116598.4907556,-1.4000223724021665,56.80011372451465,0.0,184.99964956815438,-14.99997778074544,44.500027665984675,-44.99999063801583
1682116598.5761166,-1.4000223724021665,56.80011372451465,0.0,184.99964956815438,-14.99997778074544,44.500027665984675,-44.99999063801583
1682116598.6516013,-1.4000223724021665,56.80011372451465,0.0,184.99964956815438,-14.99997778074544,44.500027665984675,-44.99999063801583
1682116598.7512033,-1.4000223724021665,56.80011372451465,0.0,184.99964956815438,-14.99997778074544,44.500027665984675,-44.99999063801583
1682116598.8454216,-1.4000223724021665,56.80011372451465,0.0,184.99964956815438,-14.99997778074544,44.500027665984675,-44.99999063801583
1682116598.9235718,-1.4000223724021665,56.80011372451465,0.0,184.99964956815438,-14.99997778074544,44.500027665984675,-44.99999063801583
1682116599.0190425,-1.4000223724021665,56.80011372451465,0.0,184.99964956815438,-14.99997778074544,44.500027665984675,-44.99999063801583
1682116599.1156425,-1.4000223724021665,56.80011372451465,0.0,184.99964956815438,-14.99997778074544,44.500027665984675,-44.99999063801583
1682116599.200621,-1.4000223724021665,56.80011372451465,0.0,184.99964956815438,-14.99997778074544,44.500027665984675,-44.99999063801583
1682116599.2871976,-1.4000223724021665,56.80011372451465,0.0,184.99964956815438,-14.99997778074544,44.500027665984675,-44.99999063801583
1682116599.3917215,-1.4000223724021665,56.80011372451465,0.0,184.99964956815438,-14.99997778074544,44.500027665984675,-44.99999063801583
1682116599.4801016,-1.4000223724021665,56.80011372451465,0.0,184.99964956815438,-14.99997778074544,44.500027665984675,-44.99999063801583
1682116599.5650449,-1.4000223724021665,56.80011372451465,0.0,184.99964956815438,-14.99997778074544,44.500027665984675,-44.99999063801583
1682116599.6589706,-1.4000223724021665,56.80011372451465,0.0,184.99964956815438,-14.99997778074544,44.500027665984675,-44.99999063801583
1682116599.7482553,-1.4000223724021665,56.80011372451465,0.0,184.99964956815438,-14.99997778074544,44.500027665984675,-44.99999063801583
1682116599.8369224,-1.4000223724021665,56.80011372451465,0.0,184.99964956815438,-14.99997778074544,44.500027665984675,-44.99999063801583
1682116599.9164035,-1.4000223724021665,56.80011372451465,0.0,184.99964956815438,-14.99997778074544,44.500027665984675,-44.99999063801583
1682116600.0139163,-1.4000223724021665,56.80011372451465,0.0,184.99964956815438,-14.99997778074544,44.500027665984675,-44.99999063801583
1682116600.1031446,-1.4000223724021665,56.80011372451465,0.0,184.99964956815438,-14.99997778074544,44.500027665984675,-44.99999063801583
1682116600.1965466,-1.4000223724021665,56.80011372451465,0.0,184.99964956815438,-14.99997778074544,44.500027665984675,-44.99999063801583
1682116600.2778347,-1.4000223724021665,56.80011372451465,0.0,184.99964956815438,-14.99997778074544,44.500027665984675,-44.99999063801583
1682116600.3543422,-1.4000223724021665,56.80011372451465,0.0,184.99964956815438,-14.99997778074544,44.500027665984675,-44.99999063801583
1682116600.4265125,-1.4000223724021665,56.80011372451465,0.0,184.99964956815438,-14.99997778074544,44.500027665984675,-44.99999063801583
1682116600.5037618,-1.4000223724021665,56.80011372451465,0.0,184.99964956815438,-14.99997778074544,44.500027665984675,-44.99999063801583
1682116600.5717328,-1.4000223724021665,56.80011372451465,0.0,184.99964956815438,-14.99997778074544,44.500027665984675,-44.99999063801583
1682116600.6405358,-1.4000223724021665,56.80011372451465,0.0,184.99964956815438,-14.99997778074544,44.500027665984675,-44.99999063801583
1682116600.7301686,-1.4000223724021665,56.80011372451465,0.0,184.99964956815438,-14.99997778074544,44.500027665984675,-44.99999063801583
1682116600.8086276,-1.4000223724021665,56.80011372451465,0.0,184.99964956815438,-14.99997778074544,44.500027665984675,-44.99999063801583
1682116600.8914452,-1.4000223724021665,56.80011372451465,0.0,184.99964956815438,-14.99997778074544,44.500027665984675,-44.99999063801583
1682116600.9775248,-1.4000223724021665,56.80011372451465,0.0,184.99964956815438,-14.99997778074544,44.500027665984675,-44.99999063801583
1682116601.068235,-1.4000223724021665,56.80011372451465,0.0,184.99964956815438,-14.99997778074544,44.500027665984675,-44.99999063801583
1682116601.1507745,-1.4000223724021665,56.80011372451465,0.0,184.99964956815438,-14.99997778074544,44.500027665984675,-44.99999063801583
1682116601.2197914,-1.4000223724021665,56.80011372451465,0.0,184.99964956815438,-14.99997778074544,44.500027665984675,-44.99999063801583
1682116601.2996175,-1.4000223724021665,56.80011372451465,0.0,184.99964956815438,-14.99997778074544,44.500027665984675,-44.99999063801583
1682116601.380199,-1.4000223724021665,56.80011372451465,0.0,184.99964956815438,-14.99997778074544,44.500027665984675,-44.99999063801583
1682116601.465119,-1.4000223724021665,56.80011372451465,0.0,184.99964956815438,-14.99997778074544,44.500027665984675,-44.99999063801583
1682116601.5571656,-1.4000223724021665,56.80011372451465,0.0,184.99964956815438,-14.99997778074544,44.500027665984675,-44.99999063801583
1682116601.7441814,-1.4000223724021665,56.80011372451465,0.0,184.99964956815438,-14.99997778074544,44.500027665984675,-44.99999063801583
1682116601.826195,-1.4000223724021665,56.80011372451465,0.0,184.99964956815438,-14.99997778074544,44.500027665984675,-44.99999063801583
1682116601.914296,-1.4000223724021665,56.80011372451465,0.0,184.99964956815438,-14.99997778074544,44.500027665984675,-44.99999063801583
1682116601.985724,-1.4000223724021665,56.80011372451465,0.0,184.99964956815438,-14.99997778074544,44.500027665984675,-44.99999063801583
1682116602.067413,-1.4000223724021665,56.80011372451465,0.0,184.99964956815438,-14.99997778074544,44.500027665984675,-44.99999063801583
1682116602.158191,-1.4000223724021665,56.80011372451465,0.0,184.99964956815438,-14.99997778074544,44.500027665984675,-44.99999063801583
1682116602.2342758,-1.4000223724021665,56.80011372451465,0.0,184.99964956815438,-14.99997778074544,44.500027665984675,-44.99999063801583
1682116602.324095,-1.4000223724021665,56.80011372451465,0.0,184.99964956815438,-14.99997778074544,44.500027665984675,-44.99999063801583
1682116602.4088762,-1.4000223724021665,56.80011372451465,0.0,184.99964956815438,-14.99997778074544,44.500027665984675,-44.99999063801583
1682116602.4857306,-1.4000223724021665,56.80011372451465,0.0,184.99964956815438,-14.99997778074544,44.500027665984675,-44.99999063801583
1682116602.58454,-1.4000223724021665,56.80011372451465,0.0,184.99964956815438,-14.99997778074544,44.500027665984675,-44.99999063801583
1682116602.660892,-1.4000223724021665,56.80011372451465,0.0,184.99964956815438,-14.99997778074544,44.500027665984675,-44.99999063801583
1682116602.741223,-1.4000223724021665,56.80011372451465,0.0,184.99964956815438,-14.99997778074544,44.500027665984675,-44.99999063801583
1682116602.8376777,-1.4000223724021665,56.80011372451465,0.0,184.99964956815438,-14.99997778074544,44.500027665984675,-44.99999063801583
1682116602.9276447,-1.4000223724021665,56.80011372451465,0.0,184.99964956815438,-14.99997778074544,44.500027665984675,-44.99999063801583
1682116603.0105445,-1.4000223724021665,56.80011372451465,0.0,184.99964956815438,-14.99997778074544,44.500027665984675,-44.99999063801583
1682116603.0925283,-1.4000223724021665,56.80011372451465,0.0,184.99964956815438,-14.99997778074544,44.500027665984675,-44.99999063801583
1682116603.180118,-1.4000223724021665,56.80011372451465,0.0,184.99964956815438,-14.99997778074544,44.500027665984675,-44.99999063801583
1682116603.2673326,-1.4000223724021665,56.80011372451465,0.0,184.99964956815438,-14.99997778074544,44.500027665984675,-44.99999063801583
1682116603.3602931,-1.4000223724021665,56.80011372451465,0.0,184.99964956815438,-14.99997778074544,44.500027665984675,-44.99999063801583
1682116603.4449434,-1.4000223724021665,56.80011372451465,0.0,184.99964956815438,-14.99997778074544,44.500027665984675,-44.99999063801583
1682116603.5247762,-1.4000223724021665,56.80011372451465,0.0,184.99964956815438,-14.99997778074544,44.500027665984675,-44.99999063801583
1682116603.6229153,-1.4000223724021665,56.80011372451465,0.0,184.99964956815438,-14.99997778074544,44.500027665984675,-44.99999063801583
1682116603.6994739,-1.4000223724021665,56.80011372451465,0.0,184.99964956815438,-14.99997778074544,44.500027665984675,-44.99999063801583
1682116603.7758374,-1.4000223724021665,56.80011372451465,0.0,184.99964956815438,-14.99997778074544,44.500027665984675,-44.99999063801583
1682116603.8649218,-1.4000223724021665,56.80011372451465,0.0,184.99964956815438,-14.99997778074544,44.500027665984675,-44.99999063801583
1682116603.9468331,-1.4000223724021665,56.80011372451465,0.0,184.99964956815438,-14.99997778074544,44.500027665984675,-44.99999063801583
1682116604.0419266,-1.4000223724021665,56.80011372451465,0.0,184.99964956815438,-14.99997778074544,44.500027665984675,-44.99999063801583
1682116604.1224768,-1.4000223724021665,56.80011372451465,0.0,184.99964956815438,-14.99997778074544,44.500027665984675,-44.99999063801583
1682116604.2224588,-1.4000223724021665,56.80011372451465,0.0,184.99964956815438,-14.99997778074544,44.500027665984675,-44.99999063801583
1682116604.3186626,-1.4000223724021665,56.80011372451465,0.0,184.99964956815438,-14.99997778074544,44.500027665984675,-44.99999063801583
1682116604.403622,-1.4000223724021665,56.80011372451465,0.0,184.99964956815438,-14.99997778074544,44.500027665984675,-44.99999063801583
1682116604.48597,-1.4000223724021665,56.80011372451465,0.0,184.99964956815438,-14.99997778074544,44.500027665984675,-44.99999063801583
1682116604.579666,-1.4000223724021665,56.80011372451465,0.0,184.99964956815438,-14.99997778074544,44.500027665984675,-44.99999063801583
1682116604.6596582,-1.4000223724021665,56.80011372451465,0.0,184.99964956815438,-14.99997778074544,44.500027665984675,-44.99999063801583
1682116604.7549524,-1.4000223724021665,56.80011372451465,0.0,184.99964956815438,-14.99997778074544,44.500027665984675,-44.99999063801583
1682116604.831698,-1.4000223724021665,56.80011372451465,0.0,184.99964956815438,-14.99997778074544,44.500027665984675,-44.99999063801583
1682116604.9143448,-1.4000223724021665,56.80011372451465,0.0,184.99964956815438,-14.99997778074544,44.500027665984675,-44.99999063801583
1682116604.9842849,-1.4000223724021665,56.80011372451465,0.0,184.99964956815438,-14.99997778074544,44.500027665984675,-44.99999063801583
1682118328.3231196,-1.4000223724021665,83.95000532568626,0.0,119.99999413330205,-14.99997778074544,50.64998475158039,-44.99999063801583
1682118334.3346004,-1.4000223724021665,56.80847890832356,0.0,184.97971063688385,-14.99997778074544,44.501918426708606,-44.99999063801583
1682118334.3359132,-1.4000223724021665,56.80847890832356,0.0,184.97971063688385,-14.99997778074544,44.501918426708606,-44.99999063801583
1682118334.337277,-1.4000223724021665,56.80847890832356,0.0,184.97971063688385,-14.99997778074544,44.501918426708606,-44.99999063801583
1682118334.338,-1.4000223724021665,56.80847890832356,0.0,184.97971063688385,-14.99997778074544,44.501918426708606,-44.99999063801583
1682118334.338864,-1.4000223724021665,56.80847890832356,0.0,184.97971063688385,-14.99997778074544,44.501918426708606,-44.99999063801583
1682118334.3400156,-1.4000223724021665,56.80847890832356,0.0,184.97971063688385,-14.99997778074544,44.501918426708606,-44.99999063801583
1682118334.3408813,-1.4000223724021665,56.80847890832356,0.0,184.97971063688385,-14.99997778074544,44.501918426708606,-44.99999063801583
1682118334.341647,-1.4000223724021665,56.80847890832356,0.0,184.97971063688385,-14.99997778074544,44.501918426708606,-44.99999063801583
1682118334.3427238,-1.4000223724021665,56.80847890832356,0.0,184.97971063688385,-14.99997778074544,44.501918426708606,-44.99999063801583
1682118334.3432977,-1.4000223724021665,56.80847890832356,0.0,184.97971063688385,-14.99997778074544,44.501918426708606,-44.99999063801583
1682118334.3442001,-1.4000223724021665,56.80847890832356,0.0,184.97971063688385,-14.99997778074544,44.501918426708606,-44.99999063801583
1682118334.3449206,-1.4000223724021665,56.80847890832356,0.0,184.97971063688385,-14.99997778074544,44.501918426708606,-44.99999063801583
1682118334.3467705,-1.4000223724021665,56.79999913295562,0.0,184.99993604705196,-14.99997778074544,44.500027665984675,-44.99999063801583
1682118334.3476906,-1.4000223724021665,56.79999913295562,0.0,184.99993604705196,-14.99997778074544,44.500027665984675,-44.99999063801583
1682118334.3516185,-1.4000223724021665,56.79999913295562,0.0,184.99993604705196,-14.99997778074544,44.500027665984675,-44.99999063801583
1682118334.3521843,-1.4000223724021665,56.79999913295562,0.0,184.99993604705196,-14.99997778074544,44.500027665984675,-44.99999063801583
1682118334.3544846,-1.4000223724021665,56.79999913295562,0.0,184.99993604705196,-14.99997778074544,44.500027665984675,-44.99999063801583
1682118334.3552256,-1.4000223724021665,56.79999913295562,0.0,184.99993604705196,-14.99997778074544,44.500027665984675,-44.99999063801583
1682118334.3575878,-1.4000223724021665,56.79999913295562,0.0,184.99993604705196,-14.99997778074544,44.500027665984675,-44.99999063801583
1682118334.3608875,-1.4000223724021665,56.79999913295562,0.0,184.99993604705196,-14.99997778074544,44.500027665984675,-44.99999063801583
1682118334.3632772,-1.4000223724021665,56.79999913295562,0.0,184.99993604705196,-14.99997778074544,44.500027665984675,-44.99999063801583
1682118334.3660371,-1.4000223724021665,56.79999913295562,0.0,184.99993604705196,-14.99997778074544,44.500027665984675,-44.99999063801583
1682118334.3684454,-1.4000223724021665,56.79999913295562,0.0,184.99993604705196,-14.99997778074544,44.500027665984675,-44.99999063801583
1682118334.3752792,-1.4000223724021665,56.79999913295562,0.0,184.99993604705196,-14.99997778074544,44.500027665984675,-44.99999063801583
1682118334.376303,-1.4000223724021665,56.79999913295562,0.0,184.99993604705196,-14.99997778074544,44.500027665984675,-44.99999063801583
1682118334.3798153,-1.4000223724021665,56.79999913295562,0.0,184.99993604705196,-14.99997778074544,44.500027665984675,-44.99999063801583
1682118334.380539,-1.4000223724021665,56.79999913295562,0.0,184.99993604705196,-14.99997778074544,44.500027665984675,-44.99999063801583
1682118334.3811383,-1.4000223724021665,56.79999913295562,0.0,184.99993604705196,-14.99997778074544,44.500027665984675,-44.99999063801583
1682118334.3817272,-1.4000223724021665,56.79999913295562,0.0,184.99993604705196,-14.99997778074544,44.500027665984675,-44.99999063801583
1682118334.3823516,-1.4000223724021665,56.79999913295562,0.0,184.99993604705196,-14.99997778074544,44.500027665984675,-44.99999063801583
1682118334.383245,-1.4000223724021665,56.79999913295562,0.0,184.99993604705196,-14.99997778074544,44.500027665984675,-44.99999063801583
1682118334.383945,-1.4000223724021665,56.79999913295562,0.0,184.99993604705196,-14.99997778074544,44.500027665984675,-44.99999063801583
1682118334.3846202,-1.4000223724021665,56.79999913295562,0.0,184.99993604705196,-14.99997778074544,44.500027665984675,-44.99999063801583
1682118334.385286,-1.4000223724021665,56.79999913295562,0.0,184.99993604705196,-14.99997778074544,44.500027665984675,-44.99999063801583
1682118334.3859491,-1.4000223724021665,56.79999913295562,0.0,184.99993604705196,-14.99997778074544,44.500027665984675,-44.99999063801583
1682118334.3865886,-1.4000223724021665,56.79999913295562,0.0,184.99993604705196,-14.99997778074544,44.500027665984675,-44.99999063801583
1682118334.3873913,-1.4000223724021665,56.79999913295562,0.0,184.99993604705196,-14.99997778074544,44.500027665984675,-44.99999063801583
1682118334.388306,-1.4000223724021665,56.79999913295562,0.0,184.99993604705196,-14.99997778074544,44.500027665984675,-44.99999063801583
1682118334.3890612,-1.4000223724021665,56.79999913295562,0.0,184.99993604705196,-14.99997778074544,44.500027665984675,-44.99999063801583
1682118334.3903074,-1.4000223724021665,56.79999913295562,0.0,184.99993604705196,-14.99997778074544,44.500027665984675,-44.99999063801583
1682118334.391549,-1.4000223724021665,56.79999913295562,0.0,184.99993604705196,-14.99997778074544,44.500027665984675,-44.99999063801583
1682118334.3927815,-1.4000223724021665,56.79999913295562,0.0,184.99993604705196,-14.99997778074544,44.500027665984675,-44.99999063801583
1682118334.3937738,-1.4000223724021665,56.79999913295562,0.0,184.99993604705196,-14.99997778074544,44.500027665984675,-44.99999063801583
1682118334.395176,-1.4000223724021665,56.79999913295562,0.0,184.99993604705196,-14.99997778074544,44.500027665984675,-44.99999063801583
1682118334.3958154,-1.4000223724021665,56.79999913295562,0.0,184.99993604705196,-14.99997778074544,44.500027665984675,-44.99999063801583
1682118334.3963845,-1.4000223724021665,56.79999913295562,0.0,184.99993604705196,-14.99997778074544,44.500027665984675,-44.99999063801583
1682118334.39695,-1.4000223724021665,56.79999913295562,0.0,184.99993604705196,-14.99997778074544,44.500027665984675,-44.99999063801583
1682118334.3975086,-1.4000223724021665,56.79999913295562,0.0,184.99993604705196,-14.99997778074544,44.500027665984675,-44.99999063801583
1682118334.3979254,-1.4000223724021665,56.79999913295562,0.0,184.99993604705196,-14.99997778074544,44.500027665984675,-44.99999063801583
1682118334.3983037,-1.4000223724021665,56.79999913295562,0.0,184.99993604705196,-14.99997778074544,44.500027665984675,-44.99999063801583
1682118334.3986664,-1.4000223724021665,56.79999913295562,0.0,184.99993604705196,-14.99997778074544,44.500027665984675,-44.99999063801583
1682118334.398997,-1.4000223724021665,56.79999913295562,0.0,184.99993604705196,-14.99997778074544,44.500027665984675,-44.99999063801583
1682118334.3993306,-1.4000223724021665,56.79999913295562,0.0,184.99993604705196,-14.99997778074544,44.500027665984675,-44.99999063801583
1682118334.3996634,-1.4000223724021665,56.79999913295562,0.0,184.99993604705196,-14.99997778074544,44.500027665984675,-44.99999063801583
1682118334.399961,-1.4000223724021665,56.79999913295562,0.0,184.99993604705196,-14.99997778074544,44.500027665984675,-44.99999063801583
1682118334.4002454,-1.4000223724021665,56.79999913295562,0.0,184.99993604705196,-14.99997778074544,44.500027665984675,-44.99999063801583
1682118334.4005325,-1.4000223724021665,56.79999913295562,0.0,184.99993604705196,-14.99997778074544,44.500027665984675,-44.99999063801583
1682118334.400821,-1.4000223724021665,56.79999913295562,0.0,184.99993604705196,-14.99997778074544,44.500027665984675,-44.99999063801583
1682118334.4011135,-1.4000223724021665,56.79999913295562,0.0,184.99993604705196,-14.99997778074544,44.500027665984675,-44.99999063801583
1682118334.401406,-1.4000223724021665,56.79999913295562,0.0,184.99993604705196,-14.99997778074544,44.500027665984675,-44.99999063801583
1682118334.4016936,-1.4000223724021665,56.79999913295562,0.0,184.99993604705196,-14.99997778074544,44.500027665984675,-44.99999063801583
1682118334.4019773,-1.4000223724021665,56.79999913295562,0.0,184.99993604705196,-14.99997778074544,44.500027665984675,-44.99999063801583
1682118334.4023592,-1.4000223724021665,56.79999913295562,0.0,184.99993604705196,-14.99997778074544,44.500027665984675,-44.99999063801583
1682118334.4813898,-1.4000223724021665,56.79999913295562,0.0,184.99993604705196,-14.99997778074544,44.500027665984675,-44.99999063801583
1682118334.5693305,-1.4000223724021665,56.79999913295562,0.0,179.23575144491784,-2.1988974261530734,44.500027665984675,-44.99999063801583
1682118334.6706033,-1.4000223724021665,56.79999913295562,0.0,179.23575144491784,-2.1988974261530734,44.500027665984675,-44.99999063801583
1682118334.7415786,-1.4000223724021665,56.79999913295562,0.0,179.23575144491784,-2.1988974261530734,44.500027665984675,-44.99999063801583
1682118334.8238282,-1.4000223724021665,56.79999913295562,0.0,179.2273289653294,-2.2548754027373548,44.500027665984675,-44.99999063801583
1682118334.9090776,-1.4000223724021665,56.79999913295562,0.0,179.2273289653294,-2.2548754027373548,44.500027665984675,-44.99999063801583
1682118334.9986992,-1.4000223724021665,56.79999913295562,0.0,179.24629386834823,-2.257167233917878,44.500027665984675,-44.99999063801583
1682118335.0823145,-1.4000223724021665,56.79999913295562,0.0,179.24629386834823,-2.257167233917878,44.500027665984675,-44.99999063801583
1682118335.1678956,-1.4000223724021665,56.79999913295562,0.0,179.2351784871227,-2.339214790180612,44.500027665984675,-44.99999063801583
1682118335.2437387,-1.4000223724021665,56.79999913295562,0.0,179.2351784871227,-2.339214790180612,44.500027665984675,-44.99999063801583
1682118335.3374057,-1.4000223724021665,56.79999913295562,0.0,179.2351784871227,-2.339214790180612,44.500027665984675,-44.99999063801583
1682118335.4275446,-1.4000223724021665,56.79999913295562,0.0,179.23374609263487,-2.441373165052438,44.500027665984675,-44.99999063801583
1682118335.5133572,-1.4000223724021665,56.79999913295562,0.0,179.23374609263487,-2.441373165052438,44.500027665984675,-44.99999063801583
1682118335.6132808,-1.4000223724021665,56.79999913295562,0.0,179.26222209505286,-2.4501394193179395,44.500027665984675,-44.99999063801583
1682118335.6911635,-1.4000223724021665,56.79999913295562,0.0,179.26222209505286,-2.4501394193179395,44.500027665984675,-44.99999063801583
1682118335.781688,-1.4000223724021665,56.79999913295562,0.0,179.27012891262567,-2.5002159306123732,44.500027665984675,-44.99999063801583
1682118335.8685637,-1.4000223724021665,56.79999913295562,0.0,179.27012891262567,-2.5002159306123732,44.500027665984675,-44.99999063801583
1682118335.9478712,-1.4000223724021665,56.79999913295562,0.0,179.23472012088658,-2.5769349793803906,44.500027665984675,-44.99999063801583
1682118336.0393615,-1.4000223724021665,56.79999913295562,0.0,179.23472012088658,-2.5769349793803906,44.500027665984675,-44.99999063801583
1682118336.1318634,-1.4000223724021665,56.79999913295562,0.0,179.23472012088658,-2.5769349793803906,44.500027665984675,-44.99999063801583
1682118336.2204936,-1.4000223724021665,56.79999913295562,0.0,179.29768818257148,-2.6004262489807544,44.500027665984675,-44.99999063801583
1682118336.3055046,-1.4000223724021665,56.79999913295562,0.0,179.29768818257148,-2.6004262489807544,44.500027665984675,-44.99999063801583
1682118336.3949478,-1.4000223724021665,56.79999913295562,0.0,179.34713444029126,-2.330047465458519,44.500027665984675,-44.99999063801583
1682118336.4901052,-1.4000223724021665,56.79999913295562,0.0,179.34713444029126,-2.330047465458519,44.500027665984675,-44.99999063801583
1682118336.5798159,-1.4000223724021665,56.79999913295562,0.0,179.29545364717046,-1.609782221199561,44.500027665984675,-44.99999063801583
1682118336.6625676,-1.4000223724021665,56.79999913295562,0.0,179.29545364717046,-1.609782221199561,44.500027665984675,-44.99999063801583
1682118336.7622313,-1.4000223724021665,56.79999913295562,0.0,179.15708433964636,-0.5989127832502495,44.500027665984675,-44.99999063801583
1682118336.8498862,-1.4000223724021665,56.79999913295562,0.0,179.15708433964636,-0.5989127832502495,44.500027665984675,-44.99999063801583
1682118336.9271755,-1.4000223724021665,56.79999913295562,0.0,179.15708433964636,-0.5989127832502495,44.500027665984675,-44.99999063801583
1682118336.9993827,-1.4000223724021665,56.79999913295562,0.0,178.95379891393395,1.2292809494531811,44.500027665984675,-44.99999063801583
1682118337.0762882,-1.4000223724021665,56.79999913295562,0.0,178.95379891393395,1.2292809494531811,44.500027665984675,-44.99999063801583
1682118337.1688528,-1.4000223724021665,56.79999913295562,0.0,178.89902414871946,2.2777937145425877,44.500027665984675,-44.99999063801583
1682118337.250174,-1.4000223724021665,56.79999913295562,0.0,178.89902414871946,2.2777937145425877,44.500027665984675,-44.99999063801583
1682118337.3348153,-1.4000223724021665,56.79999913295562,0.0,178.89902414871946,2.2777937145425877,44.500027665984675,-44.99999063801583
1682118337.417124,-1.4000223724021665,56.79999913295562,0.0,178.78076565980444,3.3394272131404903,44.500027665984675,-44.99999063801583
1682118337.5002058,-1.4000223724021665,56.79999913295562,0.0,178.78076565980444,3.3394272131404903,44.500027665984675,-44.99999063801583
1682118337.587554,-1.4000223724021665,56.79999913295562,0.0,178.8396657211439,3.70932876567695,44.500027665984675,-44.99999063801583
1682118337.6726367,-1.4000223724021665,56.79999913295562,0.0,178.8396657211439,3.70932876567695,44.500027665984675,-44.99999063801583
1682118337.7567508,-1.4000223724021665,56.79999913295562,0.0,178.78924543517238,3.8273007756943858,44.500027665984675,-44.99999063801583
1682118337.8552768,-1.4000223724021665,56.79999913295562,0.0,178.78924543517238,3.8273007756943858,44.500027665984675,-44.99999063801583
1682118337.9432492,-1.4000223724021665,56.79999913295562,0.0,178.78924543517238,3.8273007756943858,44.500027665984675,-44.99999063801583
1682118338.0189493,-1.4000223724021665,56.79999913295562,0.0,178.77113996884623,3.6824570450853136,44.500027665984675,-44.99999063801583
1682118338.0931115,-1.4000223724021665,56.79999913295562,0.0,178.77113996884623,3.6824570450853136,44.500027665984675,-44.99999063801583
1682118338.190101,-1.4000223724021665,56.79999913295562,0.0,178.6898372577172,2.6981155530505596,44.500027665984675,-44.99999063801583
1682118338.273882,-1.4000223724021665,56.79999913295562,0.0,178.6898372577172,2.6981155530505596,44.500027665984675,-44.99999063801583
1682118338.370649,-1.4000223724021665,56.79999913295562,0.0,178.65878294522108,1.5893276279133906,44.500027665984675,-44.99999063801583
1682118338.455677,-1.4000223724021665,56.79999913295562,0.0,178.65878294522108,1.5893276279133906,44.500027665984675,-44.99999063801583
1682118338.5443597,-1.4000223724021665,56.79999913295562,0.0,178.65878294522108,1.5893276279133906,44.500027665984675,-44.99999063801583
1682118338.6466813,-1.4000223724021665,56.79999913295562,0.0,178.3873728376676,0.18523725516579517,44.500027665984675,-44.99999063801583
1682118338.7324412,-1.4000223724021665,56.79999913295562,0.0,178.3873728376676,0.18523725516579517,44.500027665984675,-44.99999063801583
1682118338.8212724,-1.4000223724021665,56.79999913295562,0.0,178.0949924748124,-1.703861891160042,44.500027665984675,-44.99999063801583
1682118338.9042659,-1.4000223724021665,56.79999913295562,0.0,178.0949924748124,-1.703861891160042,44.500027665984675,-44.99999063801583
1682118338.9927006,-1.4000223724021665,56.79999913295562,0.0,177.94470564514955,-2.8218171410193045,44.500027665984675,-44.99999063801583
1682118339.0691657,-1.4000223724021665,56.79999913295562,0.0,177.94470564514955,-2.8218171410193045,44.500027665984675,-44.99999063801583
1682118339.1550229,-1.4000223724021665,56.79999913295562,0.0,177.8065655207435,-3.7355129369144286,44.500027665984675,-44.99999063801583
1682118339.2426007,-1.4000223724021665,56.79999913295562,0.0,177.8065655207435,-3.7355129369144286,44.500027665984675,-44.99999063801583
1682118339.3295426,-1.4000223724021665,56.79999913295562,0.0,177.8065655207435,-3.7355129369144286,44.500027665984675,-44.99999063801583
1682118339.403701,-1.4000223724021665,56.79999913295562,0.0,177.5888415585938,-4.52407475035298,44.500027665984675,-44.99999063801583
1682118339.4945292,-1.4000223724021665,56.79999913295562,0.0,177.5888415585938,-4.52407475035298,44.500027665984675,-44.99999063801583
1682118339.5757573,-1.4000223724021665,56.79999913295562,0.0,177.2958309421639,-4.8696255965963795,44.500027665984675,-44.99999063801583
1682118339.6594682,-1.4000223724021665,56.79999913295562,0.0,177.2958309421639,-4.8696255965963795,44.500027665984675,-44.99999063801583
1682118339.74673,-1.4000223724021665,56.79999913295562,0.0,177.01966528491084,-5.314756507633516,44.500027665984675,-44.99999063801583
1682118339.8348172,-1.4000223724021665,56.79999913295562,0.0,177.01966528491084,-5.314756507633516,44.500027665984675,-44.99999063801583
1682118339.9204652,-1.4000223724021665,56.79999913295562,0.0,177.01966528491084,-5.314756507633516,44.500027665984675,-44.99999063801583
1682118340.0143306,-1.4000223724021665,56.79999913295562,0.0,176.78142943369545,-6.0086083975369435,44.500027665984675,-44.99999063801583
1682118340.1196265,-1.4000223724021665,56.79999913295562,0.0,176.78142943369545,-6.0086083975369435,44.500027665984675,-44.99999063801583
1682118340.2055445,-1.4000223724021665,56.79999913295562,0.0,176.8512729889219,-6.95582222444722,44.500027665984675,-44.99999063801583
1682118340.285582,-1.4000223724021665,56.79999913295562,0.0,176.8512729889219,-6.95582222444722,44.500027665984675,-44.99999063801583
1682118340.3712947,-1.4000223724021665,56.79999913295562,0.0,176.82348453585803,-8.417724038723515,44.500027665984675,-44.99999063801583
1682118340.4597192,-1.4000223724021665,56.79999913295562,0.0,176.82348453585803,-8.417724038723515,44.500027665984675,-44.99999063801583
1682118340.5550432,-1.4000223724021665,56.79999913295562,0.0,176.88347321700823,-10.16530260965204,44.500027665984675,-44.99999063801583
1682118340.6374025,-1.4000223724021665,56.79999913295562,0.0,176.88347321700823,-10.16530260965204,44.500027665984675,-44.99999063801583
1682118340.7234478,-1.4000223724021665,56.79999913295562,0.0,176.88347321700823,-10.16530260965204,44.500027665984675,-44.99999063801583
1682118340.8054216,-1.4000223724021665,56.79999913295562,0.0,177.24237397987818,-12.308680425456936,44.500027665984675,-44.99999063801583
1682118340.9088438,-1.4000223724021665,56.79999913295562,0.0,177.24237397987818,-12.308680425456936,44.500027665984675,-44.99999063801583
1682118340.9931257,-1.4000223724021665,56.79999913295562,0.0,177.85979329991116,-13.109503535711289,44.500027665984675,-44.99999063801583
1682118341.0748823,-1.4000223724021665,56.79999913295562,0.0,177.85979329991116,-13.109503535711289,44.500027665984675,-44.99999063801583
1682118341.1620111,-1.4000223724021665,56.79999913295562,0.0,178.46248760460927,-13.31754451112329,44.500027665984675,-44.99999063801583
1682118341.246564,-1.4000223724021665,56.79999913295562,0.0,178.46248760460927,-13.31754451112329,44.500027665984675,-44.99999063801583
1682118341.3394568,-1.4000223724021665,56.79999913295562,0.0,178.46248760460927,-13.31754451112329,44.500027665984675,-44.99999063801583
1682118341.4377837,-1.4000223724021665,56.79999913295562,0.0,180.81178645198418,-12.499131596558422,44.500027665984675,-44.99999063801583
1682118341.5363889,-1.4000223724021665,56.79999913295562,0.0,180.81178645198418,-12.499131596558422,44.500027665984675,-44.99999063801583
1682118341.6357358,-1.4000223724021665,56.79999913295562,0.0,183.13507301546016,-11.077566011059337,44.500027665984675,-44.99999063801583
1682118341.7219894,-1.4000223724021665,56.79999913295562,0.0,183.13507301546016,-11.077566011059337,44.500027665984675,-44.99999063801583
1682118341.8035307,-1.4000223724021665,56.79999913295562,0.0,184.2061030218982,-9.945745182557907,44.500027665984675,-44.99999063801583
1682118341.8923683,-1.4000223724021665,56.79999913295562,0.0,184.2061030218982,-9.945745182557907,44.500027665984675,-44.99999063801583
1682118341.971938,-1.4000223724021665,56.79999913295562,0.0,184.92808713954255,-9.094730969450097,44.500027665984675,-44.99999063801583
1682118342.0578597,-1.4000223724021665,56.79999913295562,0.0,184.92808713954255,-9.094730969450097,44.500027665984675,-44.99999063801583
1682118342.1462324,-1.4000223724021665,56.79999913295562,0.0,184.37701633218572,-8.29791856376166,44.500027665984675,-44.99999063801583
1682118342.2427967,-1.4000223724021665,56.79999913295562,0.0,184.37701633218572,-8.29791856376166,44.500027665984675,-44.99999063801583
1682118342.3264399,-1.4000223724021665,56.79999913295562,0.0,184.37701633218572,-8.29791856376166,44.500027665984675,-44.99999063801583
1682118342.4048548,-1.4000223724021665,56.79999913295562,0.0,181.57513812243695,-7.508440017850899,44.500027665984675,-44.99999063801583
1682118342.4856493,-1.4000223724021665,56.79999913295562,0.0,181.57513812243695,-7.508440017850899,44.500027665984675,-44.99999063801583
1682118342.555718,-1.4000223724021665,56.79999913295562,0.0,179.5657751349132,-6.926372193777496,44.500027665984675,-44.99999063801583
1682118342.642874,-1.4000223724021665,56.79999913295562,0.0,179.5657751349132,-6.926372193777496,44.500027665984675,-44.99999063801583
1682118342.723401,-1.4000223724021665,56.79999913295562,0.0,179.5657751349132,-6.926372193777496,44.500027665984675,-44.99999063801583
1682118342.7946517,-1.4000223724021665,56.79999913295562,0.0,176.9397949682696,-5.885651654701868,44.500027665984675,-44.99999063801583
1682118342.890559,-1.4000223724021665,56.79999913295562,0.0,176.9397949682696,-5.885651654701868,44.500027665984675,-44.99999063801583
1682118342.971037,-1.4000223724021665,56.79999913295562,0.0,176.13805512554305,-5.360020173448851,44.500027665984675,-44.99999063801583
1682118343.0488372,-1.4000223724021665,56.79999913295562,0.0,176.13805512554305,-5.360020173448851,44.500027665984675,-44.99999063801583
1682118343.130509,-1.4000223724021665,56.79999913295562,0.0,176.13805512554305,-5.360020173448851,44.500027665984675,-44.99999063801583
1682118343.221508,-1.4000223724021665,56.79999913295562,0.0,176.0073634524737,-4.9038311769656895,44.500027665984675,-44.99999063801583
1682118343.3132882,-1.4000223724021665,56.79999913295562,0.0,176.0073634524737,-4.9038311769656895,44.500027665984675,-44.99999063801583
1682118343.398742,-1.4000223724021665,56.79999913295562,0.0,176.41811689580297,-4.71962524583113,44.500027665984675,-44.99999063801583
1682118343.4884162,-1.4000223724021665,56.79999913295562,0.0,176.41811689580297,-4.71962524583113,44.500027665984675,-44.99999063801583
1682118343.5677736,-1.4000223724021665,56.79999913295562,0.0,177.06326737312028,-4.300392027133907,44.500027665984675,-44.99999063801583
1682118343.654197,-1.4000223724021665,56.79999913295562,0.0,177.06326737312028,-4.300392027133907,44.500027665984675,-44.99999063801583
1682118343.7288973,-1.4000223724021665,56.79999913295562,0.0,177.06326737312028,-4.300392027133907,44.500027665984675,-44.99999063801583
1682118343.8116543,-1.4000223724021665,56.79999913295562,0.0,178.01603889064333,-3.4596337585589367,44.500027665984675,-44.99999063801583
1682118343.9041064,-1.4000223724021665,56.79999913295562,0.0,178.01603889064333,-3.4596337585589367,44.500027665984675,-44.99999063801583
1682118343.9988885,-1.4000223724021665,56.79999913295562,0.0,178.20225017406085,-2.7065380326389827,44.500027665984675,-44.99999063801583
1682118344.083211,-1.4000223724021665,56.79999913295562,0.0,178.20225017406085,-2.7065380326389827,44.500027665984675,-44.99999063801583
1682118344.1601288,-1.4000223724021665,56.79999913295562,0.0,178.38101300614167,-1.714175131472397,44.500027665984675,-44.99999063801583
1682118344.2394383,-1.4000223724021665,56.79999913295562,0.0,178.38101300614167,-1.714175131472397,44.500027665984675,-44.99999063801583
1682118344.3197258,-1.4000223724021665,56.79999913295562,0.0,178.38101300614167,-1.714175131472397,44.500027665984675,-44.99999063801583
1682118344.4020753,-1.4000223724021665,56.79999913295562,0.0,178.6370105490061,0.3839963142966777,44.500027665984675,-44.99999063801583
1682118344.4898298,-1.4000223724021665,56.79999913295562,0.0,178.6370105490061,0.3839963142966777,44.500027665984675,-44.99999063801583
1682118344.5741208,-1.4000223724021665,56.79999913295562,0.0,178.6917280184411,2.339673156416717,44.500027665984675,-44.99999063801583
1682118344.6597583,-1.4000223724021665,56.79999913295562,0.0,178.6917280184411,2.339673156416717,44.500027665984675,-44.99999063801583
1682118344.7250993,-1.4000223724021665,56.79999913295562,0.0,178.6917280184411,2.339673156416717,44.500027665984675,-44.99999063801583
1682118344.8175385,-1.4000223724021665,56.79999913295562,0.0,178.67041398846223,4.421859079701641,44.500027665984675,-44.99999063801583
1682118344.8977685,-1.4000223724021665,56.79999913295562,0.0,178.67041398846223,4.421859079701641,44.500027665984675,-44.99999063801583
1682118344.983585,-1.4000223724021665,56.79999913295562,0.0,178.72209478158305,5.6554372126183035,44.500027665984675,-44.99999063801583
1682118345.061259,-1.4000223724021665,56.79999913295562,0.0,178.72209478158305,5.6554372126183035,44.500027665984675,-44.99999063801583
1682118345.1686018,-1.4000223724021665,56.79999913295562,0.0,178.69871810354172,6.718159331026954,44.500027665984675,-44.99999063801583
1682118345.2554786,-1.4000223724021665,56.79999913295562,0.0,178.69871810354172,6.718159331026954,44.500027665984675,-44.99999063801583
1682118345.3545313,-1.4000223724021665,56.79999913295562,0.0,178.87587665379615,7.697458794464557,44.500027665984675,-44.99999063801583
1682118345.4482496,-1.4000223724021665,56.79999913295562,0.0,178.87587665379615,7.697458794464557,44.500027665984675,-44.99999063801583
1682118345.5405989,-1.4000223724021665,56.79999913295562,0.0,178.87587665379615,7.697458794464557,44.500027665984675,-44.99999063801583
1682118345.6352406,-1.4000223724021665,56.79999913295562,0.0,178.81308047944984,9.171507313997626,44.500027665984675,-44.99999063801583
1682118345.720446,-1.4000223724021665,56.79999913295562,0.0,178.81308047944984,9.171507313997626,44.500027665984675,-44.99999063801583
1682118345.802573,-1.4000223724021665,56.79999913295562,0.0,178.61672784305847,10.413794405400278,44.500027665984675,-44.99999063801583
1682118345.8912525,-1.4000223724021665,56.79999913295562,0.0,178.61672784305847,10.413794405400278,44.500027665984675,-44.99999063801583
1682118345.9700794,-1.4000223724021665,56.79999913295562,0.0,178.2645879821711,11.985474933223639,44.500027665984675,-44.99999063801583
1682118346.0422416,-1.4000223724021665,56.79999913295562,0.0,178.2645879821711,11.985474933223639,44.500027665984675,-44.99999063801583
1682118346.1207616,-1.4000223724021665,56.79999913295562,0.0,178.2645879821711,11.985474933223639,44.500027665984675,-44.99999063801583
1682118346.211061,-1.4000223724021665,56.79999913295562,0.0,177.70079751176235,14.972017440343055,44.500027665984675,-44.99999063801583
1682118346.2935588,-1.4000223724021665,56.79999913295562,0.0,177.70079751176235,14.972017440343055,44.500027665984675,-44.99999063801583
1682118346.3804054,-1.4000223724021665,56.79999913295562,0.0,177.04338573762922,17.109379199299077,44.500027665984675,-44.99999063801583
1682118346.4682825,-1.4000223724021665,56.79999913295562,0.0,177.04338573762922,17.109379199299077,44.500027665984675,-44.99999063801583
1682118346.5594757,-1.4000223724021665,56.79999913295562,0.0,176.3105154218774,18.69813386941734,44.500027665984675,-44.99999063801583
1682118346.647638,-1.4000223724021665,56.79999913295562,0.0,176.3105154218774,18.69813386941734,44.500027665984675,-44.99999063801583
1682118346.730223,-1.4000223724021665,56.79999913295562,0.0,176.3105154218774,18.69813386941734,44.500027665984675,-44.99999063801583
1682118346.8038077,-1.4000223724021665,56.79999913295562,0.0,175.74431852872914,19.903980845049666,44.500027665984675,-44.99999063801583
1682118346.890698,-1.4000223724021665,56.79999913295562,0.0,175.74431852872914,19.903980845049666,44.500027665984675,-44.99999063801583
1682118346.9797344,-1.4000223724021665,56.79999913295562,0.0,175.50665563530885,19.853789742196206,44.500027665984675,-44.99999063801583
1682118347.0652928,-1.4000223724021665,56.79999913295562,0.0,175.50665563530885,19.853789742196206,44.500027665984675,-44.99999063801583
1682118347.1447234,-1.4000223724021665,56.79999913295562,0.0,175.50665563530885,19.853789742196206,44.500027665984675,-44.99999063801583
1682118347.2328613,-1.4000223724021665,56.79999913295562,0.0,175.51410408664557,18.927259691690153,44.500027665984675,-44.99999063801583
1682118347.320033,-1.4000223724021665,56.79999913295562,0.0,175.51410408664557,18.927259691690153,44.500027665984675,-44.99999063801583
1682118347.4126244,-1.4000223724021665,56.79999913295562,0.0,175.32273618307187,16.763599169937628,44.500027665984675,-44.99999063801583
1682118347.5011113,-1.4000223724021665,56.79999913295562,0.0,175.32273618307187,16.763599169937628,44.500027665984675,-44.99999063801583
1682118347.5913227,-1.4000223724021665,56.79999913295562,0.0,175.3105321820356,15.168885738750006,44.500027665984675,-44.99999063801583
1682118347.6813276,-1.4000223724021665,56.79999913295562,0.0,175.3105321820356,15.168885738750006,44.500027665984675,-44.99999063801583
1682118347.7677624,-1.4000223724021665,56.79999913295562,0.0,175.28875978582062,13.75121626625781,44.500027665984675,-44.99999063801583
1682118347.8542695,-1.4000223724021665,56.79999913295562,0.0,175.28875978582062,13.75121626625781,44.500027665984675,-44.99999063801583
1682118347.9305696,-1.4000223724021665,56.79999913295562,0.0,175.28875978582062,13.75121626625781,44.500027665984675,-44.99999063801583
1682118348.0163903,-1.4000223724021665,56.79999913295562,0.0,175.393324583432,11.264636731169551,44.500027665984675,-44.99999063801583
1682118348.1035633,-1.4000223724021665,56.79999913295562,0.0,175.393324583432,11.264636731169551,44.500027665984675,-44.99999063801583
1682118348.1885972,-1.4000223724021665,56.79999913295562,0.0,175.33585691658038,9.22141193795352,44.500027665984675,-44.99999063801583
1682118348.2755,-1.4000223724021665,56.79999913295562,0.0,175.33585691658038,9.22141193795352,44.500027665984675,-44.99999063801583
1682118348.3465695,-1.4000223724021665,56.79999913295562,0.0,175.16190692997864,7.538864076772346,44.500027665984675,-44.99999063801583
1682118348.4328487,-1.4000223724021665,56.79999913295562,0.0,175.16190692997864,7.538864076772346,44.500027665984675,-44.99999063801583
1682118348.5124273,-1.4000223724021665,56.79999913295562,0.0,175.16190692997864,7.538864076772346,44.500027665984675,-44.99999063801583
1682118348.608708,-1.4000223724021665,56.79999913295562,0.0,174.9006954711785,5.3393936928241414,44.500027665984675,-44.99999063801583
1682118348.695141,-1.4000223724021665,56.79999913295562,0.0,174.9006954711785,5.3393936928241414,44.500027665984675,-44.99999063801583
1682118348.7659712,-1.4000223724021665,56.79999913295562,0.0,174.9546107997003,3.362116341827671,44.500027665984675,-44.99999063801583
1682118348.8509157,-1.4000223724021665,56.79999913295562,0.0,174.9546107997003,3.362116341827671,44.500027665984675,-44.99999063801583
1682118348.9464777,-1.4000223724021665,56.79999913295562,0.0,175.14574952015596,0.5394397641156701,44.500027665984675,-44.99999063801583
1682118349.033194,-1.4000223724021665,56.79999913295562,0.0,175.14574952015596,0.5394397641156701,44.500027665984675,-44.99999063801583
1682118349.1144202,-1.4000223724021665,56.79999913295562,0.0,175.14574952015596,0.5394397641156701,44.500027665984675,-44.99999063801583
1682118349.2034214,-1.4000223724021665,56.79999913295562,0.0,174.94292246067965,-4.8938617113304135,44.500027665984675,-44.99999063801583
1682118349.281188,-1.4000223724021665,56.79999913295562,0.0,174.94292246067965,-4.8938617113304135,44.500027665984675,-44.99999063801583
1682118349.3694181,-1.4000223724021665,56.79999913295562,0.0,174.86935467978483,-7.427481081398914,44.500027665984675,-44.99999063801583
1682118349.4434168,-1.4000223724021665,56.79999913295562,0.0,174.86935467978483,-7.427481081398914,44.500027665984675,-44.99999063801583
1682118349.548197,-1.4000223724021665,56.79999913295562,0.0,175.04932072323544,-9.17122083510006,44.500027665984675,-44.99999063801583
1682118349.6312077,-1.4000223724021665,56.79999913295562,0.0,175.04932072323544,-9.17122083510006,44.500027665984675,-44.99999063801583
1682118349.715075,-1.4000223724021665,56.79999913295562,0.0,175.04932072323544,-9.17122083510006,44.500027665984675,-44.99999063801583
1682118349.7893698,-1.4000223724021665,56.79999913295562,0.0,176.1099228978021,-9.958751324507377,44.500027665984675,-44.99999063801583
1682118349.8658903,-1.4000223724021665,56.79999913295562,0.0,176.1099228978021,-9.958751324507377,44.500027665984675,-44.99999063801583
1682118349.9464428,-1.4000223724021665,56.79999913295562,0.0,177.10045233402428,-9.920420448013125,44.500027665984675,-44.99999063801583
1682118350.0383441,-1.4000223724021665,56.79999913295562,0.0,177.10045233402428,-9.920420448013125,44.500027665984675,-44.99999063801583
1682118350.1181908,-1.4000223724021665,56.79999913295562,0.0,177.10045233402428,-9.920420448013125,44.500027665984675,-44.99999063801583
1682118350.2029822,-1.4000223724021665,56.79999913295562,0.0,178.23255964142328,-9.58627146189283,44.500027665984675,-44.99999063801583
1682118350.294986,-1.4000223724021665,56.79999913295562,0.0,178.23255964142328,-9.58627146189283,44.500027665984675,-44.99999063801583
1682118350.3712754,-1.4000223724021665,56.79999913295562,0.0,178.61134203978426,-9.451683675816598,44.500027665984675,-44.99999063801583
1682118350.4682128,-1.4000223724021665,56.79999913295562,0.0,178.61134203978426,-9.451683675816598,44.500027665984675,-44.99999063801583
1682118350.5518591,-1.4000223724021665,56.79999913295562,0.0,178.9480120402031,-9.369005865979222,44.500027665984675,-44.99999063801583
1682118350.6521232,-1.4000223724021665,56.79999913295562,0.0,178.9480120402031,-9.369005865979222,44.500027665984675,-44.99999063801583
1682118350.748588,-1.4000223724021665,56.79999913295562,0.0,179.3474209191888,-9.33703482101092,44.500027665984675,-44.99999063801583
1682118350.8441186,-1.4000223724021665,56.79999913295562,0.0,179.3474209191888,-9.33703482101092,44.500027665984675,-44.99999063801583
1682118350.9269488,-1.4000223724021665,56.79999913295562,0.0,179.3474209191888,-9.33703482101092,44.500027665984675,-44.99999063801583
1682118351.0146115,-1.4000223724021665,56.79999913295562,0.0,180.14669704339633,-9.280541182411023,44.500027665984675,-44.99999063801583
1682118351.0984888,-1.4000223724021665,56.79999913295562,0.0,180.14669704339633,-9.280541182411023,44.500027665984675,-44.99999063801583
1682118351.1784298,-1.4000223724021665,56.79999913295562,0.0,180.44154112477065,-9.125384211489594,44.500027665984675,-44.99999063801583
1682118351.2594628,-1.4000223724021665,56.79999913295562,0.0,180.44154112477065,-9.125384211489594,44.500027665984675,-44.99999063801583
1682118351.3537145,-1.4000223724021665,56.79999913295562,0.0,180.74589630554414,-8.654011833435467,44.500027665984675,-44.99999063801583
1682118351.429474,-1.4000223724021665,56.79999913295562,0.0,180.74589630554414,-8.654011833435467,44.500027665984675,-44.99999063801583
1682118351.5159087,-1.4000223724021665,56.79999913295562,0.0,180.74589630554414,-8.654011833435467,44.500027665984675,-44.99999063801583
1682118351.61426,-1.4000223724021665,56.79999913295562,0.0,181.16249391838375,-7.68410887783801,44.500027665984675,-44.99999063801583
1682118351.7009661,-1.4000223724021665,56.79999913295562,0.0,181.16249391838375,-7.68410887783801,44.500027665984675,-44.99999063801583
1682118351.785679,-1.4000223724021665,56.79999913295562,0.0,181.3715089220475,-6.638919267960362,44.500027665984675,-44.99999063801583
1682118351.8685713,-1.4000223724021665,56.79999913295562,0.0,181.3715089220475,-6.638919267960362,44.500027665984675,-44.99999063801583
1682118351.9548974,-1.4000223724021665,56.79999913295562,0.0,181.64423683252977,-5.745105107556277,44.500027665984675,-44.99999063801583
1682118352.035704,-1.4000223724021665,56.79999913295562,0.0,181.64423683252977,-5.745105107556277,44.500027665984675,-44.99999063801583
1682118352.1189866,-1.4000223724021665,56.79999913295562,0.0,181.64423683252977,-5.745105107556277,44.500027665984675,-44.99999063801583
1682118352.1946194,-1.4000223724021665,56.79999913295562,0.0,181.87009679537033,-5.018365440212341,44.500027665984675,-44.99999063801583
1682118352.279983,-1.4000223724021665,56.79999913295562,0.0,181.87009679537033,-5.018365440212341,44.500027665984675,-44.99999063801583
1682118352.364955,-1.4000223724021665,56.79999913295562,0.0,182.02519647051224,-4.909618050696511,44.500027665984675,-44.99999063801583
1682118352.4493697,-1.4000223724021665,56.79999913295562,0.0,182.02519647051224,-4.909618050696511,44.500027665984675,-44.99999063801583
1682118352.5413156,-1.4000223724021665,56.79999913295562,0.0,182.02519647051224,-4.909618050696511,44.500027665984675,-44.99999063801583
1682118352.6425204,-1.4000223724021665,56.79999913295562,0.0,182.36444478100918,-5.09863682731017,44.500027665984675,-44.99999063801583
1682118352.7230058,-1.4000223724021665,56.79999913295562,0.0,182.36444478100918,-5.09863682731017,44.500027665984675,-44.99999063801583
1682118352.8015347,-1.4000223724021665,56.79999913295562,0.0,182.53226411920303,-5.203545399598624,44.500027665984675,-44.99999063801583
1682118352.8911095,-1.4000223724021665,56.79999913295562,0.0,182.53226411920303,-5.203545399598624,44.500027665984675,-44.99999063801583
1682118352.980895,-1.4000223724021665,56.79999913295562,0.0,182.58004879931693,-5.233912162740557,44.500027665984675,-44.99999063801583
1682118353.0697875,-1.4000223724021665,56.79999913295562,0.0,182.58004879931693,-5.233912162740557,44.500027665984675,-44.99999063801583
1682118353.15757,-1.4000223724021665,56.79999913295562,0.0,182.56429245995085,-5.09382398183107,44.500027665984675,-44.99999063801583
1682118353.2406065,-1.4000223724021665,56.79999913295562,0.0,182.56429245995085,-5.09382398183107,44.500027665984675,-44.99999063801583
1682118353.335809,-1.4000223724021665,56.79999913295562,0.0,182.56429245995085,-5.09382398183107,44.500027665984675,-44.99999063801583
1682118353.431454,-1.4000223724021665,56.79999913295562,0.0,182.49834501773128,-4.6654234384117546,44.500027665984675,-44.99999063801583
1682118353.5129793,-1.4000223724021665,56.79999913295562,0.0,182.49834501773128,-4.6654234384117546,44.500027665984675,-44.99999063801583
1682118353.597269,-1.4000223724021665,56.79999913295562,0.0,182.1870570476367,-4.260571460372314,44.500027665984675,-44.99999063801583
1682118353.6770427,-1.4000223724021665,56.79999913295562,0.0,182.1870570476367,-4.260571460372314,44.500027665984675,-44.99999063801583
1682118353.7643259,-1.4000223724021665,56.79999913295562,0.0,181.53778127419446,-4.119910321667698,44.500027665984675,-44.99999063801583
1682118353.8478847,-1.4000223724021665,56.79999913295562,0.0,181.53778127419446,-4.119910321667698,44.500027665984675,-44.99999063801583
1682118353.9184058,-1.4000223724021665,56.79999913295562,0.0,181.53778127419446,-4.119910321667698,44.500027665984675,-44.99999063801583
1682118353.992678,-1.4000223724021665,56.79999913295562,0.0,181.06308574092856,-4.093153192635088,44.500027665984675,-44.99999063801583
1682118354.0771558,-1.4000223724021665,56.79999913295562,0.0,181.06308574092856,-4.093153192635088,44.500027665984675,-44.99999063801583
1682118354.163909,-1.4000223724021665,56.79999913295562,0.0,180.70710706281378,-4.044623667387508,44.500027665984675,-44.99999063801583
1682118354.2627697,-1.4000223724021665,56.79999913295562,0.0,180.70710706281378,-4.044623667387508,44.500027665984675,-44.99999063801583
1682118354.3460839,-1.4000223724021665,56.79999913295562,0.0,180.56822209327407,-3.701078173427066,44.500027665984675,-44.99999063801583
1682118354.4392712,-1.4000223724021665,56.79999913295562,0.0,180.56822209327407,-3.701078173427066,44.500027665984675,-44.99999063801583
1682118354.5309317,-1.4000223724021665,56.79999913295562,0.0,180.56822209327407,-3.701078173427066,44.500027665984675,-44.99999063801583
1682118354.631637,-1.4000223724021665,56.79999913295562,0.0,181.14014856437365,-3.151382464778554,44.500027665984675,-44.99999063801583
1682118354.7185054,-1.4000223724021665,56.79999913295562,0.0,181.14014856437365,-3.151382464778554,44.500027665984675,-44.99999063801583
1682118354.8215997,-1.4000223724021665,56.79999913295562,0.0,182.03722858421,-2.7063088495209304,44.500027665984675,-44.99999063801583
1682118354.9071934,-1.4000223724021665,56.79999913295562,0.0,182.03722858421,-2.7063088495209304,44.500027665984675,-44.99999063801583
1682118354.9835227,-1.4000223724021665,56.79999913295562,0.0,182.89454533306423,-2.406766514226536,44.500027665984675,-44.99999063801583
1682118355.066894,-1.4000223724021665,56.79999913295562,0.0,182.89454533306423,-2.406766514226536,44.500027665984675,-44.99999063801583
1682118355.1487346,-1.4000223724021665,56.79999913295562,0.0,183.6025492805074,-2.22170114639928,44.500027665984675,-44.99999063801583
1682118355.2321322,-1.4000223724021665,56.79999913295562,0.0,183.6025492805074,-2.22170114639928,44.500027665984675,-44.99999063801583
1682118355.316511,-1.4000223724021665,56.79999913295562,0.0,183.6025492805074,-2.22170114639928,44.500027665984675,-44.99999063801583
1682118355.3901708,-1.4000223724021665,56.79999913295562,0.0,184.34435773786328,-2.197407735885733,44.500027665984675,-44.99999063801583
1682118355.4851062,-1.4000223724021665,56.79999913295562,0.0,184.34435773786328,-2.197407735885733,44.500027665984675,-44.99999063801583
1682118355.5677314,-1.4000223724021665,56.79999913295562,0.0,184.39483531961432,-2.4082562044938762,44.500027665984675,-44.99999063801583
1682118355.6548197,-1.4000223724021665,56.79999913295562,0.0,184.39483531961432,-2.4082562044938762,44.500027665984675,-44.99999063801583
1682118355.74681,-1.4000223724021665,56.79999913295562,0.0,183.45398132422997,-2.828348859883796,44.500027665984675,-44.99999063801583
1682118355.8358264,-1.4000223724021665,56.79999913295562,0.0,183.45398132422997,-2.828348859883796,44.500027665984675,-44.99999063801583
1682118355.9254072,-1.4000223724021665,56.79999913295562,0.0,183.45398132422997,-2.828348859883796,44.500027665984675,-44.99999063801583
1682118356.0182183,-1.4000223724021665,56.79999913295562,0.0,180.5850097566714,-3.504324466579141,44.500027665984675,-44.99999063801583
1682118356.112654,-1.4000223724021665,56.79999913295562,0.0,180.5850097566714,-3.504324466579141,44.500027665984675,-44.99999063801583
1682118356.205547,-1.4000223724021665,56.79999913295562,0.0,178.4630032666249,-3.82793102926903,44.500027665984675,-44.99999063801583
1682118356.296214,-1.4000223724021665,56.79999913295562,0.0,178.4630032666249,-3.82793102926903,44.500027665984675,-44.99999063801583
1682118356.4008584,-1.4000223724021665,56.79999913295562,0.0,177.02201441187088,-4.0011361707370785,44.500027665984675,-44.99999063801583
1682118356.4920175,-1.4000223724021665,56.79999913295562,0.0,177.02201441187088,-4.0011361707370785,44.500027665984675,-44.99999063801583
1682118356.599322,-1.4000223724021665,56.79999913295562,0.0,176.06528948556144,-3.876002188280506,44.500027665984675,-44.99999063801583
1682118356.687738,-1.4000223724021665,56.79999913295562,0.0,176.06528948556144,-3.876002188280506,44.500027665984675,-44.99999063801583
1682118356.7695837,-1.4000223724021665,56.79999913295562,0.0,174.9953480989341,-3.5694124721060025,44.500027665984675,-44.99999063801583
1682118356.8432262,-1.4000223724021665,56.79999913295562,0.0,174.9953480989341,-3.5694124721060025,44.500027665984675,-44.99999063801583
1682118356.9204035,-1.4000223724021665,56.79999913295562,0.0,174.9953480989341,-3.5694124721060025,44.500027665984675,-44.99999063801583
1682118357.0022528,-1.4000223724021665,56.79999913295562,0.0,174.77395720689555,-3.7641035308914566,44.500027665984675,-44.99999063801583
1682118357.0836346,-1.4000223724021665,56.79999913295562,0.0,174.77395720689555,-3.7641035308914566,44.500027665984675,-44.99999063801583
1682118357.184927,-1.4000223724021665,56.79999913295562,0.0,175.19949296133925,-4.534731765342413,44.500027665984675,-44.99999063801583
1682118357.2723093,-1.4000223724021665,56.79999913295562,0.0,175.19949296133925,-4.534731765342413,44.500027665984675,-44.99999063801583
1682118357.3478665,-1.4000223724021665,56.79999913295562,0.0,175.77319560160373,-4.9443392930814385,44.500027665984675,-44.99999063801583
1682118357.434923,-1.4000223724021665,56.79999913295562,0.0,175.77319560160373,-4.9443392930814385,44.500027665984675,-44.99999063801583
1682118357.5367427,-1.4000223724021665,56.79999913295562,0.0,175.77319560160373,-4.9443392930814385,44.500027665984675,-44.99999063801583
1682118357.6262417,-1.4000223724021665,56.79999913295562,0.0,177.09810320706424,-5.060019471918353,44.500027665984675,-44.99999063801583
1682118357.7041829,-1.4000223724021665,56.79999913295562,0.0,177.09810320706424,-5.060019471918353,44.500027665984675,-44.99999063801583
1682118357.8010666,-1.4000223724021665,56.79999913295562,0.0,173.47758289963258,-5.0203134967157865,44.500027665984675,-44.99999063801583
1682118357.891783,-1.4000223724021665,56.79999913295562,0.0,173.47758289963258,-5.0203134967157865,44.500027665984675,-44.99999063801583
1682118357.9795535,-1.4000223724021665,56.79999913295562,0.0,171.95340057302556,-4.598215489042909,44.500027665984675,-44.99999063801583
1682118358.061666,-1.4000223724021665,56.79999913295562,0.0,171.95340057302556,-4.598215489042909,44.500027665984675,-44.99999063801583
1682118358.1381626,-1.4000223724021665,56.79999913295562,0.0,171.95340057302556,-4.598215489042909,44.500027665984675,-44.99999063801583
1682118358.2316213,-1.4000223724021665,56.79999913295562,0.0,175.49170143685598,-3.8623657927563926,44.500027665984675,-44.99999063801583
1682118358.324935,-1.4000223724021665,56.79999913295562,0.0,175.49170143685598,-3.8623657927563926,44.500027665984675,-44.99999063801583
1682118358.4081924,-1.4000223724021665,56.79999913295562,0.0,175.74483419074474,-3.911640163137643,44.500027665984675,-44.99999063801583
1682118358.496756,-1.4000223724021665,56.79999913295562,0.0,175.74483419074474,-3.911640163137643,44.500027665984675,-44.99999063801583
1682118358.5867991,-1.4000223724021665,56.79999913295562,0.0,175.36015032709392,-4.162080015389326,44.500027665984675,-44.99999063801583
1682118358.685949,-1.4000223724021665,56.79999913295562,0.0,175.36015032709392,-4.162080015389326,44.500027665984675,-44.99999063801583
1682118358.7796106,-1.4000223724021665,56.79999913295562,0.0,175.09584489620005,-4.690748172956536,44.500027665984675,-44.99999063801583
1682118358.8721285,-1.4000223724021665,56.79999913295562,0.0,175.09584489620005,-4.690748172956536,44.500027665984675,-44.99999063801583
1682118358.957414,-1.4000223724021665,56.79999913295562,0.0,175.0490915401174,-5.324382198591714,44.500027665984675,-44.99999063801583
1682118359.041256,-1.4000223724021665,56.79999913295562,0.0,175.0490915401174,-5.324382198591714,44.500027665984675,-44.99999063801583
1682118359.1289303,-1.4000223724021665,56.79999913295562,0.0,175.0490915401174,-5.324382198591714,44.500027665984675,-44.99999063801583
1682118359.2170556,-1.4000223724021665,56.79999913295562,0.0,175.33047111330612,-6.40710054405043,44.500027665984675,-44.99999063801583
1682118359.3112957,-1.4000223724021665,56.79999913295562,0.0,175.33047111330612,-6.40710054405043,44.500027665984675,-44.99999063801583
1682118359.4111025,-1.4000223724021665,56.79999913295562,0.0,175.74047971150176,-6.59428585571967,44.500027665984675,-44.99999063801583
1682118359.500765,-1.4000223724021665,56.79999913295562,0.0,175.74047971150176,-6.59428585571967,44.500027665984675,-44.99999063801583
1682118359.5808618,-1.4000223724021665,56.79999913295562,0.0,176.26742899568356,-6.481928832094516,44.500027665984675,-44.99999063801583
1682118359.6753962,-1.4000223724021665,56.79999913295562,0.0,176.26742899568356,-6.481928832094516,44.500027665984675,-44.99999063801583
1682118359.7504325,-1.4000223724021665,56.79999913295562,0.0,177.1206777441924,-6.040350259387191,44.500027665984675,-44.99999063801583
1682118359.833214,-1.4000223724021665,56.79999913295562,0.0,177.1206777441924,-6.040350259387191,44.500027665984675,-44.99999063801583
1682118359.9171405,-1.4000223724021665,56.79999913295562,0.0,177.1206777441924,-6.040350259387191,44.500027665984675,-44.99999063801583
1682118360.0240848,-1.4000223724021665,56.79999913295562,0.0,178.54212873813245,-5.122815646264691,44.500027665984675,-44.99999063801583
1682118360.112783,-1.4000223724021665,56.79999913295562,0.0,178.54212873813245,-5.122815646264691,44.500027665984675,-44.99999063801583
1682118360.2091875,-1.4000223724021665,56.79999913295562,0.0,179.02020472238962,-4.6136853495114405,44.500027665984675,-44.99999063801583
1682118360.308152,-1.4000223724021665,56.79999913295562,0.0,179.02020472238962,-4.6136853495114405,44.500027665984675,-44.99999063801583
1682118360.3852766,-1.4000223724021665,56.79999913295562,0.0,179.28989595655767,-4.510667537946919,44.500027665984675,-44.99999063801583
1682118360.4669216,-1.4000223724021665,56.79999913295562,0.0,179.28989595655767,-4.510667537946919,44.500027665984675,-44.99999063801583
1682118360.549464,-1.4000223724021665,56.79999913295562,0.0,179.55861316247405,-4.941531799885298,44.500027665984675,-44.99999063801583
1682118360.6383014,-1.4000223724021665,56.79999913295562,0.0,179.55861316247405,-4.941531799885298,44.500027665984675,-44.99999063801583
1682118360.7316341,-1.4000223724021665,56.79999913295562,0.0,179.55861316247405,-4.941531799885298,44.500027665984675,-44.99999063801583
1682118360.816924,-1.4000223724021665,56.79999913295562,0.0,180.07089472710052,-6.752021136719186,44.500027665984675,-44.99999063801583
1682118360.917704,-1.4000223724021665,56.79999913295562,0.0,180.07089472710052,-6.752021136719186,44.500027665984675,-44.99999063801583
1682118361.0025232,-1.4000223724021665,56.79999913295562,0.0,180.40882523466868,-8.45089829506159,44.500027665984675,-44.99999063801583
1682118361.0839677,-1.4000223724021665,56.79999913295562,0.0,180.40882523466868,-8.45089829506159,44.500027665984675,-44.99999063801583
1682118361.168125,-1.4000223724021665,56.79999913295562,0.0,180.53705318921894,-10.008312173786194,44.500027665984675,-44.99999063801583
1682118361.267041,-1.4000223724021665,56.79999913295562,0.0,180.53705318921894,-10.008312173786194,44.500027665984675,-44.99999063801583
1682118361.3545063,-1.4000223724021665,56.79999913295562,0.0,180.5929165742442,-11.52561900685164,44.500027665984675,-44.99999063801583
1682118361.4370475,-1.4000223724021665,56.79999913295562,0.0,180.5929165742442,-11.52561900685164,44.500027665984675,-44.99999063801583
1682118361.5275958,-1.4000223724021665,56.79999913295562,0.0,180.5929165742442,-11.52561900685164,44.500027665984675,-44.99999063801583
1682118361.5965397,-1.4000223724021665,56.79999913295562,0.0,180.67983427176557,-13.441990944225704,44.500027665984675,-44.99999063801583
1682118361.673514,-1.4000223724021665,56.79999913295562,0.0,180.67983427176557,-13.441990944225704,44.500027665984675,-44.99999063801583
1682118361.7602117,-1.4000223724021665,56.79999913295562,0.0,180.6415033952713,-14.85719669819884,44.500027665984675,-44.99999063801583
1682118361.8526125,-1.4000223724021665,56.79999913295562,0.0,180.6415033952713,-14.85719669819884,44.500027665984675,-44.99999063801583
1682118361.9464173,-1.4000223724021665,56.79999913295562,0.0,180.3234545231942,-16.104640409757668,44.500027665984675,-44.99999063801583
1682118362.0331323,-1.4000223724021665,56.79999913295562,0.0,180.3234545231942,-16.104640409757668,44.500027665984675,-44.99999063801583
1682118362.1180482,-1.4000223724021665,56.79999913295562,0.0,180.3234545231942,-16.104640409757668,44.500027665984675,-44.99999063801583
1682118362.1998103,-1.4000223724021665,56.79999913295562,0.0,179.96432457720618,-17.43688187499586,44.500027665984675,-44.99999063801583
1682118362.283045,-1.4000223724021665,56.79999913295562,0.0,179.96432457720618,-17.43688187499586,44.500027665984675,-44.99999063801583
1682118362.3808239,-1.4000223724021665,56.79999913295562,0.0,179.7423607273725,-18.40964961956897,44.500027665984675,-44.99999063801583
1682118362.4647205,-1.4000223724021665,56.79999913295562,0.0,179.7423607273725,-18.40964961956897,44.500027665984675,-44.99999063801583
1682118362.5614636,-1.4000223724021665,56.79999913295562,0.0,179.55322735919984,-19.415591620480154,44.500027665984675,-44.99999063801583
1682118362.6334033,-1.4000223724021665,56.79999913295562,0.0,179.55322735919984,-19.415591620480154,44.500027665984675,-44.99999063801583
1682118362.720558,-1.4000223724021665,56.79999913295562,0.0,179.55322735919984,-19.415591620480154,44.500027665984675,-44.99999063801583
1682118362.8078005,-1.4000223724021665,56.79999913295562,0.0,179.55064904912174,-22.216839576654262,44.500027665984675,-44.99999063801583
1682118362.900242,-1.4000223724021665,56.79999913295562,0.0,179.55064904912174,-22.216839576654262,44.500027665984675,-44.99999063801583
1682118362.9802444,-1.4000223724021665,56.79999913295562,0.0,179.20137397720998,-24.88539050747607,44.500027665984675,-44.99999063801583
1682119406.5100398,-1.4000223724021665,83.95000532568626,0.0,119.99999413330205,-14.99997778074544,50.64998475158039,-44.99999063801583
1682119412.5218632,-1.4000223724021665,56.80011372451465,0.0,184.99964956815438,-14.99997778074544,44.500027665984675,-44.99999063801583
1682119412.5226238,-1.4000223724021665,56.80011372451465,0.0,184.99964956815438,-14.99997778074544,44.500027665984675,-44.99999063801583
1682119412.5235648,-1.4000223724021665,56.80011372451465,0.0,184.99964956815438,-14.99997778074544,44.500027665984675,-44.99999063801583
1682119412.5260372,-1.4000223724021665,56.80011372451465,0.0,184.99964956815438,-14.99997778074544,44.500027665984675,-44.99999063801583
1682119412.5267982,-1.4000223724021665,56.80011372451465,0.0,184.99964956815438,-14.99997778074544,44.500027665984675,-44.99999063801583
1682119412.528196,-1.4000223724021665,56.80011372451465,0.0,184.99964956815438,-14.99997778074544,44.500027665984675,-44.99999063801583
1682119412.5291052,-1.4000223724021665,56.80011372451465,0.0,184.99964956815438,-14.99997778074544,44.500027665984675,-44.99999063801583
1682119412.530048,-1.4000223724021665,56.80011372451465,0.0,184.99964956815438,-14.99997778074544,44.500027665984675,-44.99999063801583
1682119412.5317016,-1.4000223724021665,56.80011372451465,0.0,184.99964956815438,-14.99997778074544,44.500027665984675,-44.99999063801583
1682119412.5323472,-1.4000223724021665,56.80011372451465,0.0,184.99964956815438,-14.99997778074544,44.500027665984675,-44.99999063801583
1682119412.533417,-1.4000223724021665,56.80011372451465,0.0,184.99964956815438,-14.99997778074544,44.500027665984675,-44.99999063801583
1682119412.5346642,-1.4000223724021665,56.80011372451465,0.0,184.99964956815438,-14.99997778074544,44.500027665984675,-44.99999063801583
1682119412.5357776,-1.4000223724021665,56.80011372451465,0.0,184.99964956815438,-14.99997778074544,44.500027665984675,-44.99999063801583
1682119412.5364907,-1.4000223724021665,56.80011372451465,0.0,184.99964956815438,-14.99997778074544,44.500027665984675,-44.99999063801583
1682119412.5372562,-1.4000223724021665,56.80011372451465,0.0,184.99964956815438,-14.99997778074544,44.500027665984675,-44.99999063801583
1682119412.5381045,-1.4000223724021665,56.80011372451465,0.0,184.99964956815438,-14.99997778074544,44.500027665984675,-44.99999063801583
1682119412.5428743,-1.4000223724021665,56.80011372451465,0.0,184.99964956815438,-14.99997778074544,44.500027665984675,-44.99999063801583
1682119412.5467942,-1.4000223724021665,56.80011372451465,0.0,184.99964956815438,-14.99997778074544,44.500027665984675,-44.99999063801583
1682119412.5520084,-1.4000223724021665,56.80011372451465,0.0,184.99964956815438,-14.99997778074544,44.500027665984675,-44.99999063801583
1682119412.555432,-1.4000223724021665,56.80011372451465,0.0,184.99964956815438,-14.99997778074544,44.500027665984675,-44.99999063801583
1682119412.5603974,-1.4000223724021665,56.80011372451465,0.0,184.99964956815438,-14.99997778074544,44.500027665984675,-44.99999063801583
1682119412.5660756,-1.4000223724021665,56.80011372451465,0.0,184.99964956815438,-14.99997778074544,44.500027665984675,-44.99999063801583
1682119412.5699592,-1.4000223724021665,56.80011372451465,0.0,184.99964956815438,-14.99997778074544,44.500027665984675,-44.99999063801583
1682119412.5741966,-1.4000223724021665,56.80011372451465,0.0,184.99964956815438,-14.99997778074544,44.500027665984675,-44.99999063801583
1682119412.579953,-1.4000223724021665,56.80011372451465,0.0,184.99964956815438,-14.99997778074544,44.500027665984675,-44.99999063801583
1682119412.5839481,-1.4000223724021665,56.80011372451465,0.0,184.99964956815438,-14.99997778074544,44.500027665984675,-44.99999063801583
1682119412.5866945,-1.4000223724021665,56.80011372451465,0.0,184.99964956815438,-14.99997778074544,44.500027665984675,-44.99999063801583
1682119412.5913713,-1.4000223724021665,56.80011372451465,0.0,184.99964956815438,-14.99997778074544,44.500027665984675,-44.99999063801583
1682119412.5968783,-1.4000223724021665,56.80011372451465,0.0,184.99964956815438,-14.99997778074544,44.500027665984675,-44.99999063801583
1682119412.60256,-1.4000223724021665,56.80011372451465,0.0,184.99964956815438,-14.99997778074544,44.500027665984675,-44.99999063801583
1682119412.605978,-1.4000223724021665,56.80011372451465,0.0,184.99964956815438,-14.99997778074544,44.500027665984675,-44.99999063801583
1682119412.609294,-1.4000223724021665,56.80011372451465,0.0,184.99964956815438,-14.99997778074544,44.500027665984675,-44.99999063801583
1682119412.6120384,-1.4000223724021665,56.80011372451465,0.0,184.99964956815438,-14.99997778074544,44.500027665984675,-44.99999063801583
1682119412.6148634,-1.4000223724021665,56.80011372451465,0.0,184.99964956815438,-14.99997778074544,44.500027665984675,-44.99999063801583
1682119412.6179807,-1.4000223724021665,56.80011372451465,0.0,184.99964956815438,-14.99997778074544,44.500027665984675,-44.99999063801583
1682119412.6220243,-1.4000223724021665,56.80011372451465,0.0,184.99964956815438,-14.99997778074544,44.500027665984675,-44.99999063801583
1682119412.627034,-1.4000223724021665,56.80011372451465,0.0,184.99964956815438,-14.99997778074544,44.500027665984675,-44.99999063801583
1682119412.631427,-1.4000223724021665,56.80011372451465,0.0,184.99964956815438,-14.99997778074544,44.500027665984675,-44.99999063801583
1682119412.6353815,-1.4000223724021665,56.80011372451465,0.0,184.99964956815438,-14.99997778074544,44.500027665984675,-44.99999063801583
1682119412.6409674,-1.4000223724021665,56.80011372451465,0.0,184.99964956815438,-14.99997778074544,44.500027665984675,-44.99999063801583
1682119412.6442187,-1.4000223724021665,56.80011372451465,0.0,184.99964956815438,-14.99997778074544,44.500027665984675,-44.99999063801583
1682119412.6489408,-1.4000223724021665,56.80011372451465,0.0,184.99964956815438,-14.99997778074544,44.500027665984675,-44.99999063801583
1682119412.6560676,-1.4000223724021665,56.80011372451465,0.0,184.99964956815438,-14.99997778074544,44.500027665984675,-44.99999063801583
1682119412.6598666,-1.4000223724021665,56.80011372451465,0.0,184.99964956815438,-14.99997778074544,44.500027665984675,-44.99999063801583
1682119412.6641166,-1.4000223724021665,56.80011372451465,0.0,184.99964956815438,-14.99997778074544,44.500027665984675,-44.99999063801583
1682119412.6690295,-1.4000223724021665,56.80011372451465,0.0,184.99964956815438,-14.99997778074544,44.500027665984675,-44.99999063801583
1682119412.672668,-1.4000223724021665,56.80011372451465,0.0,184.99964956815438,-14.99997778074544,44.500027665984675,-44.99999063801583
1682119412.6770146,-1.4000223724021665,56.80011372451465,0.0,184.99964956815438,-14.99997778074544,44.500027665984675,-44.99999063801583
1682119412.6810427,-1.4000223724021665,56.80011372451465,0.0,184.99964956815438,-14.99997778074544,44.500027665984675,-44.99999063801583
1682119412.6840935,-1.4000223724021665,56.80011372451465,0.0,184.99964956815438,-14.99997778074544,44.500027665984675,-44.99999063801583
1682119412.68752,-1.4000223724021665,56.80011372451465,0.0,184.99964956815438,-14.99997778074544,44.500027665984675,-44.99999063801583
1682119412.6908808,-1.4000223724021665,56.80011372451465,0.0,184.99964956815438,-14.99997778074544,44.500027665984675,-44.99999063801583
1682119412.6944077,-1.4000223724021665,56.80011372451465,0.0,184.99964956815438,-14.99997778074544,44.500027665984675,-44.99999063801583
1682119412.6974816,-1.4000223724021665,56.80011372451465,0.0,184.99964956815438,-14.99997778074544,44.500027665984675,-44.99999063801583
1682119412.7006888,-1.4000223724021665,56.80011372451465,0.0,184.99964956815438,-14.99997778074544,44.500027665984675,-44.99999063801583
1682119412.7047942,-1.4000223724021665,56.80011372451465,0.0,178.59243443254493,-2.661732733059752,44.500027665984675,-44.99999063801583
1682119412.708057,-1.4000223724021665,56.80011372451465,0.0,178.59243443254493,-2.661732733059752,44.500027665984675,-44.99999063801583
1682119412.710211,-1.4000223724021665,56.80011372451465,0.0,178.59243443254493,-2.661732733059752,44.500027665984675,-44.99999063801583
1682119412.7116826,-1.4000223724021665,56.80011372451465,0.0,178.59243443254493,-2.661732733059752,44.500027665984675,-44.99999063801583
1682119412.714697,-1.4000223724021665,56.80011372451465,0.0,178.59243443254493,-2.661732733059752,44.500027665984675,-44.99999063801583
1682119412.7164416,-1.4000223724021665,56.80011372451465,0.0,178.59243443254493,-2.661732733059752,44.500027665984675,-44.99999063801583
1682119412.7184181,-1.4000223724021665,56.80011372451465,0.0,178.59243443254493,-2.661732733059752,44.500027665984675,-44.99999063801583
1682119412.720446,-1.4000223724021665,56.80011372451465,0.0,178.59243443254493,-2.661732733059752,44.500027665984675,-44.99999063801583
1682119412.722691,-1.4000223724021665,56.80011372451465,0.0,178.59243443254493,-2.661732733059752,44.500027665984675,-44.99999063801583
1682119412.724737,-1.4000223724021665,56.80011372451465,0.0,178.59243443254493,-2.661732733059752,44.500027665984675,-44.99999063801583
1682119412.7329507,-1.4000223724021665,56.80011372451465,0.0,178.59243443254493,-2.661732733059752,44.500027665984675,-44.99999063801583
1682119412.825383,-1.4000223724021665,56.80011372451465,0.0,178.59243443254493,-2.661732733059752,44.500027665984675,-44.99999063801583
1682119412.8985324,-1.4000223724021665,56.80011372451465,0.0,178.59243443254493,-2.661732733059752,44.500027665984675,-44.99999063801583
1682119412.9875948,-1.4000223724021665,56.80011372451465,0.0,178.49102090280678,-3.028941383959097,44.500027665984675,-44.99999063801583
1682119413.071483,-1.4000223724021665,56.80011372451465,0.0,178.49102090280678,-3.028941383959097,44.500027665984675,-44.99999063801583
1682119413.155112,-1.4000223724021665,56.80011372451465,0.0,178.5160018626745,-3.5506767522052245,44.500027665984675,-44.99999063801583
1682119413.2469132,-1.4000223724021665,56.80011372451465,0.0,178.5160018626745,-3.5506767522052245,44.500027665984675,-44.99999063801583
1682119413.3371933,-1.4000223724021665,56.80011372451465,0.0,178.48552050797352,-3.529362722226358,44.500027665984675,-44.99999063801583
1682119413.4219224,-1.4000223724021665,56.80011372451465,0.0,178.48552050797352,-3.529362722226358,44.500027665984675,-44.99999063801583
1682119413.5150595,-1.4000223724021665,56.80011372451465,0.0,178.45704450555553,-3.3314058040086585,44.500027665984675,-44.99999063801583
1682119413.6013,-1.4000223724021665,56.80011372451465,0.0,178.45704450555553,-3.3314058040086585,44.500027665984675,-44.99999063801583
1682119413.6911974,-1.4000223724021665,56.80011372451465,0.0,178.45704450555553,-3.3314058040086585,44.500027665984675,-44.99999063801583
1682119413.785038,-1.4000223724021665,56.80011372451465,0.0,178.58865291109709,-2.6576074369348106,44.500027665984675,-44.99999063801583
1682119413.8707073,-1.4000223724021665,56.80011372451465,0.0,178.58865291109709,-2.6576074369348106,44.500027665984675,-44.99999063801583
1682119413.9597893,-1.4000223724021665,56.80011372451465,0.0,178.59340846079664,-2.316984027729536,44.500027665984675,-44.99999063801583
1682119414.041073,-1.4000223724021665,56.80011372451465,0.0,178.59340846079664,-2.316984027729536,44.500027665984675,-44.99999063801583
1682119414.121306,-1.4000223724021665,56.80011372451465,0.0,178.49079171968873,-2.1842870023772374,44.500027665984675,-44.99999063801583
1682119414.2041843,-1.4000223724021665,56.80011372451465,0.0,178.49079171968873,-2.1842870023772374,44.500027665984675,-44.99999063801583
1682119414.2953644,-1.4000223724021665,56.80011372451465,0.0,178.49079171968873,-2.1842870023772374,44.500027665984675,-44.99999063801583
1682119414.38733,-1.4000223724021665,56.80011372451465,0.0,178.30784629570346,-2.3491269600363753,44.500027665984675,-44.99999063801583
1682119414.4924738,-1.4000223724021665,56.80011372451465,0.0,178.30784629570346,-2.3491269600363753,44.500027665984675,-44.99999063801583
1682119414.5759394,-1.4000223724021665,56.80011372451465,0.0,178.2011615542501,-2.6554874930928265,44.500027665984675,-44.99999063801583
1682119414.6592805,-1.4000223724021665,56.80011372451465,0.0,178.2011615542501,-2.6554874930928265,44.500027665984675,-44.99999063801583
1682119414.7505605,-1.4000223724021665,56.80011372451465,0.0,178.19388499025195,-2.8908012595530557,44.500027665984675,-44.99999063801583
1682119414.832394,-1.4000223724021665,56.80011372451465,0.0,178.19388499025195,-2.8908012595530557,44.500027665984675,-44.99999063801583
1682119414.919731,-1.4000223724021665,56.80011372451465,0.0,178.21743355563183,-3.318456957838702,44.500027665984675,-44.99999063801583
1682119415.011534,-1.4000223724021665,56.80011372451465,0.0,178.21743355563183,-3.318456957838702,44.500027665984675,-44.99999063801583
1682119415.0882134,-1.4000223724021665,56.80011372451465,0.0,178.21743355563183,-3.318456957838702,44.500027665984675,-44.99999063801583
1682119415.1660826,-1.4000223724021665,56.80011372451465,0.0,178.47371757739384,-4.301308759606116,44.500027665984675,-44.99999063801583
1682119415.2527103,-1.4000223724021665,56.80011372451465,0.0,178.47371757739384,-4.301308759606116,44.500027665984675,-44.99999063801583
1682119415.3372986,-1.4000223724021665,56.80011372451465,0.0,178.52551296207366,-4.78986987151417,44.500027665984675,-44.99999063801583
1682119415.4179919,-1.4000223724021665,56.80011372451465,0.0,178.52551296207366,-4.78986987151417,44.500027665984675,-44.99999063801583
1682119415.515321,-1.4000223724021665,56.80011372451465,0.0,178.77389016626287,-4.956027632102108,44.500027665984675,-44.99999063801583
1682119415.612976,-1.4000223724021665,56.80011372451465,0.0,178.77389016626287,-4.956027632102108,44.500027665984675,-44.99999063801583
1682119415.705053,-1.4000223724021665,56.80011372451465,0.0,179.2172449081351,-4.872203906674469,44.500027665984675,-44.99999063801583
1682119415.7894886,-1.4000223724021665,56.80011372451465,0.0,179.2172449081351,-4.872203906674469,44.500027665984675,-44.99999063801583
1682119415.8753152,-1.4000223724021665,56.80011372451465,0.0,179.2172449081351,-4.872203906674469,44.500027665984675,-44.99999063801583
1682119415.9646268,-1.4000223724021665,56.80011372451465,0.0,180.38602151442248,-4.499609452500894,44.500027665984675,-44.99999063801583
1682119416.0524938,-1.4000223724021665,56.80011372451465,0.0,180.38602151442248,-4.499609452500894,44.500027665984675,-44.99999063801583
1682119416.140566,-1.4000223724021665,56.80011372451465,0.0,181.12507977436172,-4.163111339420562,44.500027665984675,-44.99999063801583
1682119416.222054,-1.4000223724021665,56.80011372451465,0.0,181.12507977436172,-4.163111339420562,44.500027665984675,-44.99999063801583
1682119416.3070617,-1.4000223724021665,56.80011372451465,0.0,181.5257491604967,-3.943783095444483,44.500027665984675,-44.99999063801583
1682119416.3892002,-1.4000223724021665,56.80011372451465,0.0,181.5257491604967,-3.943783095444483,44.500027665984675,-44.99999063801583
1682119416.4853964,-1.4000223724021665,56.80011372451465,0.0,181.5257491604967,-3.943783095444483,44.500027665984675,-44.99999063801583
1682119416.5710673,-1.4000223724021665,56.80011372451465,0.0,181.19429307601354,-3.715230230966797,44.500027665984675,-44.99999063801583
1682119416.66423,-1.4000223724021665,56.80011372451465,0.0,181.19429307601354,-3.715230230966797,44.500027665984675,-44.99999063801583
1682119416.739646,-1.4000223724021665,56.80011372451465,0.0,180.19178882187313,-3.6910514120122766,44.500027665984675,-44.99999063801583
1682119416.8273027,-1.4000223724021665,56.80011372451465,0.0,180.19178882187313,-3.6910514120122766,44.500027665984675,-44.99999063801583
1682119416.929694,-1.4000223724021665,56.80011372451465,0.0,178.9592420129877,-3.776422123486769,44.500027665984675,-44.99999063801583
1682119417.019046,-1.4000223724021665,56.80011372451465,0.0,178.9592420129877,-3.776422123486769,44.500027665984675,-44.99999063801583
1682119417.1052065,-1.4000223724021665,56.80011372451465,0.0,178.16752893167592,-3.821628493522591,44.500027665984675,-44.99999063801583
1682119417.19196,-1.4000223724021665,56.80011372451465,0.0,178.16752893167592,-3.821628493522591,44.500027665984675,-44.99999063801583
1682119417.275062,-1.4000223724021665,56.80011372451465,0.0,178.16752893167592,-3.821628493522591,44.500027665984675,-44.99999063801583
1682119417.3595462,-1.4000223724021665,56.80011372451465,0.0,177.9804009157862,-3.7158604845414405,44.500027665984675,-44.99999063801583
1682119417.4458387,-1.4000223724021665,56.80011372451465,0.0,177.9804009157862,-3.7158604845414405,44.500027665984675,-44.99999063801583
1682119417.5322616,-1.4000223724021665,56.80011372451465,0.0,178.00732993215735,-3.690650341555685,44.500027665984675,-44.99999063801583
1682119417.6211157,-1.4000223724021665,56.80011372451465,0.0,178.00732993215735,-3.690650341555685,44.500027665984675,-44.99999063801583
1682119417.7020912,-1.4000223724021665,56.80011372451465,0.0,178.00732993215735,-3.690650341555685,44.500027665984675,-44.99999063801583
1682119417.7933073,-1.4000223724021665,56.80011372451465,0.0,178.0670894301895,-3.728522851813832,44.500027665984675,-44.99999063801583
1682119417.8784652,-1.4000223724021665,56.80011372451465,0.0,178.0670894301895,-3.728522851813832,44.500027665984675,-44.99999063801583
1682119417.986168,-1.4000223724021665,56.80011372451465,0.0,178.29472556219497,-3.1977347504046376,44.500027665984675,-44.99999063801583
1682119418.075621,-1.4000223724021665,56.80011372451465,0.0,178.29472556219497,-3.1977347504046376,44.500027665984675,-44.99999063801583
1682119418.1506565,-1.4000223724021665,56.80011372451465,0.0,178.46987876016647,-1.9017615135982284,44.500027665984675,-44.99999063801583
1682119418.2379599,-1.4000223724021665,56.80011372451465,0.0,178.46987876016647,-1.9017615135982284,44.500027665984675,-44.99999063801583
1682119418.3343525,-1.4000223724021665,56.80011372451465,0.0,178.60515409559684,-0.03919031318694831,44.500027665984675,-44.99999063801583
1682119418.4168797,-1.4000223724021665,56.80011372451465,0.0,178.60515409559684,-0.03919031318694831,44.500027665984675,-44.99999063801583
1682119418.491966,-1.4000223724021665,56.80011372451465,0.0,178.60515409559684,-0.03919031318694831,44.500027665984675,-44.99999063801583
1682119418.586926,-1.4000223724021665,56.80011372451465,0.0,178.60509679981732,3.0516878084257906,44.500027665984675,-44.99999063801583
1682119418.6717372,-1.4000223724021665,56.80011372451465,0.0,178.60509679981732,3.0516878084257906,44.500027665984675,-44.99999063801583
1682119418.7529018,-1.4000223724021665,56.80011372451465,0.0,178.71728193610394,4.442370968767325,44.500027665984675,-44.99999063801583
1682119418.8331614,-1.4000223724021665,56.80011372451465,0.0,178.71728193610394,4.442370968767325,44.500027665984675,-44.99999063801583
1682119418.9123006,-1.4000223724021665,56.80011372451465,0.0,178.81944031097578,5.816667536168118,44.500027665984675,-44.99999063801583
1682119418.9952803,-1.4000223724021665,56.80011372451465,0.0,178.81944031097578,5.816667536168118,44.500027665984675,-44.99999063801583
1682119419.0857227,-1.4000223724021665,56.80011372451465,0.0,178.81944031097578,5.816667536168118,44.500027665984675,-44.99999063801583
1682119419.1911714,-1.4000223724021665,56.80011372451465,0.0,179.25649251710158,7.5516410356037635,44.500027665984675,-44.99999063801583
1682119419.2758334,-1.4000223724021665,56.80011372451465,0.0,179.25649251710158,7.5516410356037635,44.500027665984675,-44.99999063801583
1682119419.370259,-1.4000223724021665,56.80011372451465,0.0,179.37005275209648,8.796391845525477,44.500027665984675,-44.99999063801583
1682119419.454496,-1.4000223724021665,56.80011372451465,0.0,179.37005275209648,8.796391845525477,44.500027665984675,-44.99999063801583
1682119419.5364368,-1.4000223724021665,56.80011372451465,0.0,179.2312823741158,10.015646033563868,44.500027665984675,-44.99999063801583
1682119419.6233854,-1.4000223724021665,56.80011372451465,0.0,179.2312823741158,10.015646033563868,44.500027665984675,-44.99999063801583
1682119419.7126179,-1.4000223724021665,56.80011372451465,0.0,178.98089981764363,11.507971906761611,44.500027665984675,-44.99999063801583
1682119419.8046873,-1.4000223724021665,56.80011372451465,0.0,178.98089981764363,11.507971906761611,44.500027665984675,-44.99999063801583
1682119419.888486,-1.4000223724021665,56.80011372451465,0.0,178.98089981764363,11.507971906761611,44.500027665984675,-44.99999063801583
1682119419.967982,-1.4000223724021665,56.80011372451465,0.0,178.4200887277696,13.915425970342303,44.500027665984675,-44.99999063801583
1682119420.0556204,-1.4000223724021665,56.80011372451465,0.0,178.4200887277696,13.915425970342303,44.500027665984675,-44.99999063801583
1682119420.1439924,-1.4000223724021665,56.80011372451465,0.0,177.7885746459764,15.485960582575403,44.500027665984675,-44.99999063801583
1682119420.219159,-1.4000223724021665,56.80011372451465,0.0,177.7885746459764,15.485960582575403,44.500027665984675,-44.99999063801583
1682119420.2985215,-1.4000223724021665,56.80011372451465,0.0,177.7885746459764,15.485960582575403,44.500027665984675,-44.99999063801583
1682119420.3842773,-1.4000223724021665,56.80011372451465,0.0,177.09655622101738,16.704412629700613,44.500027665984675,-44.99999063801583
1682119420.4736397,-1.4000223724021665,56.80011372451465,0.0,177.09655622101738,16.704412629700613,44.500027665984675,-44.99999063801583
1682119420.5567086,-1.4000223724021665,56.80011372451465,0.0,177.0506050058479,16.85401191000927,44.500027665984675,-44.99999063801583
1682119420.6378493,-1.4000223724021665,56.80011372451465,0.0,177.0506050058479,16.85401191000927,44.500027665984675,-44.99999063801583
1682119420.730011,-1.4000223724021665,56.80011372451465,0.0,177.52696211671966,15.441499057673251,44.500027665984675,-44.99999063801583
1682119420.8109279,-1.4000223724021665,56.80011372451465,0.0,177.52696211671966,15.441499057673251,44.500027665984675,-44.99999063801583
1682119420.9038186,-1.4000223724021665,56.80011372451465,0.0,177.87440372368698,13.508110273783801,44.500027665984675,-44.99999063801583
1682119420.9884481,-1.4000223724021665,56.80011372451465,0.0,177.87440372368698,13.508110273783801,44.500027665984675,-44.99999063801583
1682119421.0648763,-1.4000223724021665,56.80011372451465,0.0,177.87440372368698,13.508110273783801,44.500027665984675,-44.99999063801583
1682119421.1468098,-1.4000223724021665,56.80011372451465,0.0,177.96418621018398,10.389386403327704,44.500027665984675,-44.99999063801583
1682119421.2202284,-1.4000223724021665,56.80011372451465,0.0,177.96418621018398,10.389386403327704,44.500027665984675,-44.99999063801583
1682119421.2955832,-1.4000223724021665,56.80011372451465,0.0,177.96418621018398,10.389386403327704,44.500027665984675,-44.99999063801583
1682119421.3845806,-1.4000223724021665,56.80011372451465,0.0,178.44392377204704,7.409662093970345,44.500027665984675,-44.99999063801583
1682119421.4613938,-1.4000223724021665,56.80011372451465,0.0,178.44392377204704,7.409662093970345,44.500027665984675,-44.99999063801583
