HarrisonEXE/WomboComboOfMedusa/logs/joint_data_arm_1.csv
timestamp,j1,j2,j3,j4,j5,j6,j7
1682116563.2120135,2.6200214055742284,86.20001058716502,0.0,127.0999725390042,-14.99997778074544,50.13002555249917,-44.99999063801583
1682116569.2247028,2.6200214055742284,0.02223076245107594,0.0,127.0999725390042,-0.003896113006889598,50.13002555249917,-44.99999063801583
1682116569.2256162,2.6200214055742284,0.02223076245107594,0.0,127.0999725390042,-0.003896113006889598,50.13002555249917,-44.99999063801583
1682116569.2258253,2.6200214055742284,0.02223076245107594,0.0,127.0999725390042,-0.003896113006889598,50.13002555249917,-44.99999063801583
1682116569.225946,2.6200214055742284,0.02223076245107594,0.0,127.0999725390042,-0.003896113006889598,50.13002555249917,-44.99999063801583
1682116569.2260494,2.6200214055742284,0.02223076245107594,0.0,127.0999725390042,-0.003896113006889598,50.13002555249917,-44.99999063801583
1682116569.2261944,2.6200214055742284,0.02223076245107594,0.0,127.0999725390042,-0.003896113006889598,50.13002555249917,-44.99999063801583
1682116569.2262933,2.6200214055742284,0.02223076245107594,0.0,127.0999725390042,-0.003896113006889598,50.13002555249917,-44.99999063801583
1682116569.2264862,2.6200214055742284,0.02223076245107594,0.0,127.0999725390042,-0.003896113006889598,50.13002555249917,-44.99999063801583
1682116569.2267094,2.6200214055742284,0.02223076245107594,0.0,127.0999725390042,-0.003896113006889598,50.13002555249917,-44.99999063801583
1682116569.226867,2.6200214055742284,0.02223076245107594,0.0,127.0999725390042,-0.003896113006889598,50.13002555249917,-44.99999063801583
1682116569.2271972,2.6200214055742284,0.02223076245107594,0.0,127.0999725390042,-0.003896113006889598,50.13002555249917,-44.99999063801583
1682116569.2279835,2.6200214055742284,0.02223076245107594,0.0,127.0999725390042,-0.003896113006889598,50.13002555249917,-44.99999063801583
1682116569.2283962,2.6200214055742284,0.02223076245107594,0.0,127.0999725390042,-0.003896113006889598,50.13002555249917,-44.99999063801583
1682116569.2298605,2.6200214055742284,0.02223076245107594,0.0,127.0999725390042,-0.003896113006889598,50.13002555249917,-44.99999063801583
1682116569.231716,2.6200214055742284,0.02223076245107594,0.0,127.0999725390042,-0.003896113006889598,50.13002555249917,-44.99999063801583
1682116569.2326016,2.6200214055742284,0.02223076245107594,0.0,127.0999725390042,-0.003896113006889598,50.13002555249917,-44.99999063801583
1682116569.2342782,2.6200214055742284,0.02223076245107594,0.0,127.0999725390042,-0.003896113006889598,50.13002555249917,-44.99999063801583
1682116569.234772,2.6200214055742284,0.02223076245107594,0.0,127.0999725390042,-0.003896113006889598,50.13002555249917,-44.99999063801583
1682116569.2353835,2.6200214055742284,0.02223076245107594,0.0,127.0999725390042,-0.003896113006889598,50.13002555249917,-44.99999063801583
1682116569.2363548,2.6200214055742284,0.02223076245107594,0.0,127.0999725390042,-0.003896113006889598,50.13002555249917,-44.99999063801583
1682116569.2377741,2.6200214055742284,0.02223076245107594,0.0,127.0999725390042,-0.003896113006889598,50.13002555249917,-44.99999063801583
1682116569.2390475,2.6200214055742284,0.02223076245107594,0.0,127.0999725390042,-0.003896113006889598,50.13002555249917,-44.99999063801583
1682116569.2400973,2.6200214055742284,0.02223076245107594,0.0,127.0999725390042,-0.003896113006889598,50.13002555249917,-44.99999063801583
1682116569.2408001,2.6200214055742284,0.02223076245107594,0.0,127.0999725390042,-0.003896113006889598,50.13002555249917,-44.99999063801583
1682116569.2415893,2.6200214055742284,0.02223076245107594,0.0,127.0999725390042,-0.003896113006889598,50.13002555249917,-44.99999063801583
1682116569.2430727,2.6200214055742284,0.02223076245107594,0.0,127.0999725390042,-0.003896113006889598,50.13002555249917,-44.99999063801583
1682116569.2467499,2.6200214055742284,0.02223076245107594,0.0,127.0999725390042,-0.003896113006889598,50.13002555249917,-44.99999063801583
1682116569.247736,2.6200214055742284,0.02223076245107594,0.0,127.0999725390042,-0.003896113006889598,50.13002555249917,-44.99999063801583
1682116569.24926,2.6200214055742284,0.02223076245107594,0.0,127.0999725390042,-0.003896113006889598,50.13002555249917,-44.99999063801583
1682116569.2518656,2.6200214055742284,0.0005729577951308233,0.0,127.0999725390042,-0.00011459155902616463,50.13002555249917,-44.99999063801583
1682116569.2522826,2.6200214055742284,0.0005729577951308233,0.0,127.0999725390042,-0.00011459155902616463,50.13002555249917,-44.99999063801583
1682116569.2539546,2.6200214055742284,0.0005729577951308233,0.0,127.0999725390042,-0.00011459155902616463,50.13002555249917,-44.99999063801583
1682116569.2556243,2.6200214055742284,0.0005729577951308233,0.0,127.0999725390042,-0.00011459155902616463,50.13002555249917,-44.99999063801583
1682116569.2567875,2.6200214055742284,0.0005729577951308233,0.0,127.0999725390042,-0.00011459155902616463,50.13002555249917,-44.99999063801583
1682116569.259841,2.6200214055742284,0.0005729577951308233,0.0,127.0999725390042,-0.00011459155902616463,50.13002555249917,-44.99999063801583
1682116569.2617974,2.6200214055742284,0.0005729577951308233,0.0,127.0999725390042,-0.00011459155902616463,50.13002555249917,-44.99999063801583
1682116569.2635832,2.6200214055742284,0.0005729577951308233,0.0,127.0999725390042,-0.00011459155902616463,50.13002555249917,-44.99999063801583
1682116569.265198,2.6200214055742284,0.0005729577951308233,0.0,127.0999725390042,-0.00011459155902616463,50.13002555249917,-44.99999063801583
1682116593.6851666,2.6200214055742284,0.0005729577951308233,0.0,127.0999725390042,-0.00011459155902616463,50.13002555249917,-44.99999063801583
1682116593.767865,2.6200214055742284,0.0005729577951308233,0.0,127.0999725390042,-0.00011459155902616463,50.13002555249917,-44.99999063801583
1682116593.8546174,2.6200214055742284,0.0005729577951308233,0.0,127.0999725390042,-0.00011459155902616463,50.13002555249917,-44.99999063801583
1682116593.943977,2.6200214055742284,0.0005729577951308233,0.0,127.0999725390042,-0.00011459155902616463,50.13002555249917,-44.99999063801583
1682116594.0217314,2.6200214055742284,0.0005729577951308233,0.0,127.0999725390042,-0.00011459155902616463,50.13002555249917,-44.99999063801583
1682116594.1234655,2.6200214055742284,0.0005729577951308233,0.0,127.0999725390042,-0.00011459155902616463,50.13002555249917,-44.99999063801583
1682116594.20606,2.6200214055742284,0.0005729577951308233,0.0,127.0999725390042,-0.00011459155902616463,50.13002555249917,-44.99999063801583
1682116594.2832143,2.6200214055742284,0.0005729577951308233,0.0,127.0999725390042,-0.00011459155902616463,50.13002555249917,-44.99999063801583
1682116594.378668,2.6200214055742284,0.0005729577951308233,0.0,127.0999725390042,-0.00011459155902616463,50.13002555249917,-44.99999063801583
1682116594.461585,2.6200214055742284,0.0005729577951308233,0.0,127.0999725390042,-0.00011459155902616463,50.13002555249917,-44.99999063801583
1682116594.5491874,2.6200214055742284,0.0005729577951308233,0.0,127.0999725390042,-0.00011459155902616463,50.13002555249917,-44.99999063801583
1682116594.6269107,2.6200214055742284,0.0005729577951308233,0.0,127.0999725390042,-0.00011459155902616463,50.13002555249917,-44.99999063801583
1682116594.7292173,2.6200214055742284,0.0005729577951308233,0.0,127.0999725390042,-0.00011459155902616463,50.13002555249917,-44.99999063801583
1682116594.815816,2.6200214055742284,0.0005729577951308233,0.0,127.0999725390042,-0.00011459155902616463,50.13002555249917,-44.99999063801583
1682116594.90396,2.6200214055742284,0.0005729577951308233,0.0,127.0999725390042,-0.00011459155902616463,50.13002555249917,-44.99999063801583
1682116594.97527,2.6200214055742284,0.0005729577951308233,0.0,127.0999725390042,-0.00011459155902616463,50.13002555249917,-44.99999063801583
1682116595.0705447,2.6200214055742284,0.0005729577951308233,0.0,127.0999725390042,-0.00011459155902616463,50.13002555249917,-44.99999063801583
1682116595.1652436,2.6200214055742284,0.0005729577951308233,0.0,127.0999725390042,-0.00011459155902616463,50.13002555249917,-44.99999063801583
1682116595.2604725,2.6200214055742284,0.0005729577951308233,0.0,127.0999725390042,-0.00011459155902616463,50.13002555249917,-44.99999063801583
1682116595.341159,2.6200214055742284,0.0005729577951308233,0.0,127.0999725390042,-0.00011459155902616463,50.13002555249917,-44.99999063801583
1682116595.4226084,2.6200214055742284,0.0005729577951308233,0.0,127.0999725390042,-0.00011459155902616463,50.13002555249917,-44.99999063801583
1682116595.5189292,2.6200214055742284,0.0005729577951308233,0.0,127.0999725390042,-0.00011459155902616463,50.13002555249917,-44.99999063801583
1682116595.6175869,2.6200214055742284,0.0005729577951308233,0.0,127.0999725390042,-0.00011459155902616463,50.13002555249917,-44.99999063801583
1682116595.717849,2.6200214055742284,0.0005729577951308233,0.0,127.0999725390042,-0.00011459155902616463,50.13002555249917,-44.99999063801583
1682116595.8002849,2.6200214055742284,0.0005729577951308233,0.0,127.0999725390042,-0.00011459155902616463,50.13002555249917,-44.99999063801583
1682116595.8829722,2.6200214055742284,0.0005729577951308233,0.0,127.0999725390042,-0.00011459155902616463,50.13002555249917,-44.99999063801583
1682116595.9732656,2.6200214055742284,0.0005729577951308233,0.0,127.0999725390042,-0.00011459155902616463,50.13002555249917,-44.99999063801583
1682116596.0489073,2.6200214055742284,0.0005729577951308233,0.0,127.0999725390042,-0.00011459155902616463,50.13002555249917,-44.99999063801583
1682116596.1329253,2.6200214055742284,0.0005729577951308233,0.0,127.0999725390042,-0.00011459155902616463,50.13002555249917,-44.99999063801583
1682116596.1995864,2.6200214055742284,0.0005729577951308233,0.0,127.0999725390042,-0.00011459155902616463,50.13002555249917,-44.99999063801583
1682116596.2818098,2.6200214055742284,0.0005729577951308233,0.0,127.0999725390042,-0.00011459155902616463,50.13002555249917,-44.99999063801583
1682116596.3649213,2.6200214055742284,0.0005729577951308233,0.0,127.0999725390042,-0.00011459155902616463,50.13002555249917,-44.99999063801583
1682116596.4513698,2.6200214055742284,0.0005729577951308233,0.0,127.0999725390042,-0.00011459155902616463,50.13002555249917,-44.99999063801583
1682116596.531919,2.6200214055742284,0.0005729577951308233,0.0,127.0999725390042,-0.00011459155902616463,50.13002555249917,-44.99999063801583
1682116596.603022,2.6200214055742284,0.0005729577951308233,0.0,127.0999725390042,-0.00011459155902616463,50.13002555249917,-44.99999063801583
1682116596.683959,2.6200214055742284,0.0005729577951308233,0.0,127.0999725390042,-0.00011459155902616463,50.13002555249917,-44.99999063801583
1682116596.7804263,2.6200214055742284,0.0005729577951308233,0.0,127.0999725390042,-0.00011459155902616463,50.13002555249917,-44.99999063801583
1682116596.8745747,2.6200214055742284,0.0005729577951308233,0.0,127.0999725390042,-0.00011459155902616463,50.13002555249917,-44.99999063801583
1682116596.9557302,2.6200214055742284,0.0005729577951308233,0.0,127.0999725390042,-0.00011459155902616463,50.13002555249917,-44.99999063801583
1682116597.0530221,2.6200214055742284,0.0005729577951308233,0.0,127.0999725390042,-0.00011459155902616463,50.13002555249917,-44.99999063801583
1682116597.146217,2.6200214055742284,0.0005729577951308233,0.0,127.0999725390042,-0.00011459155902616463,50.13002555249917,-44.99999063801583
1682116597.2322576,2.6200214055742284,0.0005729577951308233,0.0,127.0999725390042,-0.00011459155902616463,50.13002555249917,-44.99999063801583
1682116597.3242717,2.6200214055742284,0.0005729577951308233,0.0,127.0999725390042,-0.00011459155902616463,50.13002555249917,-44.99999063801583
1682116597.4130177,2.6200214055742284,0.0005729577951308233,0.0,127.0999725390042,-0.00011459155902616463,50.13002555249917,-44.99999063801583
1682116597.5031388,2.6200214055742284,0.0005729577951308233,0.0,127.0999725390042,-0.00011459155902616463,50.13002555249917,-44.99999063801583
1682116597.5902593,2.6200214055742284,0.0005729577951308233,0.0,127.0999725390042,-0.00011459155902616463,50.13002555249917,-44.99999063801583
1682116597.6755357,2.6200214055742284,0.0005729577951308233,0.0,127.0999725390042,-0.00011459155902616463,50.13002555249917,-44.99999063801583
1682116597.7780864,2.6200214055742284,0.0005729577951308233,0.0,127.0999725390042,-0.00011459155902616463,50.13002555249917,-44.99999063801583
1682116597.8660805,2.6200214055742284,0.0005729577951308233,0.0,127.0999725390042,-0.00011459155902616463,50.13002555249917,-44.99999063801583
1682116597.9505188,2.6200214055742284,0.0005729577951308233,0.0,127.0999725390042,-0.00011459155902616463,50.13002555249917,-44.99999063801583
1682116598.0401552,2.6200214055742284,0.0005729577951308233,0.0,127.0999725390042,-0.00011459155902616463,50.13002555249917,-44.99999063801583
1682116598.1177814,2.6200214055742284,0.0005729577951308233,0.0,127.0999725390042,-0.00011459155902616463,50.13002555249917,-44.99999063801583
1682116598.2220354,2.6200214055742284,0.0005729577951308233,0.0,127.0999725390042,-0.00011459155902616463,50.13002555249917,-44.99999063801583
1682116598.3122046,2.6200214055742284,0.0005729577951308233,0.0,127.0999725390042,-0.00011459155902616463,50.13002555249917,-44.99999063801583
1682116598.396354,2.6200214055742284,0.0005729577951308233,0.0,127.0999725390042,-0.00011459155902616463,50.13002555249917,-44.99999063801583
1682116598.4910789,2.6200214055742284,0.0005729577951308233,0.0,127.0999725390042,-0.00011459155902616463,50.13002555249917,-44.99999063801583
1682116598.5753434,2.6200214055742284,0.0005729577951308233,0.0,127.0999725390042,-0.00011459155902616463,50.13002555249917,-44.99999063801583
1682116598.6513813,2.6200214055742284,0.0005729577951308233,0.0,127.0999725390042,-0.00011459155902616463,50.13002555249917,-44.99999063801583
1682116598.7511432,2.6200214055742284,0.0005729577951308233,0.0,127.0999725390042,-0.00011459155902616463,50.13002555249917,-44.99999063801583
1682116598.8450036,2.6200214055742284,0.0005729577951308233,0.0,127.0999725390042,-0.00011459155902616463,50.13002555249917,-44.99999063801583
1682116598.9234686,2.6200214055742284,0.0005729577951308233,0.0,127.0999725390042,-0.00011459155902616463,50.13002555249917,-44.99999063801583
1682116599.0188954,2.6200214055742284,0.0005729577951308233,0.0,127.0999725390042,-0.00011459155902616463,50.13002555249917,-44.99999063801583
1682116599.1157212,2.6200214055742284,0.0005729577951308233,0.0,127.0999725390042,-0.00011459155902616463,50.13002555249917,-44.99999063801583
1682116599.2006931,2.6200214055742284,0.0005729577951308233,0.0,127.0999725390042,-0.00011459155902616463,50.13002555249917,-44.99999063801583
1682116599.2871363,2.6200214055742284,0.0005729577951308233,0.0,127.0999725390042,-0.00011459155902616463,50.13002555249917,-44.99999063801583
1682116599.3916168,2.6200214055742284,0.0005729577951308233,0.0,127.0999725390042,-0.00011459155902616463,50.13002555249917,-44.99999063801583
1682116599.4800458,2.6200214055742284,0.0005729577951308233,0.0,127.0999725390042,-0.00011459155902616463,50.13002555249917,-44.99999063801583
1682116599.5649045,2.6200214055742284,0.0005729577951308233,0.0,127.0999725390042,-0.00011459155902616463,50.13002555249917,-44.99999063801583
1682116599.6591265,2.6200214055742284,0.0005729577951308233,0.0,127.0999725390042,-0.00011459155902616463,50.13002555249917,-44.99999063801583
1682116599.7480478,2.6200214055742284,0.0005729577951308233,0.0,127.0999725390042,-0.00011459155902616463,50.13002555249917,-44.99999063801583
1682116599.8369858,2.6200214055742284,0.0005729577951308233,0.0,127.0999725390042,-0.00011459155902616463,50.13002555249917,-44.99999063801583
1682116599.9161665,2.6200214055742284,0.0005729577951308233,0.0,127.0999725390042,-0.00011459155902616463,50.13002555249917,-44.99999063801583
1682116600.013758,2.6200214055742284,0.0005729577951308233,0.0,127.0999725390042,-0.00011459155902616463,50.13002555249917,-44.99999063801583
1682116600.1033208,2.6200214055742284,0.0005729577951308233,0.0,127.0999725390042,-0.00011459155902616463,50.13002555249917,-44.99999063801583
1682116600.1956046,2.6200214055742284,0.0005729577951308233,0.0,127.0999725390042,-0.00011459155902616463,50.13002555249917,-44.99999063801583
1682116600.2774436,2.6200214055742284,0.0005729577951308233,0.0,127.0999725390042,-0.00011459155902616463,50.13002555249917,-44.99999063801583
1682116600.3541882,2.6200214055742284,0.0005729577951308233,0.0,127.0999725390042,-0.00011459155902616463,50.13002555249917,-44.99999063801583
1682116600.4263508,2.6200214055742284,0.0005729577951308233,0.0,127.0999725390042,-0.00011459155902616463,50.13002555249917,-44.99999063801583
1682116600.5034528,2.6200214055742284,0.0005729577951308233,0.0,127.0999725390042,-0.00011459155902616463,50.13002555249917,-44.99999063801583
1682116600.5716612,2.6200214055742284,0.0005729577951308233,0.0,127.0999725390042,-0.00011459155902616463,50.13002555249917,-44.99999063801583
1682116600.6403701,2.6200214055742284,0.0005729577951308233,0.0,127.0999725390042,-0.00011459155902616463,50.13002555249917,-44.99999063801583
1682116600.7298942,2.6200214055742284,0.0005729577951308233,0.0,127.0999725390042,-0.00011459155902616463,50.13002555249917,-44.99999063801583
1682116600.808711,2.6200214055742284,0.0005729577951308233,0.0,127.0999725390042,-0.00011459155902616463,50.13002555249917,-44.99999063801583
1682116600.8906722,2.6200214055742284,0.0005729577951308233,0.0,127.0999725390042,-0.00011459155902616463,50.13002555249917,-44.99999063801583
1682116600.9775794,2.6200214055742284,0.0005729577951308233,0.0,127.0999725390042,-0.00011459155902616463,50.13002555249917,-44.99999063801583
1682116601.0683117,2.6200214055742284,0.0005729577951308233,0.0,127.0999725390042,-0.00011459155902616463,50.13002555249917,-44.99999063801583
1682116601.150681,2.6200214055742284,0.0005729577951308233,0.0,127.0999725390042,-0.00011459155902616463,50.13002555249917,-44.99999063801583
1682116601.2196836,2.6200214055742284,0.0005729577951308233,0.0,127.0999725390042,-0.00011459155902616463,50.13002555249917,-44.99999063801583
1682116601.2994843,2.6200214055742284,0.0005729577951308233,0.0,127.0999725390042,-0.00011459155902616463,50.13002555249917,-44.99999063801583
1682116601.3802903,2.6200214055742284,0.0005729577951308233,0.0,127.0999725390042,-0.00011459155902616463,50.13002555249917,-44.99999063801583
1682116601.465071,2.6200214055742284,0.0005729577951308233,0.0,127.0999725390042,-0.00011459155902616463,50.13002555249917,-44.99999063801583
1682116601.5570626,2.6200214055742284,0.0005729577951308233,0.0,127.0999725390042,-0.00011459155902616463,50.13002555249917,-44.99999063801583
1682116601.744041,2.6200214055742284,0.0005729577951308233,0.0,127.0999725390042,-0.00011459155902616463,50.13002555249917,-44.99999063801583
1682116601.8265507,2.6200214055742284,0.0005729577951308233,0.0,127.0999725390042,-0.00011459155902616463,50.13002555249917,-44.99999063801583
1682116601.913886,2.6200214055742284,0.0005729577951308233,0.0,127.0999725390042,-0.00011459155902616463,50.13002555249917,-44.99999063801583
1682116601.9855294,2.6200214055742284,0.0005729577951308233,0.0,127.0999725390042,-0.00011459155902616463,50.13002555249917,-44.99999063801583
1682116602.0673158,2.6200214055742284,0.0005729577951308233,0.0,127.0999725390042,-0.00011459155902616463,50.13002555249917,-44.99999063801583
1682116602.1583006,2.6200214055742284,0.0005729577951308233,0.0,127.0999725390042,-0.00011459155902616463,50.13002555249917,-44.99999063801583
1682116602.2342412,2.6200214055742284,0.0005729577951308233,0.0,127.0999725390042,-0.00011459155902616463,50.13002555249917,-44.99999063801583
1682116602.3243434,2.6200214055742284,0.0005729577951308233,0.0,127.0999725390042,-0.00011459155902616463,50.13002555249917,-44.99999063801583
1682116602.4090495,2.6200214055742284,0.0005729577951308233,0.0,127.0999725390042,-0.00011459155902616463,50.13002555249917,-44.99999063801583
1682116602.4856057,2.6200214055742284,0.0005729577951308233,0.0,127.0999725390042,-0.00011459155902616463,50.13002555249917,-44.99999063801583
1682116602.5844111,2.6200214055742284,0.0005729577951308233,0.0,127.0999725390042,-0.00011459155902616463,50.13002555249917,-44.99999063801583
1682116602.6607594,2.6200214055742284,0.0005729577951308233,0.0,127.0999725390042,-0.00011459155902616463,50.13002555249917,-44.99999063801583
1682116602.7411528,2.6200214055742284,0.0005729577951308233,0.0,127.0999725390042,-0.00011459155902616463,50.13002555249917,-44.99999063801583
1682116602.8378518,2.6200214055742284,0.0005729577951308233,0.0,127.0999725390042,-0.00011459155902616463,50.13002555249917,-44.99999063801583
1682116602.9277039,2.6200214055742284,0.0005729577951308233,0.0,127.0999725390042,-0.00011459155902616463,50.13002555249917,-44.99999063801583
1682116603.0108619,2.6200214055742284,0.0005729577951308233,0.0,127.0999725390042,-0.00011459155902616463,50.13002555249917,-44.99999063801583
1682116603.0925794,2.6200214055742284,0.0005729577951308233,0.0,127.0999725390042,-0.00011459155902616463,50.13002555249917,-44.99999063801583
1682116603.1796644,2.6200214055742284,0.0005729577951308233,0.0,127.0999725390042,-0.00011459155902616463,50.13002555249917,-44.99999063801583
1682116603.2672617,2.6200214055742284,0.0005729577951308233,0.0,127.0999725390042,-0.00011459155902616463,50.13002555249917,-44.99999063801583
1682116603.3601928,2.6200214055742284,0.0005729577951308233,0.0,127.0999725390042,-0.00011459155902616463,50.13002555249917,-44.99999063801583
1682116603.4451168,2.6200214055742284,0.0005729577951308233,0.0,127.0999725390042,-0.00011459155902616463,50.13002555249917,-44.99999063801583
1682116603.5256388,2.6200214055742284,0.0005729577951308233,0.0,127.0999725390042,-0.00011459155902616463,50.13002555249917,-44.99999063801583
1682116603.6227431,2.6200214055742284,0.0005729577951308233,0.0,127.0999725390042,-0.00011459155902616463,50.13002555249917,-44.99999063801583
1682116603.699198,2.6200214055742284,0.0005729577951308233,0.0,127.0999725390042,-0.00011459155902616463,50.13002555249917,-44.99999063801583
1682116603.7759001,2.6200214055742284,0.0005729577951308233,0.0,127.0999725390042,-0.00011459155902616463,50.13002555249917,-44.99999063801583
1682116603.8647246,2.6200214055742284,0.0005729577951308233,0.0,127.0999725390042,-0.00011459155902616463,50.13002555249917,-44.99999063801583
1682116603.947605,2.6200214055742284,0.0005729577951308233,0.0,127.0999725390042,-0.00011459155902616463,50.13002555249917,-44.99999063801583
1682116604.0418687,2.6200214055742284,0.0005729577951308233,0.0,127.0999725390042,-0.00011459155902616463,50.13002555249917,-44.99999063801583
1682116604.122173,2.6200214055742284,0.0005729577951308233,0.0,127.0999725390042,-0.00011459155902616463,50.13002555249917,-44.99999063801583
1682116604.2226214,2.6200214055742284,0.0005729577951308233,0.0,127.0999725390042,-0.00011459155902616463,50.13002555249917,-44.99999063801583
1682116604.3187697,2.6200214055742284,0.0005729577951308233,0.0,127.0999725390042,-0.00011459155902616463,50.13002555249917,-44.99999063801583
1682116604.403702,2.6200214055742284,0.0005729577951308233,0.0,127.0999725390042,-0.00011459155902616463,50.13002555249917,-44.99999063801583
1682116604.4859111,2.6200214055742284,0.0005729577951308233,0.0,127.0999725390042,-0.00011459155902616463,50.13002555249917,-44.99999063801583
1682116604.5798316,2.6200214055742284,0.0005729577951308233,0.0,127.0999725390042,-0.00011459155902616463,50.13002555249917,-44.99999063801583
1682116604.6595254,2.6200214055742284,0.0005729577951308233,0.0,127.0999725390042,-0.00011459155902616463,50.13002555249917,-44.99999063801583
1682116604.7548456,2.6200214055742284,0.0005729577951308233,0.0,127.0999725390042,-0.00011459155902616463,50.13002555249917,-44.99999063801583
1682116604.831569,2.6200214055742284,0.0005729577951308233,0.0,127.0999725390042,-0.00011459155902616463,50.13002555249917,-44.99999063801583
1682116604.914259,2.6200214055742284,0.0005729577951308233,0.0,127.0999725390042,-0.00011459155902616463,50.13002555249917,-44.99999063801583
1682116604.984138,2.6200214055742284,0.0005729577951308233,0.0,127.0999725390042,-0.00011459155902616463,50.13002555249917,-44.99999063801583
1682118328.3234735,2.6200214055742284,86.20001058716502,-0.0,127.0999725390042,-14.99997778074544,50.13002555249917,-44.99999063801583
1682118334.3314693,2.6200214055742284,0.004354479242994257,0.0,127.0999725390042,-0.0007448451336700702,50.13002555249917,-44.99999063801583
1682118334.3318212,2.6200214055742284,0.004354479242994257,0.0,127.0999725390042,-0.0007448451336700702,50.13002555249917,-44.99999063801583
1682118334.3319852,2.6200214055742284,0.004354479242994257,0.0,127.0999725390042,-0.0007448451336700702,50.13002555249917,-44.99999063801583
1682118334.3320932,2.6200214055742284,0.004354479242994257,0.0,127.0999725390042,-0.0007448451336700702,50.13002555249917,-44.99999063801583
1682118334.3322215,2.6200214055742284,0.004354479242994257,0.0,127.0999725390042,-0.0007448451336700702,50.13002555249917,-44.99999063801583
1682118334.33233,2.6200214055742284,0.004354479242994257,0.0,127.0999725390042,-0.0007448451336700702,50.13002555249917,-44.99999063801583
1682118334.3325894,2.6200214055742284,0.004354479242994257,0.0,127.0999725390042,-0.0007448451336700702,50.13002555249917,-44.99999063801583
1682118334.33291,2.6200214055742284,0.004354479242994257,0.0,127.0999725390042,-0.0007448451336700702,50.13002555249917,-44.99999063801583
1682118334.3344128,2.6200214055742284,0.004354479242994257,0.0,127.0999725390042,-0.0007448451336700702,50.13002555249917,-44.99999063801583
1682118334.334959,2.6200214055742284,0.004354479242994257,0.0,127.0999725390042,-0.0007448451336700702,50.13002555249917,-44.99999063801583
1682118334.335817,2.6200214055742284,0.004354479242994257,0.0,127.0999725390042,-0.0007448451336700702,50.13002555249917,-44.99999063801583
1682118334.3367774,2.6200214055742284,0.004354479242994257,0.0,127.0999725390042,-0.0007448451336700702,50.13002555249917,-44.99999063801583
1682118334.337589,2.6200214055742284,0.004354479242994257,0.0,127.0999725390042,-0.0007448451336700702,50.13002555249917,-44.99999063801583
1682118334.3380728,2.6200214055742284,0.004354479242994257,0.0,127.0999725390042,-0.0007448451336700702,50.13002555249917,-44.99999063801583
1682118334.3393104,2.6200214055742284,0.004354479242994257,0.0,127.0999725390042,-0.0007448451336700702,50.13002555249917,-44.99999063801583
1682118334.340305,2.6200214055742284,0.004354479242994257,0.0,127.0999725390042,-0.0007448451336700702,50.13002555249917,-44.99999063801583
1682118334.3406658,2.6200214055742284,0.004354479242994257,0.0,127.0999725390042,-0.0007448451336700702,50.13002555249917,-44.99999063801583
1682118334.3414183,2.6200214055742284,0.004354479242994257,0.0,127.0999725390042,-0.0007448451336700702,50.13002555249917,-44.99999063801583
1682118334.3420403,2.6200214055742284,0.004354479242994257,0.0,127.0999725390042,-0.0007448451336700702,50.13002555249917,-44.99999063801583
1682118334.342825,2.6200214055742284,0.004354479242994257,0.0,127.0999725390042,-0.0007448451336700702,50.13002555249917,-44.99999063801583
1682118334.343752,2.6200214055742284,0.004354479242994257,0.0,127.0999725390042,-0.0007448451336700702,50.13002555249917,-44.99999063801583
1682118334.3445222,2.6200214055742284,0.004354479242994257,0.0,127.0999725390042,-0.0007448451336700702,50.13002555249917,-44.99999063801583
1682118334.346476,2.6200214055742284,0.004354479242994257,0.0,127.0999725390042,-0.0007448451336700702,50.13002555249917,-44.99999063801583
1682118334.347007,2.6200214055742284,0.004354479242994257,0.0,127.0999725390042,-0.0007448451336700702,50.13002555249917,-44.99999063801583
1682118334.3507924,2.6200214055742284,0.004354479242994257,0.0,127.0999725390042,-0.0007448451336700702,50.13002555249917,-44.99999063801583
1682118334.3525798,2.6200214055742284,0.004354479242994257,0.0,127.0999725390042,-0.0007448451336700702,50.13002555249917,-44.99999063801583
1682118334.3537006,2.6200214055742284,0.004354479242994257,0.0,127.0999725390042,-0.0007448451336700702,50.13002555249917,-44.99999063801583
1682118334.3547592,2.6200214055742284,0.004354479242994257,0.0,127.0999725390042,-0.0007448451336700702,50.13002555249917,-44.99999063801583
1682119406.509747,2.6200214055742284,86.20001058716502,0.0,127.0999725390042,-14.99997778074544,50.13002555249917,-44.99999063801583
1682119412.5227294,2.6200214055742284,0.009682986737710913,0.0,127.0999725390042,-0.0016615776058793875,50.13002555249917,-44.99999063801583
1682119412.5237217,2.6200214055742284,0.009682986737710913,0.0,127.0999725390042,-0.0016615776058793875,50.13002555249917,-44.99999063801583
1682119412.525317,2.6200214055742284,0.009682986737710913,0.0,127.0999725390042,-0.0016615776058793875,50.13002555249917,-44.99999063801583
1682119412.5263357,2.6200214055742284,0.009682986737710913,0.0,127.0999725390042,-0.0016615776058793875,50.13002555249917,-44.99999063801583
1682119412.5275238,2.6200214055742284,0.009682986737710913,0.0,127.0999725390042,-0.0016615776058793875,50.13002555249917,-44.99999063801583
1682119412.5286794,2.6200214055742284,0.009682986737710913,0.0,127.0999725390042,-0.0016615776058793875,50.13002555249917,-44.99999063801583
1682119412.5295584,2.6200214055742284,0.009682986737710913,0.0,127.0999725390042,-0.0016615776058793875,50.13002555249917,-44.99999063801583
1682119412.531083,2.6200214055742284,0.009682986737710913,0.0,127.0999725390042,-0.0016615776058793875,50.13002555249917,-44.99999063801583
1682119412.5318322,2.6200214055742284,0.009682986737710913,0.0,127.0999725390042,-0.0016615776058793875,50.13002555249917,-44.99999063801583
1682119412.53304,2.6200214055742284,0.009682986737710913,0.0,127.0999725390042,-0.0016615776058793875,50.13002555249917,-44.99999063801583
1682119412.533907,2.6200214055742284,0.009682986737710913,0.0,127.0999725390042,-0.0016615776058793875,50.13002555249917,-44.99999063801583
1682119412.5343642,2.6200214055742284,0.009682986737710913,0.0,127.0999725390042,-0.0016615776058793875,50.13002555249917,-44.99999063801583
1682119412.5349162,2.6200214055742284,0.009682986737710913,0.0,127.0999725390042,-0.0016615776058793875,50.13002555249917,-44.99999063801583
1682119412.5357075,2.6200214055742284,0.009682986737710913,0.0,127.0999725390042,-0.0016615776058793875,50.13002555249917,-44.99999063801583
1682119412.5362802,2.6200214055742284,0.009682986737710913,0.0,127.0999725390042,-0.0016615776058793875,50.13002555249917,-44.99999063801583
1682119412.537131,2.6200214055742284,0.009682986737710913,0.0,127.0999725390042,-0.0016615776058793875,50.13002555249917,-44.99999063801583
1682119412.5379677,2.6200214055742284,0.009682986737710913,0.0,127.0999725390042,-0.0016615776058793875,50.13002555249917,-44.99999063801583
1682119412.5431879,2.6200214055742284,0.009682986737710913,0.0,127.0999725390042,-0.0016615776058793875,50.13002555249917,-44.99999063801583
1682119412.546594,2.6200214055742284,0.009682986737710913,0.0,127.0999725390042,-0.0016615776058793875,50.13002555249917,-44.99999063801583
1682119412.5504658,2.6200214055742284,0.009682986737710913,0.0,127.0999725390042,-0.0016615776058793875,50.13002555249917,-44.99999063801583
1682119412.554911,2.6200214055742284,0.009682986737710913,0.0,127.0999725390042,-0.0016615776058793875,50.13002555249917,-44.99999063801583
1682119412.5588841,2.6200214055742284,0.009682986737710913,0.0,127.0999725390042,-0.0016615776058793875,50.13002555249917,-44.99999063801583
1682119412.5650008,2.6200214055742284,0.009682986737710913,0.0,127.0999725390042,-0.0016615776058793875,50.13002555249917,-44.99999063801583
1682119412.5690744,2.6200214055742284,0.009682986737710913,0.0,127.0999725390042,-0.0016615776058793875,50.13002555249917,-44.99999063801583
1682119412.5735629,2.6200214055742284,0.009682986737710913,0.0,127.0999725390042,-0.0016615776058793875,50.13002555249917,-44.99999063801583
1682119412.5773056,2.6200214055742284,0.009682986737710913,0.0,127.0999725390042,-0.0016615776058793875,50.13002555249917,-44.99999063801583
1682119412.5813625,2.6200214055742284,0.009682986737710913,0.0,127.0999725390042,-0.0016615776058793875,50.13002555249917,-44.99999063801583
1682119412.584814,2.6200214055742284,0.009682986737710913,0.0,127.0999725390042,-0.0016615776058793875,50.13002555249917,-44.99999063801583
1682119412.5892265,2.6200214055742284,0.009682986737710913,0.0,127.0999725390042,-0.0016615776058793875,50.13002555249917,-44.99999063801583
1682119412.5934596,2.6200214055742284,0.009682986737710913,0.0,127.0999725390042,-0.0016615776058793875,50.13002555249917,-44.99999063801583
1682119412.5996187,2.6200214055742284,0.009682986737710913,0.0,127.0999725390042,-0.0016615776058793875,50.13002555249917,-44.99999063801583
1682119412.6046581,2.6200214055742284,0.009682986737710913,0.0,127.0999725390042,-0.0016615776058793875,50.13002555249917,-44.99999063801583
1682119412.6081638,2.6200214055742284,0.009682986737710913,0.0,127.0999725390042,-0.0016615776058793875,50.13002555249917,-44.99999063801583
1682119412.6122026,2.6200214055742284,0.009682986737710913,0.0,127.0999725390042,-0.0016615776058793875,50.13002555249917,-44.99999063801583
1682119412.6166995,2.6200214055742284,0.009682986737710913,0.0,127.0999725390042,-0.0016615776058793875,50.13002555249917,-44.99999063801583
1682119412.6207407,2.6200214055742284,0.009682986737710913,0.0,127.0999725390042,-0.0016615776058793875,50.13002555249917,-44.99999063801583
1682119412.6276531,2.6200214055742284,0.009682986737710913,0.0,127.0999725390042,-0.0016615776058793875,50.13002555249917,-44.99999063801583
1682119412.6318393,2.6200214055742284,0.009682986737710913,0.0,127.0999725390042,-0.0016615776058793875,50.13002555249917,-44.99999063801583
1682119412.6361399,2.6200214055742284,0.009682986737710913,0.0,127.0999725390042,-0.0016615776058793875,50.13002555249917,-44.99999063801583
1682119412.6436236,2.6200214055742284,0.009682986737710913,0.0,127.0999725390042,-0.0016615776058793875,50.13002555249917,-44.99999063801583
1682119412.647341,2.6200214055742284,0.009682986737710913,0.0,127.0999725390042,-0.0016615776058793875,50.13002555249917,-44.99999063801583
1682119412.6527054,2.6200214055742284,0.009682986737710913,0.0,127.0999725390042,-0.0016615776058793875,50.13002555249917,-44.99999063801583
1682119412.6577642,2.6200214055742284,0.009682986737710913,0.0,127.0999725390042,-0.0016615776058793875,50.13002555249917,-44.99999063801583
1682119412.6624377,2.6200214055742284,0.009682986737710913,0.0,127.0999725390042,-0.0016615776058793875,50.13002555249917,-44.99999063801583
1682119412.6657386,2.6200214055742284,0.009682986737710913,0.0,127.0999725390042,-0.0016615776058793875,50.13002555249917,-44.99999063801583
1682119412.6687355,2.6200214055742284,0.009682986737710913,0.0,127.0999725390042,-0.0016615776058793875,50.13002555249917,-44.99999063801583
1682119412.6719365,2.6200214055742284,0.009682986737710913,0.0,127.0999725390042,-0.0016615776058793875,50.13002555249917,-44.99999063801583
1682119412.6752279,2.6200214055742284,0.009682986737710913,0.0,127.0999725390042,-0.0016615776058793875,50.13002555249917,-44.99999063801583
1682119412.6778302,2.6200214055742284,0.009682986737710913,0.0,127.0999725390042,-0.0016615776058793875,50.13002555249917,-44.99999063801583
1682119412.6817048,2.6200214055742284,0.009682986737710913,0.0,127.0999725390042,-0.0016615776058793875,50.13002555249917,-44.99999063801583
1682119412.6852086,2.6200214055742284,0.009682986737710913,0.0,127.0999725390042,-0.0016615776058793875,50.13002555249917,-44.99999063801583
1682119412.6879065,2.6200214055742284,0.009682986737710913,0.0,127.0999725390042,-0.0016615776058793875,50.13002555249917,-44.99999063801583
1682119412.691472,2.6200214055742284,0.009682986737710913,0.0,127.0999725390042,-0.0016615776058793875,50.13002555249917,-44.99999063801583
1682119412.6940284,2.6200214055742284,0.009682986737710913,0.0,127.0999725390042,-0.0016615776058793875,50.13002555249917,-44.99999063801583
1682119412.6972697,2.6200214055742284,0.009682986737710913,0.0,127.0999725390042,-0.0016615776058793875,50.13002555249917,-44.99999063801583
1682119412.7008054,2.6200214055742284,0.009682986737710913,0.0,127.0999725390042,-0.0016615776058793875,50.13002555249917,-44.99999063801583
1682119412.7045372,2.6200214055742284,0.009682986737710913,0.0,127.0999725390042,-0.0016615776058793875,50.13002555249917,-44.99999063801583
1682119412.7077096,2.6200214055742284,0.009682986737710913,0.0,127.0999725390042,-0.0016615776058793875,50.13002555249917,-44.99999063801583
1682119412.709999,2.6200214055742284,0.009682986737710913,0.0,127.0999725390042,-0.0016615776058793875,50.13002555249917,-44.99999063801583
1682119412.7124655,2.6200214055742284,0.009682986737710913,0.0,127.0999725390042,-0.0016615776058793875,50.13002555249917,-44.99999063801583
1682119412.7142975,2.6200214055742284,0.009682986737710913,0.0,127.0999725390042,-0.0016615776058793875,50.13002555249917,-44.99999063801583
1682119412.7163088,2.6200214055742284,0.009682986737710913,0.0,127.0999725390042,-0.0016615776058793875,50.13002555249917,-44.99999063801583
1682119412.718533,2.6200214055742284,0.009682986737710913,0.0,127.0999725390042,-0.0016615776058793875,50.13002555249917,-44.99999063801583
1682119412.7205698,2.6200214055742284,0.009682986737710913,0.0,127.0999725390042,-0.0016615776058793875,50.13002555249917,-44.99999063801583
1682119412.7218661,2.6200214055742284,0.009682986737710913,0.0,127.0999725390042,-0.0016615776058793875,50.13002555249917,-44.99999063801583
1682119412.7328267,2.6200214055742284,0.009682986737710913,0.0,127.0999725390042,-0.0016615776058793875,50.13002555249917,-44.99999063801583
1682119412.8241463,2.6200214055742284,0.009682986737710913,0.0,127.0999725390042,-0.0016615776058793875,50.13002555249917,-44.99999063801583
1682119412.8984058,2.6200214055742284,0.009682986737710913,0.0,127.0999725390042,-0.0016615776058793875,50.13002555249917,-44.99999063801583
1682119412.9872572,2.6200214055742284,0.009682986737710913,0.0,127.0999725390042,-0.0016615776058793875,50.13002555249917,-44.99999063801583
1682119413.0715365,2.6200214055742284,0.009682986737710913,0.0,127.0999725390042,-0.0016615776058793875,50.13002555249917,-44.99999063801583
1682119413.1552656,2.6200214055742284,0.009682986737710913,0.0,127.0999725390042,-0.0016615776058793875,50.13002555249917,-44.99999063801583
1682119413.2457068,2.6200214055742284,0.009682986737710913,0.0,127.0999725390042,-0.0016615776058793875,50.13002555249917,-44.99999063801583
1682119413.3367617,2.6200214055742284,0.009682986737710913,0.0,127.0999725390042,-0.0016615776058793875,50.13002555249917,-44.99999063801583
1682119413.4217398,2.6200214055742284,0.009682986737710913,0.0,127.0999725390042,-0.0016615776058793875,50.13002555249917,-44.99999063801583
1682119413.5146153,2.6200214055742284,0.009682986737710913,0.0,127.0999725390042,-0.0016615776058793875,50.13002555249917,-44.99999063801583
1682119413.6011984,2.6200214055742284,0.009682986737710913,0.0,127.0999725390042,-0.0016615776058793875,50.13002555249917,-44.99999063801583
1682119413.6917405,2.6200214055742284,0.009682986737710913,0.0,127.0999725390042,-0.0016615776058793875,50.13002555249917,-44.99999063801583
1682119413.7849188,2.6200214055742284,0.009682986737710913,0.0,127.0999725390042,-0.0016615776058793875,50.13002555249917,-44.99999063801583
1682119413.8706028,2.6200214055742284,0.009682986737710913,0.0,127.0999725390042,-0.0016615776058793875,50.13002555249917,-44.99999063801583
1682119413.9590263,2.6200214055742284,0.009682986737710913,0.0,127.0999725390042,-0.0016615776058793875,50.13002555249917,-44.99999063801583
1682119414.0404735,2.6200214055742284,0.009682986737710913,0.0,127.0999725390042,-0.0016615776058793875,50.13002555249917,-44.99999063801583
1682119414.12099,2.6200214055742284,0.009682986737710913,0.0,127.0999725390042,-0.0016615776058793875,50.13002555249917,-44.99999063801583
1682119414.2043161,2.6200214055742284,0.009682986737710913,0.0,127.0999725390042,-0.0016615776058793875,50.13002555249917,-44.99999063801583
1682119414.2952273,2.6200214055742284,0.009682986737710913,0.0,127.0999725390042,-0.0016615776058793875,50.13002555249917,-44.99999063801583
1682119414.38721,2.6200214055742284,0.009682986737710913,0.0,127.0999725390042,-0.0016615776058793875,50.13002555249917,-44.99999063801583
1682119414.4927523,2.6200214055742284,0.009682986737710913,0.0,127.0999725390042,-0.0016615776058793875,50.13002555249917,-44.99999063801583
1682119414.575631,2.6200214055742284,0.009682986737710913,0.0,127.0999725390042,-0.0016615776058793875,50.13002555249917,-44.99999063801583
1682119414.6588106,2.6200214055742284,0.009682986737710913,0.0,127.0999725390042,-0.0016615776058793875,50.13002555249917,-44.99999063801583
1682119414.7506552,2.6200214055742284,0.009682986737710913,0.0,127.0999725390042,-0.0016615776058793875,50.13002555249917,-44.99999063801583
1682119414.8322597,2.6200214055742284,0.009682986737710913,0.0,127.0999725390042,-0.0016615776058793875,50.13002555249917,-44.99999063801583
1682119414.919631,2.6200214055742284,0.009682986737710913,0.0,127.0999725390042,-0.0016615776058793875,50.13002555249917,-44.99999063801583
1682119415.0114408,2.6200214055742284,0.009682986737710913,0.0,127.0999725390042,-0.0016615776058793875,50.13002555249917,-44.99999063801583
1682119415.087859,2.6200214055742284,0.009682986737710913,0.0,127.0999725390042,-0.0016615776058793875,50.13002555249917,-44.99999063801583
1682119415.1662579,2.6200214055742284,0.009682986737710913,0.0,127.0999725390042,-0.0016615776058793875,50.13002555249917,-44.99999063801583
1682119415.2524006,2.6200214055742284,0.009682986737710913,0.0,127.0999725390042,-0.0016615776058793875,50.13002555249917,-44.99999063801583
1682119415.3374395,2.6200214055742284,0.009682986737710913,0.0,127.0999725390042,-0.0016615776058793875,50.13002555249917,-44.99999063801583
1682119415.4178622,2.6200214055742284,0.009682986737710913,0.0,127.0999725390042,-0.0016615776058793875,50.13002555249917,-44.99999063801583
1682119415.5148993,2.6200214055742284,0.009682986737710913,0.0,127.0999725390042,-0.0016615776058793875,50.13002555249917,-44.99999063801583
1682119415.6132953,2.6200214055742284,0.009682986737710913,0.0,127.0999725390042,-0.0016615776058793875,50.13002555249917,-44.99999063801583
1682119415.7049444,2.6200214055742284,0.009682986737710913,0.0,127.0999725390042,-0.0016615776058793875,50.13002555249917,-44.99999063801583
1682119415.789066,2.6200214055742284,0.009682986737710913,0.0,127.0999725390042,-0.0016615776058793875,50.13002555249917,-44.99999063801583
1682119415.8751974,2.6200214055742284,0.009682986737710913,0.0,127.0999725390042,-0.0016615776058793875,50.13002555249917,-44.99999063801583
1682119415.9643822,2.6200214055742284,0.009682986737710913,0.0,127.0999725390042,-0.0016615776058793875,50.13002555249917,-44.99999063801583
1682119416.0524504,2.6200214055742284,0.009682986737710913,0.0,127.0999725390042,-0.0016615776058793875,50.13002555249917,-44.99999063801583
1682119416.140519,2.6200214055742284,0.009682986737710913,0.0,127.0999725390042,-0.0016615776058793875,50.13002555249917,-44.99999063801583
1682119416.222364,2.6200214055742284,0.009682986737710913,0.0,127.0999725390042,-0.0016615776058793875,50.13002555249917,-44.99999063801583
1682119416.307107,2.6200214055742284,0.009682986737710913,0.0,127.0999725390042,-0.0016615776058793875,50.13002555249917,-44.99999063801583
1682119416.3889935,2.6200214055742284,0.009682986737710913,0.0,127.0999725390042,-0.0016615776058793875,50.13002555249917,-44.99999063801583
1682119416.4862373,2.6200214055742284,0.009682986737710913,0.0,127.0999725390042,-0.0016615776058793875,50.13002555249917,-44.99999063801583
1682119416.5711327,2.6200214055742284,0.009682986737710913,0.0,127.0999725390042,-0.0016615776058793875,50.13002555249917,-44.99999063801583
1682119416.66394,2.6200214055742284,0.009682986737710913,0.0,127.0999725390042,-0.0016615776058793875,50.13002555249917,-44.99999063801583
1682119416.7399056,2.6200214055742284,0.009682986737710913,0.0,127.0999725390042,-0.0016615776058793875,50.13002555249917,-44.99999063801583
1682119416.827131,2.6200214055742284,0.009682986737710913,0.0,127.0999725390042,-0.0016615776058793875,50.13002555249917,-44.99999063801583
1682119416.9291096,2.6200214055742284,0.009682986737710913,0.0,127.0999725390042,-0.0016615776058793875,50.13002555249917,-44.99999063801583
1682119417.0189514,2.6200214055742284,0.009682986737710913,0.0,127.0999725390042,-0.0016615776058793875,50.13002555249917,-44.99999063801583
1682119417.1051574,2.6200214055742284,0.009682986737710913,0.0,127.0999725390042,-0.0016615776058793875,50.13002555249917,-44.99999063801583
1682119417.192055,2.6200214055742284,0.009682986737710913,0.0,127.0999725390042,-0.0016615776058793875,50.13002555249917,-44.99999063801583
1682119417.275302,2.6200214055742284,0.009682986737710913,0.0,127.0999725390042,-0.0016615776058793875,50.13002555249917,-44.99999063801583
1682119417.3600879,2.6200214055742284,0.009682986737710913,0.0,127.0999725390042,-0.0016615776058793875,50.13002555249917,-44.99999063801583
1682119417.4454935,2.6200214055742284,0.009682986737710913,0.0,127.0999725390042,-0.0016615776058793875,50.13002555249917,-44.99999063801583
1682119417.5330808,2.6200214055742284,0.009682986737710913,0.0,127.0999725390042,-0.0016615776058793875,50.13002555249917,-44.99999063801583
1682119417.620961,2.6200214055742284,0.009682986737710913,0.0,127.0999725390042,-0.0016615776058793875,50.13002555249917,-44.99999063801583
1682119417.702153,2.6200214055742284,0.009682986737710913,0.0,127.0999725390042,-0.0016615776058793875,50.13002555249917,-44.99999063801583
1682119417.7928529,2.6200214055742284,0.009682986737710913,0.0,127.0999725390042,-0.0016615776058793875,50.13002555249917,-44.99999063801583
1682119417.8786144,2.6200214055742284,0.009682986737710913,0.0,127.0999725390042,-0.0016615776058793875,50.13002555249917,-44.99999063801583
1682119417.9853566,2.6200214055742284,0.009682986737710913,0.0,127.0999725390042,-0.0016615776058793875,50.13002555249917,-44.99999063801583
1682119418.0758016,2.6200214055742284,0.009682986737710913,0.0,127.0999725390042,-0.0016615776058793875,50.13002555249917,-44.99999063801583
1682119418.1505656,2.6200214055742284,0.009682986737710913,0.0,127.0999725390042,-0.0016615776058793875,50.13002555249917,-44.99999063801583
1682119418.2381544,2.6200214055742284,0.009682986737710913,0.0,127.0999725390042,-0.0016615776058793875,50.13002555249917,-44.99999063801583
1682119418.3341677,2.6200214055742284,0.009682986737710913,0.0,127.0999725390042,-0.0016615776058793875,50.13002555249917,-44.99999063801583
1682119418.4167483,2.6200214055742284,0.009682986737710913,0.0,127.0999725390042,-0.0016615776058793875,50.13002555249917,-44.99999063801583
1682119418.4918523,2.6200214055742284,0.009682986737710913,0.0,127.0999725390042,-0.0016615776058793875,50.13002555249917,-44.99999063801583
1682119418.5858119,2.6200214055742284,0.009682986737710913,0.0,127.0999725390042,-0.0016615776058793875,50.13002555249917,-44.99999063801583
1682119418.6711264,2.6200214055742284,0.009682986737710913,0.0,127.0999725390042,-0.0016615776058793875,50.13002555249917,-44.99999063801583
1682119418.7527316,2.6200214055742284,0.009682986737710913,0.0,127.0999725390042,-0.0016615776058793875,50.13002555249917,-44.99999063801583
1682119418.8329232,2.6200214055742284,0.009682986737710913,0.0,127.0999725390042,-0.0016615776058793875,50.13002555249917,-44.99999063801583
1682119418.9124985,2.6200214055742284,0.009682986737710913,0.0,127.0999725390042,-0.0016615776058793875,50.13002555249917,-44.99999063801583
1682119418.9951396,2.6200214055742284,0.009682986737710913,0.0,127.0999725390042,-0.0016615776058793875,50.13002555249917,-44.99999063801583
1682119419.0856776,2.6200214055742284,0.009682986737710913,0.0,127.0999725390042,-0.0016615776058793875,50.13002555249917,-44.99999063801583
1682119419.190972,2.6200214055742284,0.009682986737710913,0.0,127.0999725390042,-0.0016615776058793875,50.13002555249917,-44.99999063801583
1682119419.275602,2.6200214055742284,0.009682986737710913,0.0,127.0999725390042,-0.0016615776058793875,50.13002555249917,-44.99999063801583
1682119419.3695269,2.6200214055742284,0.009682986737710913,0.0,127.0999725390042,-0.0016615776058793875,50.13002555249917,-44.99999063801583
1682119419.4542801,2.6200214055742284,0.009682986737710913,0.0,127.0999725390042,-0.0016615776058793875,50.13002555249917,-44.99999063801583
1682119419.5363195,2.6200214055742284,0.009682986737710913,0.0,127.0999725390042,-0.0016615776058793875,50.13002555249917,-44.99999063801583
1682119419.623316,2.6200214055742284,0.009682986737710913,0.0,127.0999725390042,-0.0016615776058793875,50.13002555249917,-44.99999063801583
1682119419.7129366,2.6200214055742284,0.009682986737710913,0.0,127.0999725390042,-0.0016615776058793875,50.13002555249917,-44.99999063801583
1682119419.8043325,2.6200214055742284,0.009682986737710913,0.0,127.0999725390042,-0.0016615776058793875,50.13002555249917,-44.99999063801583
1682119419.8887124,2.6200214055742284,0.009682986737710913,0.0,127.0999725390042,-0.0016615776058793875,50.13002555249917,-44.99999063801583
1682119419.967863,2.6200214055742284,0.009682986737710913,0.0,127.0999725390042,-0.0016615776058793875,50.13002555249917,-44.99999063801583
1682119420.0559556,2.6200214055742284,0.009682986737710913,0.0,127.0999725390042,-0.0016615776058793875,50.13002555249917,-44.99999063801583
1682119420.144049,2.6200214055742284,0.009682986737710913,0.0,127.0999725390042,-0.0016615776058793875,50.13002555249917,-44.99999063801583
1682119420.219015,2.6200214055742284,0.009682986737710913,0.0,127.0999725390042,-0.0016615776058793875,50.13002555249917,-44.99999063801583
1682119420.2985926,2.6200214055742284,0.009682986737710913,0.0,127.0999725390042,-0.0016615776058793875,50.13002555249917,-44.99999063801583
1682119420.3839133,2.6200214055742284,0.009682986737710913,0.0,127.0999725390042,-0.0016615776058793875,50.13002555249917,-44.99999063801583
1682119420.4734921,2.6200214055742284,0.009682986737710913,0.0,127.0999725390042,-0.0016615776058793875,50.13002555249917,-44.99999063801583
1682119420.5565174,2.6200214055742284,0.009682986737710913,0.0,127.0999725390042,-0.0016615776058793875,50.13002555249917,-44.99999063801583
1682119420.63778,2.6200214055742284,0.009682986737710913,0.0,127.0999725390042,-0.0016615776058793875,50.13002555249917,-44.99999063801583
1682119420.7299109,2.6200214055742284,0.009682986737710913,0.0,127.0999725390042,-0.0016615776058793875,50.13002555249917,-44.99999063801583
1682119420.8108082,2.6200214055742284,0.009682986737710913,0.0,127.0999725390042,-0.0016615776058793875,50.13002555249917,-44.99999063801583
1682119420.9036944,2.6200214055742284,0.009682986737710913,0.0,127.0999725390042,-0.0016615776058793875,50.13002555249917,-44.99999063801583
1682119420.9882278,2.6200214055742284,0.009682986737710913,0.0,127.0999725390042,-0.0016615776058793875,50.13002555249917,-44.99999063801583
1682119421.0645168,2.6200214055742284,0.009682986737710913,0.0,127.0999725390042,-0.0016615776058793875,50.13002555249917,-44.99999063801583
1682119421.1466696,2.6200214055742284,0.009682986737710913,0.0,127.0999725390042,-0.0016615776058793875,50.13002555249917,-44.99999063801583
1682119421.2199795,2.6200214055742284,0.009682986737710913,0.0,127.0999725390042,-0.0016615776058793875,50.13002555249917,-44.99999063801583
1682119421.2953687,2.6200214055742284,0.009682986737710913,0.0,127.0999725390042,-0.0016615776058793875,50.13002555249917,-44.99999063801583
1682119421.3836648,2.6200214055742284,0.009682986737710913,0.0,127.0999725390042,-0.0016615776058793875,50.13002555249917,-44.99999063801583
1682119421.4612777,2.6200214055742284,0.009682986737710913,0.0,127.0999725390042,-0.0016615776058793875,50.13002555249917,-44.99999063801583
1682119421.5521884,2.6200214055742284,0.009682986737710913,0.0,127.0999725390042,-0.0016615776058793875,50.13002555249917,-44.99999063801583
1682119421.63815,2.6200214055742284,0.009682986737710913,0.0,127.0999725390042,-0.0016615776058793875,50.13002555249917,-44.99999063801583
1682119421.719168,2.6200214055742284,0.009682986737710913,0.0,127.0999725390042,-0.0016615776058793875,50.13002555249917,-44.99999063801583
1682119421.8076363,2.6200214055742284,0.009682986737710913,0.0,127.0999725390042,-0.0016615776058793875,50.13002555249917,-44.99999063801583
1682119421.8919833,2.6200214055742284,0.009682986737710913,0.0,127.0999725390042,-0.0016615776058793875,50.13002555249917,-44.99999063801583
1682119421.9876747,2.6200214055742284,0.009682986737710913,0.0,127.0999725390042,-0.0016615776058793875,50.13002555249917,-44.99999063801583
1682119422.0676882,2.6200214055742284,0.009682986737710913,0.0,127.0999725390042,-0.0016615776058793875,50.13002555249917,-44.99999063801583
1682119422.1474946,2.6200214055742284,0.009682986737710913,0.0,127.0999725390042,-0.0016615776058793875,50.13002555249917,-44.99999063801583
1682119422.22781,2.6200214055742284,0.009682986737710913,0.0,127.0999725390042,-0.0016615776058793875,50.13002555249917,-44.99999063801583
1682119422.3222542,2.6200214055742284,0.009682986737710913,0.0,127.0999725390042,-0.0016615776058793875,50.13002555249917,-44.99999063801583
1682119422.4146485,2.6200214055742284,0.009682986737710913,0.0,127.0999725390042,-0.0016615776058793875,50.13002555249917,-44.99999063801583
1682119422.4951282,2.6200214055742284,0.009682986737710913,0.0,127.0999725390042,-0.0016615776058793875,50.13002555249917,-44.99999063801583
1682119422.585006,2.6200214055742284,0.009682986737710913,0.0,127.0999725390042,-0.0016615776058793875,50.13002555249917,-44.99999063801583
1682119422.6727457,2.6200214055742284,0.009682986737710913,0.0,127.0999725390042,-0.0016615776058793875,50.13002555249917,-44.99999063801583
1682119422.7522128,2.6200214055742284,0.009682986737710913,0.0,127.0999725390042,-0.0016615776058793875,50.13002555249917,-44.99999063801583
1682119422.8301387,2.6200214055742284,0.009682986737710913,0.0,127.0999725390042,-0.0016615776058793875,50.13002555249917,-44.99999063801583
1682119422.9178715,2.6200214055742284,0.009682986737710913,0.0,127.0999725390042,-0.0016615776058793875,50.13002555249917,-44.99999063801583
1682119423.0052102,2.6200214055742284,0.009682986737710913,0.0,127.0999725390042,-0.0016615776058793875,50.13002555249917,-44.99999063801583
1682119423.076755,2.6200214055742284,0.009682986737710913,0.0,127.0999725390042,-0.0016615776058793875,50.13002555249917,-44.99999063801583
1682119423.1709704,2.6200214055742284,0.009682986737710913,0.0,127.0999725390042,-0.0016615776058793875,50.13002555249917,-44.99999063801583
1682119423.2464304,2.6200214055742284,0.009682986737710913,0.0,127.0999725390042,-0.0016615776058793875,50.13002555249917,-44.99999063801583
1682119423.327794,2.6200214055742284,0.009682986737710913,0.0,127.0999725390042,-0.0016615776058793875,50.13002555249917,-44.99999063801583
1682119423.4070632,2.6200214055742284,0.009682986737710913,0.0,127.0999725390042,-0.0016615776058793875,50.13002555249917,-44.99999063801583
1682119423.4831107,2.6200214055742284,0.009682986737710913,0.0,127.0999725390042,-0.0016615776058793875,50.13002555249917,-44.99999063801583
1682119423.5657144,2.6200214055742284,0.009682986737710913,0.0,127.0999725390042,-0.0016615776058793875,50.13002555249917,-44.99999063801583
1682119423.648456,2.6200214055742284,0.009682986737710913,0.0,127.0999725390042,-0.0016615776058793875,50.13002555249917,-44.99999063801583
1682119423.734594,2.6200214055742284,0.009682986737710913,0.0,127.0999725390042,-0.0016615776058793875,50.13002555249917,-44.99999063801583
1682119423.8278522,2.6200214055742284,0.009682986737710913,0.0,127.0999725390042,-0.0016615776058793875,50.13002555249917,-44.99999063801583
1682119423.910212,2.6200214055742284,0.009682986737710913,0.0,127.0999725390042,-0.0016615776058793875,50.13002555249917,-44.99999063801583
1682119423.9924757,2.6200214055742284,0.009682986737710913,0.0,127.0999725390042,-0.0016615776058793875,50.13002555249917,-44.99999063801583
1682119424.0702102,2.6200214055742284,0.009682986737710913,0.0,127.0999725390042,-0.0016615776058793875,50.13002555249917,-44.99999063801583
1682119424.145533,2.6200214055742284,0.009682986737710913,0.0,127.0999725390042,-0.0016615776058793875,50.13002555249917,-44.99999063801583
1682119424.2228057,2.6200214055742284,0.009682986737710913,0.0,127.0999725390042,-0.0016615776058793875,50.13002555249917,-44.99999063801583
1682119424.3022954,2.6200214055742284,0.009682986737710913,0.0,127.0999725390042,-0.0016615776058793875,50.13002555249917,-44.99999063801583
1682119424.3795595,2.6200214055742284,0.009682986737710913,0.0,127.0999725390042,-0.0016615776058793875,50.13002555249917,-44.99999063801583
1682119424.4553926,2.6200214055742284,0.009682986737710913,0.0,127.0999725390042,-0.0016615776058793875,50.13002555249917,-44.99999063801583
1682119424.547235,2.6200214055742284,0.009682986737710913,0.0,127.0999725390042,-0.0016615776058793875,50.13002555249917,-44.99999063801583
1682119424.6270967,2.6200214055742284,0.009682986737710913,0.0,127.0999725390042,-0.0016615776058793875,50.13002555249917,-44.99999063801583
1682119424.7128575,2.6200214055742284,0.009682986737710913,0.0,127.0999725390042,-0.0016615776058793875,50.13002555249917,-44.99999063801583
1682119424.799899,2.6200214055742284,0.009682986737710913,0.0,127.0999725390042,-0.0016615776058793875,50.13002555249917,-44.99999063801583
1682119424.88736,2.6200214055742284,0.009682986737710913,0.0,127.0999725390042,-0.0016615776058793875,50.13002555249917,-44.99999063801583
1682119424.9677467,2.6200214055742284,0.009682986737710913,0.0,127.0999725390042,-0.0016615776058793875,50.13002555249917,-44.99999063801583
1682119425.0583422,2.6200214055742284,0.009682986737710913,0.0,127.0999725390042,-0.0016615776058793875,50.13002555249917,-44.99999063801583
1682119425.138508,2.6200214055742284,0.009682986737710913,0.0,127.0999725390042,-0.0016615776058793875,50.13002555249917,-44.99999063801583
1682119425.2191489,2.6200214055742284,0.009682986737710913,0.0,127.0999725390042,-0.0016615776058793875,50.13002555249917,-44.99999063801583
1682119425.315424,2.6200214055742284,0.009682986737710913,0.0,127.0999725390042,-0.0016615776058793875,50.13002555249917,-44.99999063801583
1682119425.3914897,2.6200214055742284,0.009682986737710913,0.0,127.0999725390042,-0.0016615776058793875,50.13002555249917,-44.99999063801583
1682119425.474298,2.6200214055742284,0.009682986737710913,0.0,127.0999725390042,-0.0016615776058793875,50.13002555249917,-44.99999063801583
1682119425.5547621,2.6200214055742284,0.009682986737710913,0.0,127.0999725390042,-0.0016615776058793875,50.13002555249917,-44.99999063801583
1682119425.6388836,2.6200214055742284,0.009682986737710913,0.0,127.0999725390042,-0.0016615776058793875,50.13002555249917,-44.99999063801583
1682119425.732063,2.6200214055742284,0.009682986737710913,0.0,127.0999725390042,-0.0016615776058793875,50.13002555249917,-44.99999063801583
1682119425.8251169,2.6200214055742284,0.009682986737710913,0.0,127.0999725390042,-0.0016615776058793875,50.13002555249917,-44.99999063801583
1682119425.9151604,2.6200214055742284,0.009682986737710913,0.0,127.0999725390042,-0.0016615776058793875,50.13002555249917,-44.99999063801583
1682119426.016682,2.6200214055742284,0.009682986737710913,0.0,127.0999725390042,-0.0016615776058793875,50.13002555249917,-44.99999063801583
1682119426.1057816,2.6200214055742284,0.009682986737710913,0.0,127.0999725390042,-0.0016615776058793875,50.13002555249917,-44.99999063801583
1682119426.1962538,2.6200214055742284,0.009682986737710913,0.0,127.0999725390042,-0.0016615776058793875,50.13002555249917,-44.99999063801583
1682119426.2853968,2.6200214055742284,0.009682986737710913,0.0,127.0999725390042,-0.0016615776058793875,50.13002555249917,-44.99999063801583
1682119426.3818,2.6200214055742284,0.009682986737710913,0.0,127.0999725390042,-0.0016615776058793875,50.13002555249917,-44.99999063801583
1682119426.453238,2.6200214055742284,0.009682986737710913,0.0,127.0999725390042,-0.0016615776058793875,50.13002555249917,-44.99999063801583
1682119426.5317278,2.6200214055742284,0.009682986737710913,0.0,127.0999725390042,-0.0016615776058793875,50.13002555249917,-44.99999063801583
1682119426.6155305,2.6200214055742284,0.009682986737710913,0.0,127.0999725390042,-0.0016615776058793875,50.13002555249917,-44.99999063801583
1682119426.6953528,2.6200214055742284,0.009682986737710913,0.0,127.0999725390042,-0.0016615776058793875,50.13002555249917,-44.99999063801583
1682119426.7732356,2.6200214055742284,0.009682986737710913,0.0,127.0999725390042,-0.0016615776058793875,50.13002555249917,-44.99999063801583
1682119426.8557308,2.6200214055742284,0.009682986737710913,0.0,127.0999725390042,-0.0016615776058793875,50.13002555249917,-44.99999063801583
1682119426.9646316,2.6200214055742284,0.009682986737710913,0.0,127.0999725390042,-0.0016615776058793875,50.13002555249917,-44.99999063801583
1682119427.0494597,2.6200214055742284,0.009682986737710913,0.0,127.0999725390042,-0.0016615776058793875,50.13002555249917,-44.99999063801583
1682119427.131707,2.6200214055742284,0.009682986737710913,0.0,127.0999725390042,-0.0016615776058793875,50.13002555249917,-44.99999063801583
1682119427.2141192,2.6200214055742284,0.009682986737710913,0.0,127.0999725390042,-0.0016615776058793875,50.13002555249917,-44.99999063801583
1682119427.2974143,2.6200214055742284,0.009682986737710913,0.0,127.0999725390042,-0.0016615776058793875,50.13002555249917,-44.99999063801583
1682119427.3849943,2.6200214055742284,0.009682986737710913,0.0,127.0999725390042,-0.0016615776058793875,50.13002555249917,-44.99999063801583
1682119427.4647677,2.6200214055742284,0.009682986737710913,0.0,127.0999725390042,-0.0016615776058793875,50.13002555249917,-44.99999063801583
1682119427.5426505,2.6200214055742284,0.009682986737710913,0.0,127.0999725390042,-0.0016615776058793875,50.13002555249917,-44.99999063801583
1682119427.6322975,2.6200214055742284,0.009682986737710913,0.0,127.0999725390042,-0.0016615776058793875,50.13002555249917,-44.99999063801583
1682119427.7102177,2.6200214055742284,0.009682986737710913,0.0,127.0999725390042,-0.0016615776058793875,50.13002555249917,-44.99999063801583
1682119427.78861,2.6200214055742284,0.009682986737710913,0.0,127.0999725390042,-0.0016615776058793875,50.13002555249917,-44.99999063801583
1682119427.885275,2.6200214055742284,0.009682986737710913,0.0,127.0999725390042,-0.0016615776058793875,50.13002555249917,-44.99999063801583
1682119427.9745657,2.6200214055742284,0.009682986737710913,0.0,127.0999725390042,-0.0016615776058793875,50.13002555249917,-44.99999063801583
1682119428.069406,2.6200214055742284,0.009682986737710913,0.0,127.0999725390042,-0.0016615776058793875,50.13002555249917,-44.99999063801583
1682119428.1643088,2.6200214055742284,0.009682986737710913,0.0,127.0999725390042,-0.0016615776058793875,50.13002555249917,-44.99999063801583
1682119428.2613988,2.6200214055742284,0.009682986737710913,0.0,127.0999725390042,-0.0016615776058793875,50.13002555249917,-44.99999063801583
1682119428.3501077,2.6200214055742284,0.009682986737710913,0.0,127.0999725390042,-0.0016615776058793875,50.13002555249917,-44.99999063801583
1682119428.4280944,2.6200214055742284,0.009682986737710913,0.0,127.0999725390042,-0.0016615776058793875,50.13002555249917,-44.99999063801583
1682119428.5260053,2.6200214055742284,0.009682986737710913,0.0,127.0999725390042,-0.0016615776058793875,50.13002555249917,-44.99999063801583
1682119428.6107383,2.6200214055742284,0.009682986737710913,0.0,127.0999725390042,-0.0016615776058793875,50.13002555249917,-44.99999063801583
1682119428.693288,2.6200214055742284,0.009682986737710913,0.0,127.0999725390042,-0.0016615776058793875,50.13002555249917,-44.99999063801583
1682119428.7711427,2.6200214055742284,0.009682986737710913,0.0,127.0999725390042,-0.0016615776058793875,50.13002555249917,-44.99999063801583
1682119428.8549292,2.6200214055742284,0.009682986737710913,0.0,127.0999725390042,-0.0016615776058793875,50.13002555249917,-44.99999063801583
1682119428.9314013,2.6200214055742284,0.009682986737710913,0.0,127.0999725390042,-0.0016615776058793875,50.13002555249917,-44.99999063801583
1682119429.0105963,2.6200214055742284,0.009682986737710913,0.0,127.0999725390042,-0.0016615776058793875,50.13002555249917,-44.99999063801583
1682119429.0882378,2.6200214055742284,0.009682986737710913,0.0,127.0999725390042,-0.0016615776058793875,50.13002555249917,-44.99999063801583
1682119429.181278,2.6200214055742284,0.009682986737710913,0.0,127.0999725390042,-0.0016615776058793875,50.13002555249917,-44.99999063801583
1682119429.2733622,2.6200214055742284,0.009682986737710913,0.0,127.0999725390042,-0.0016615776058793875,50.13002555249917,-44.99999063801583
1682119429.3636422,2.6200214055742284,0.009682986737710913,0.0,127.0999725390042,-0.0016615776058793875,50.13002555249917,-44.99999063801583
1682119429.4356925,2.6200214055742284,0.009682986737710913,0.0,127.0999725390042,-0.0016615776058793875,50.13002555249917,-44.99999063801583
1682119429.5080056,2.6200214055742284,0.009682986737710913,0.0,127.0999725390042,-0.0016615776058793875,50.13002555249917,-44.99999063801583
1682119429.59083,2.6200214055742284,0.009682986737710913,0.0,127.0999725390042,-0.0016615776058793875,50.13002555249917,-44.99999063801583
1682119429.6806107,2.6200214055742284,0.009682986737710913,0.0,127.0999725390042,-0.0016615776058793875,50.13002555249917,-44.99999063801583
1682119429.7612762,2.6200214055742284,0.009682986737710913,0.0,127.0999725390042,-0.0016615776058793875,50.13002555249917,-44.99999063801583
1682119429.8533719,2.6200214055742284,0.009682986737710913,0.0,127.0999725390042,-0.0016615776058793875,50.13002555249917,-44.99999063801583
1682119429.9418368,2.6200214055742284,0.009682986737710913,0.0,127.0999725390042,-0.0016615776058793875,50.13002555249917,-44.99999063801583
1682119430.016344,2.6200214055742284,0.009682986737710913,0.0,127.0999725390042,-0.0016615776058793875,50.13002555249917,-44.99999063801583
1682119430.1013708,2.6200214055742284,0.009682986737710913,0.0,127.0999725390042,-0.0016615776058793875,50.13002555249917,-44.99999063801583
1682119430.1815598,2.6200214055742284,0.009682986737710913,0.0,127.0999725390042,-0.0016615776058793875,50.13002555249917,-44.99999063801583
1682119430.268654,2.6200214055742284,0.009682986737710913,0.0,127.0999725390042,-0.0016615776058793875,50.13002555249917,-44.99999063801583
1682119430.349142,2.6200214055742284,0.009682986737710913,0.0,127.0999725390042,-0.0016615776058793875,50.13002555249917,-44.99999063801583
1682119430.419253,2.6200214055742284,0.009682986737710913,0.0,127.0999725390042,-0.0016615776058793875,50.13002555249917,-44.99999063801583
1682119430.4970756,2.6200214055742284,0.009682986737710913,0.0,127.0999725390042,-0.0016615776058793875,50.13002555249917,-44.99999063801583
1682183458.1140788,22.619972681308308,56.340085910804106,0.0,126.99999140375387,-0.0006875493541569879,50.13002555249917,-44.99999063801583
1682183464.1252465,2.6201359971332545,0.00045836623610465854,0.0,127.0999725390042,-0.0,50.13002555249917,-44.99999063801583
1682183464.1255186,2.6201359971332545,0.00045836623610465854,0.0,127.0999725390042,-0.0,50.13002555249917,-44.99999063801583
1682183464.1256745,2.6201359971332545,0.00045836623610465854,0.0,127.0999725390042,-0.0,50.13002555249917,-44.99999063801583
1682183464.1257784,2.6201359971332545,0.00045836623610465854,0.0,127.0999725390042,-0.0,50.13002555249917,-44.99999063801583
1682183464.1258714,2.6201359971332545,0.00045836623610465854,0.0,127.0999725390042,-0.0,50.13002555249917,-44.99999063801583
1682183464.12596,2.6201359971332545,0.00045836623610465854,0.0,127.0999725390042,-0.0,50.13002555249917,-44.99999063801583
1682183464.1260471,2.6201359971332545,0.00045836623610465854,0.0,127.0999725390042,-0.0,50.13002555249917,-44.99999063801583
1682183464.1261337,2.6201359971332545,0.00045836623610465854,0.0,127.0999725390042,-0.0,50.13002555249917,-44.99999063801583
1682183464.126218,2.6201359971332545,0.00045836623610465854,0.0,127.0999725390042,-0.0,50.13002555249917,-44.99999063801583
1682183464.1264703,2.6201359971332545,0.00045836623610465854,0.0,127.0999725390042,-0.0,50.13002555249917,-44.99999063801583
1682183464.1275034,2.6201359971332545,0.00045836623610465854,0.0,127.0999725390042,-0.0,50.13002555249917,-44.99999063801583
1682183464.1286402,2.6201359971332545,0.00045836623610465854,0.0,127.0999725390042,-0.0,50.13002555249917,-44.99999063801583
1682183464.129997,2.6201359971332545,0.00045836623610465854,0.0,127.0999725390042,-0.0,50.13002555249917,-44.99999063801583
1682183464.1310422,2.6201359971332545,0.00045836623610465854,0.0,127.0999725390042,-0.0,50.13002555249917,-44.99999063801583
1682183464.1320038,2.6201359971332545,0.00045836623610465854,0.0,127.0999725390042,-0.0,50.13002555249917,-44.99999063801583
1682183464.1330426,2.6201359971332545,0.00045836623610465854,0.0,127.0999725390042,-0.0,50.13002555249917,-44.99999063801583
1682183464.1337314,2.6201359971332545,0.00045836623610465854,0.0,127.0999725390042,-0.0,50.13002555249917,-44.99999063801583
1682183464.134569,2.6201359971332545,0.00045836623610465854,0.0,127.0999725390042,-0.0,50.13002555249917,-44.99999063801583
1682183464.1350362,2.6201359971332545,0.00045836623610465854,0.0,127.0999725390042,-0.0,50.13002555249917,-44.99999063801583
1682183464.1358624,2.6201359971332545,0.00045836623610465854,0.0,127.0999725390042,-0.0,50.13002555249917,-44.99999063801583
1682183464.1363072,2.6201359971332545,0.00045836623610465854,0.0,127.0999725390042,-0.0,50.13002555249917,-44.99999063801583
1682183464.137084,2.6201359971332545,0.00045836623610465854,0.0,127.0999725390042,-0.0,50.13002555249917,-44.99999063801583
1682183464.138072,2.6201359971332545,0.00045836623610465854,0.0,127.0999725390042,-0.0,50.13002555249917,-44.99999063801583
1682183464.1385934,2.6201359971332545,0.00045836623610465854,0.0,127.0999725390042,-0.0,50.13002555249917,-44.99999063801583
1682183464.1391904,2.6201359971332545,0.00045836623610465854,0.0,127.0999725390042,-0.0,50.13002555249917,-44.99999063801583
1682183464.139914,2.6201359971332545,0.00045836623610465854,0.0,127.0999725390042,-0.0,50.13002555249917,-44.99999063801583
1682183464.1405857,2.6201359971332545,0.00045836623610465854,0.0,127.0999725390042,-0.0,50.13002555249917,-44.99999063801583
1682183464.1412206,2.6201359971332545,0.00045836623610465854,0.0,127.0999725390042,-0.0,50.13002555249917,-44.99999063801583
1682183464.1419625,2.6201359971332545,0.00045836623610465854,0.0,127.0999725390042,-0.0,50.13002555249917,-44.99999063801583
1682183464.1430278,2.6201359971332545,0.00045836623610465854,0.0,127.0999725390042,-0.0,50.13002555249917,-44.99999063801583
1682183464.143942,2.6201359971332545,0.00045836623610465854,0.0,127.0999725390042,-0.0,50.13002555249917,-44.99999063801583
1682183464.1470995,2.6201359971332545,0.00045836623610465854,0.0,127.0999725390042,-0.0,50.13002555249917,-44.99999063801583
1682183464.1509814,2.6201359971332545,0.00045836623610465854,0.0,127.0999725390042,-0.0,50.13002555249917,-44.99999063801583
1682183464.155295,2.6201359971332545,0.00045836623610465854,0.0,127.0999725390042,-0.0,50.13002555249917,-44.99999063801583
1682183464.1591952,2.6201359971332545,0.00045836623610465854,0.0,127.0999725390042,-0.0,50.13002555249917,-44.99999063801583
1682183464.162909,2.6201359971332545,0.00045836623610465854,0.0,127.0999725390042,-0.0,50.13002555249917,-44.99999063801583
1682183464.1678758,2.6201359971332545,0.00045836623610465854,0.0,127.0999725390042,-0.0,50.13002555249917,-44.99999063801583
1682183464.172481,2.6201359971332545,0.00045836623610465854,0.0,127.0999725390042,-0.0,50.13002555249917,-44.99999063801583
1682183464.1810322,2.6201359971332545,0.00045836623610465854,0.0,127.0999725390042,-0.0,50.13002555249917,-44.99999063801583
1682183464.1842718,2.6201359971332545,0.00045836623610465854,0.0,127.0999725390042,-0.0,50.13002555249917,-44.99999063801583
1682183464.1875305,2.6201359971332545,0.00045836623610465854,0.0,127.0999725390042,-0.0,50.13002555249917,-44.99999063801583
1682183464.190059,2.6201359971332545,0.00045836623610465854,0.0,127.0999725390042,-0.0,50.13002555249917,-44.99999063801583
1682183464.1945727,2.6201359971332545,0.00045836623610465854,0.0,127.0999725390042,-0.0,50.13002555249917,-44.99999063801583
1682183464.1988804,2.6201359971332545,0.00045836623610465854,0.0,127.0999725390042,-0.0,50.13002555249917,-44.99999063801583
1682183464.201448,2.6201359971332545,0.00045836623610465854,0.0,127.0999725390042,-0.0,50.13002555249917,-44.99999063801583
1682183464.203433,2.6201359971332545,0.00045836623610465854,0.0,127.0999725390042,-0.0,50.13002555249917,-44.99999063801583
1682183464.2061598,2.6201359971332545,0.00045836623610465854,0.0,127.0999725390042,-0.0,50.13002555249917,-44.99999063801583
1682183464.2113826,2.6201359971332545,0.00045836623610465854,0.0,127.0999725390042,-0.0,50.13002555249917,-44.99999063801583
1682183464.215022,2.6201359971332545,0.00045836623610465854,0.0,127.0999725390042,-0.0,50.13002555249917,-44.99999063801583
1682183464.218927,2.6201359971332545,0.00045836623610465854,0.0,127.0999725390042,-0.0,50.13002555249917,-44.99999063801583
1682183464.2229128,2.6201359971332545,0.00045836623610465854,0.0,127.0999725390042,-0.0,50.13002555249917,-44.99999063801583
1682183464.2257056,2.6201359971332545,0.00045836623610465854,0.0,127.0999725390042,-0.0,50.13002555249917,-44.99999063801583
1682183464.2283492,2.6201359971332545,0.00045836623610465854,0.0,127.0999725390042,-0.0,50.13002555249917,-44.99999063801583
1682183464.2321253,2.6201359971332545,0.00045836623610465854,0.0,127.0999725390042,-0.0,50.13002555249917,-44.99999063801583
1682183464.2354896,2.6201359971332545,0.00045836623610465854,0.0,127.0999725390042,-0.0,50.13002555249917,-44.99999063801583
1682183464.2383125,2.6201359971332545,0.00045836623610465854,0.0,127.0999725390042,-0.0,50.13002555249917,-44.99999063801583
1682183464.2415552,2.6201359971332545,0.00045836623610465854,0.0,127.0999725390042,-0.0,50.13002555249917,-44.99999063801583
1682183464.2461672,2.6201359971332545,0.00045836623610465854,0.0,127.0999725390042,-0.0,50.13002555249917,-44.99999063801583
1682183464.2488666,2.6201359971332545,0.00045836623610465854,0.0,127.0999725390042,-0.0,50.13002555249917,-44.99999063801583
1682183464.2526784,2.6201359971332545,0.00045836623610465854,0.0,127.0999725390042,-0.0,50.13002555249917,-44.99999063801583
1682183464.255994,2.6201359971332545,0.00045836623610465854,0.0,127.0999725390042,-0.0,50.13002555249917,-44.99999063801583
1682183464.2587564,2.6201359971332545,0.00045836623610465854,0.0,127.0999725390042,-0.0,50.13002555249917,-44.99999063801583
1682183464.2628133,2.6201359971332545,0.00045836623610465854,0.0,127.0999725390042,-0.0,50.13002555249917,-44.99999063801583
1682183464.2673697,2.6201359971332545,0.00045836623610465854,0.0,127.0999725390042,-0.0,50.13002555249917,-44.99999063801583
1682183464.2720494,2.6201359971332545,0.00045836623610465854,0.0,127.0999725390042,-0.0,50.13002555249917,-44.99999063801583
1682183464.2754107,2.6201359971332545,0.00045836623610465854,0.0,127.0999725390042,-0.0,50.13002555249917,-44.99999063801583
1682183464.2797906,2.6201359971332545,0.00045836623610465854,0.0,127.0999725390042,-0.0,50.13002555249917,-44.99999063801583
1682183464.283989,2.6201359971332545,0.00045836623610465854,0.0,127.0999725390042,-0.0,50.13002555249917,-44.99999063801583
1682183464.2974036,2.6201359971332545,0.00045836623610465854,0.0,127.0999725390042,-0.0,50.13002555249917,-44.99999063801583
1682183464.3838706,2.6201359971332545,0.00045836623610465854,0.0,127.0999725390042,-0.0,50.13002555249917,-44.99999063801583
1682183464.4598005,2.6201359971332545,0.00045836623610465854,0.0,127.0999725390042,-0.0,50.13002555249917,-44.99999063801583
1682183464.5391273,2.6201359971332545,0.00045836623610465854,0.0,127.0999725390042,-0.0,50.13002555249917,-44.99999063801583
1682183464.6174877,2.6201359971332545,0.00045836623610465854,0.0,127.0999725390042,-0.0,50.13002555249917,-44.99999063801583
1682183464.6977851,2.6201359971332545,0.00045836623610465854,0.0,127.0999725390042,-0.0,50.13002555249917,-44.99999063801583
1682183464.7729156,2.6201359971332545,0.00045836623610465854,0.0,127.0999725390042,-0.0,50.13002555249917,-44.99999063801583
1682183464.854491,2.6201359971332545,0.00045836623610465854,0.0,127.0999725390042,-0.0,50.13002555249917,-44.99999063801583
1682183464.944636,2.6201359971332545,0.00045836623610465854,0.0,127.0999725390042,-0.0,50.13002555249917,-44.99999063801583
1682183465.0167592,2.6201359971332545,0.00045836623610465854,0.0,127.0999725390042,-0.0,50.13002555249917,-44.99999063801583
1682183465.0916023,2.6201359971332545,0.00045836623610465854,0.0,127.0999725390042,-0.0,50.13002555249917,-44.99999063801583
1682183465.1748624,2.6201359971332545,0.00045836623610465854,0.0,127.0999725390042,-0.0,50.13002555249917,-44.99999063801583
1682183465.2506642,2.6201359971332545,0.00045836623610465854,0.0,127.0999725390042,-0.0,50.13002555249917,-44.99999063801583
1682183465.3316927,2.6201359971332545,0.00045836623610465854,0.0,127.0999725390042,-0.0,50.13002555249917,-44.99999063801583
1682183465.40496,2.6201359971332545,0.00045836623610465854,0.0,127.0999725390042,-0.0,50.13002555249917,-44.99999063801583
1682183465.475736,2.6201359971332545,0.00045836623610465854,0.0,127.0999725390042,-0.0,50.13002555249917,-44.99999063801583
1682183465.569405,2.6201359971332545,0.00045836623610465854,0.0,127.0999725390042,-0.0,50.13002555249917,-44.99999063801583
1682183465.644581,2.6201359971332545,0.00045836623610465854,0.0,127.0999725390042,-0.0,50.13002555249917,-44.99999063801583
1682183465.719397,2.6201359971332545,0.00045836623610465854,0.0,127.0999725390042,-0.0,50.13002555249917,-44.99999063801583
1682183465.7939005,2.6201359971332545,0.00045836623610465854,0.0,127.0999725390042,-0.0,50.13002555249917,-44.99999063801583
1682183465.866094,2.6201359971332545,0.00045836623610465854,0.0,127.0999725390042,-0.0,50.13002555249917,-44.99999063801583
1682183465.9302573,2.6201359971332545,0.00045836623610465854,0.0,127.0999725390042,-0.0,50.13002555249917,-44.99999063801583
1682183466.029902,2.6201359971332545,0.00045836623610465854,0.0,127.0999725390042,-0.0,50.13002555249917,-44.99999063801583
1682183466.1102774,2.6201359971332545,0.00045836623610465854,0.0,127.0999725390042,-0.0,50.13002555249917,-44.99999063801583
1682183466.1988122,2.6201359971332545,0.00045836623610465854,0.0,127.0999725390042,-0.0,50.13002555249917,-44.99999063801583
1682183466.2824614,2.6201359971332545,0.00045836623610465854,0.0,127.0999725390042,-0.0,50.13002555249917,-44.99999063801583
1682183466.3575115,2.6201359971332545,0.00045836623610465854,0.0,127.0999725390042,-0.0,50.13002555249917,-44.99999063801583
1682183466.4343116,2.6201359971332545,0.00045836623610465854,0.0,127.0999725390042,-0.0,50.13002555249917,-44.99999063801583
1682183466.515032,2.6201359971332545,0.00045836623610465854,0.0,127.0999725390042,-0.0,50.13002555249917,-44.99999063801583
1682183466.595057,2.6201359971332545,0.00045836623610465854,0.0,127.0999725390042,-0.0,50.13002555249917,-44.99999063801583
1682183466.6808872,2.6201359971332545,0.00045836623610465854,0.0,127.0999725390042,-0.0,50.13002555249917,-44.99999063801583
1682183466.7634249,2.6201359971332545,0.00045836623610465854,0.0,127.0999725390042,-0.0,50.13002555249917,-44.99999063801583
1682183466.851696,2.6201359971332545,0.00045836623610465854,0.0,127.0999725390042,-0.0,50.13002555249917,-44.99999063801583
1682183466.945579,2.6201359971332545,0.00045836623610465854,0.0,127.0999725390042,-0.0,50.13002555249917,-44.99999063801583
1682183467.030527,2.6201359971332545,0.00045836623610465854,0.0,127.0999725390042,-0.0,50.13002555249917,-44.99999063801583
1682183467.1057656,2.6201359971332545,0.00045836623610465854,0.0,127.0999725390042,-0.0,50.13002555249917,-44.99999063801583
1682183467.1834998,2.6201359971332545,0.00045836623610465854,0.0,127.0999725390042,-0.0,50.13002555249917,-44.99999063801583
1682183467.2699172,2.6201359971332545,0.00045836623610465854,0.0,127.0999725390042,-0.0,50.13002555249917,-44.99999063801583
1682183467.3552742,2.6201359971332545,0.00045836623610465854,0.0,127.0999725390042,-0.0,50.13002555249917,-44.99999063801583
1682183467.4450068,2.6201359971332545,0.00045836623610465854,0.0,127.0999725390042,-0.0,50.13002555249917,-44.99999063801583
1682183467.535027,2.6201359971332545,0.00045836623610465854,0.0,127.0999725390042,-0.0,50.13002555249917,-44.99999063801583
1682183467.6107938,2.6201359971332545,0.00045836623610465854,0.0,127.0999725390042,-0.0,50.13002555249917,-44.99999063801583
1682183467.680146,2.6201359971332545,0.00045836623610465854,0.0,127.0999725390042,-0.0,50.13002555249917,-44.99999063801583
1682183467.7586865,2.6201359971332545,0.00045836623610465854,0.0,127.0999725390042,-0.0,50.13002555249917,-44.99999063801583
1682183467.840274,2.6201359971332545,0.00045836623610465854,0.0,127.0999725390042,-0.0,50.13002555249917,-44.99999063801583
1682183467.9385443,2.6201359971332545,0.00045836623610465854,0.0,127.0999725390042,-0.0,50.13002555249917,-44.99999063801583
1682183468.018286,2.6201359971332545,0.00045836623610465854,0.0,127.0999725390042,-0.0,50.13002555249917,-44.99999063801583
1682183468.0986855,2.6201359971332545,0.00045836623610465854,0.0,127.0999725390042,-0.0,50.13002555249917,-44.99999063801583
1682183468.18466,2.6201359971332545,0.00045836623610465854,0.0,127.0999725390042,-0.0,50.13002555249917,-44.99999063801583
1682183468.251278,2.6201359971332545,0.00045836623610465854,0.0,127.0999725390042,-0.0,50.13002555249917,-44.99999063801583
1682183468.3328307,2.6201359971332545,0.00045836623610465854,0.0,127.0999725390042,-0.0,50.13002555249917,-44.99999063801583
1682183468.410749,2.6201359971332545,0.00045836623610465854,0.0,127.0999725390042,-0.0,50.13002555249917,-44.99999063801583
1682183468.5009186,2.6201359971332545,0.00045836623610465854,0.0,127.0999725390042,-0.0,50.13002555249917,-44.99999063801583
1682183468.5867643,2.6201359971332545,0.00045836623610465854,0.0,127.0999725390042,-0.0,50.13002555249917,-44.99999063801583
1682183468.6650672,2.6201359971332545,0.00045836623610465854,0.0,127.0999725390042,-0.0,50.13002555249917,-44.99999063801583
1682183468.7335563,2.6201359971332545,0.00045836623610465854,0.0,127.0999725390042,-0.0,50.13002555249917,-44.99999063801583
1682183468.7979445,2.6201359971332545,0.00045836623610465854,0.0,127.0999725390042,-0.0,50.13002555249917,-44.99999063801583
1682183468.8726115,2.6201359971332545,0.00045836623610465854,0.0,127.0999725390042,-0.0,50.13002555249917,-44.99999063801583
1682183468.952665,2.6201359971332545,0.00045836623610465854,0.0,127.0999725390042,-0.0,50.13002555249917,-44.99999063801583
1682183469.0248072,2.6201359971332545,0.00045836623610465854,0.0,127.0999725390042,-0.0,50.13002555249917,-44.99999063801583
1682183469.1145484,2.6201359971332545,0.00045836623610465854,0.0,127.0999725390042,-0.0,50.13002555249917,-44.99999063801583
1682183469.19213,2.6201359971332545,0.00045836623610465854,0.0,127.0999725390042,-0.0,50.13002555249917,-44.99999063801583
1682183469.2760067,2.6201359971332545,0.00045836623610465854,0.0,127.0999725390042,-0.0,50.13002555249917,-44.99999063801583
1682183469.3559325,2.6201359971332545,0.00045836623610465854,0.0,127.0999725390042,-0.0,50.13002555249917,-44.99999063801583
1682183469.4550977,2.6201359971332545,0.00045836623610465854,0.0,127.0999725390042,-0.0,50.13002555249917,-44.99999063801583
1682183469.5373273,2.6201359971332545,0.00045836623610465854,0.0,127.0999725390042,-0.0,50.13002555249917,-44.99999063801583
1682183469.6187408,2.6201359971332545,0.00045836623610465854,0.0,127.0999725390042,-0.0,50.13002555249917,-44.99999063801583
1682183469.7001016,2.6201359971332545,0.00045836623610465854,0.0,127.0999725390042,-0.0,50.13002555249917,-44.99999063801583
1682183469.779569,2.6201359971332545,0.00045836623610465854,0.0,127.0999725390042,-0.0,50.13002555249917,-44.99999063801583
1682183469.863511,2.6201359971332545,0.00045836623610465854,0.0,127.0999725390042,-0.0,50.13002555249917,-44.99999063801583
1682183469.9587467,2.6201359971332545,0.00045836623610465854,0.0,127.0999725390042,-0.0,50.13002555249917,-44.99999063801583
1682183470.0582104,2.6201359971332545,0.00045836623610465854,0.0,127.0999725390042,-0.0,50.13002555249917,-44.99999063801583
1682183470.1496344,2.6201359971332545,0.00045836623610465854,0.0,127.0999725390042,-0.0,50.13002555249917,-44.99999063801583
1682183470.2351098,2.6201359971332545,0.00045836623610465854,0.0,127.0999725390042,-0.0,50.13002555249917,-44.99999063801583
1682183470.309148,2.6201359971332545,0.00045836623610465854,0.0,127.0999725390042,-0.0,50.13002555249917,-44.99999063801583
1682183470.3770027,2.6201359971332545,0.00045836623610465854,0.0,127.0999725390042,-0.0,50.13002555249917,-44.99999063801583
1682183470.4768407,2.6201359971332545,0.00045836623610465854,0.0,127.0999725390042,-0.0,50.13002555249917,-44.99999063801583
1682183470.5590966,2.6201359971332545,0.00045836623610465854,0.0,127.0999725390042,-0.0,50.13002555249917,-44.99999063801583
1682183470.6565094,2.6201359971332545,0.00045836623610465854,0.0,127.0999725390042,-0.0,50.13002555249917,-44.99999063801583
1682183470.7330818,2.6201359971332545,0.00045836623610465854,0.0,127.0999725390042,-0.0,50.13002555249917,-44.99999063801583
1682183470.8154407,2.6201359971332545,0.00045836623610465854,0.0,127.0999725390042,-0.0,50.13002555249917,-44.99999063801583
1682183470.918859,2.6201359971332545,0.00045836623610465854,0.0,127.0999725390042,-0.0,50.13002555249917,-44.99999063801583
1682183470.9946473,2.6201359971332545,0.00045836623610465854,0.0,127.0999725390042,-0.0,50.13002555249917,-44.99999063801583
1682183471.0752137,2.6201359971332545,0.00045836623610465854,0.0,127.0999725390042,-0.0,50.13002555249917,-44.99999063801583
1682183471.1458127,2.6201359971332545,0.00045836623610465854,0.0,127.0999725390042,-0.0,50.13002555249917,-44.99999063801583
1682183471.2276008,2.6201359971332545,0.00045836623610465854,0.0,127.0999725390042,-0.0,50.13002555249917,-44.99999063801583
1682183471.3027835,2.6201359971332545,0.00045836623610465854,0.0,127.0999725390042,-0.0,50.13002555249917,-44.99999063801583
1682183471.3829663,2.6201359971332545,0.00045836623610465854,0.0,127.0999725390042,-0.0,50.13002555249917,-44.99999063801583
1682183471.4657676,2.6201359971332545,0.00045836623610465854,0.0,127.0999725390042,-0.0,50.13002555249917,-44.99999063801583
1682183471.5382936,2.6201359971332545,0.00045836623610465854,0.0,127.0999725390042,-0.0,50.13002555249917,-44.99999063801583
1682183471.6281404,2.6201359971332545,0.00045836623610465854,0.0,127.0999725390042,-0.0,50.13002555249917,-44.99999063801583
1682183471.7020593,2.6201359971332545,0.00045836623610465854,0.0,127.0999725390042,-0.0,50.13002555249917,-44.99999063801583
1682183471.7830248,2.6201359971332545,0.00045836623610465854,0.0,127.0999725390042,-0.0,50.13002555249917,-44.99999063801583
1682183471.8790398,2.6201359971332545,0.00045836623610465854,0.0,127.0999725390042,-0.0,50.13002555249917,-44.99999063801583
1682183471.9566607,2.6201359971332545,0.00045836623610465854,0.0,127.0999725390042,-0.0,50.13002555249917,-44.99999063801583
1682183472.0457947,2.6201359971332545,0.00045836623610465854,0.0,127.0999725390042,-0.0,50.13002555249917,-44.99999063801583
1682183472.1306732,2.6201359971332545,0.00045836623610465854,0.0,127.0999725390042,-0.0,50.13002555249917,-44.99999063801583
1682183472.2182372,2.6201359971332545,0.00045836623610465854,0.0,127.0999725390042,-0.0,50.13002555249917,-44.99999063801583
1682183472.2990305,2.6201359971332545,0.00045836623610465854,0.0,127.0999725390042,-0.0,50.13002555249917,-44.99999063801583
1682183472.3854804,2.6201359971332545,0.00045836623610465854,0.0,127.0999725390042,-0.0,50.13002555249917,-44.99999063801583
1682183472.478313,2.6201359971332545,0.00045836623610465854,0.0,127.0999725390042,-0.0,50.13002555249917,-44.99999063801583
1682183472.5564032,2.6201359971332545,0.00045836623610465854,0.0,127.0999725390042,-0.0,50.13002555249917,-44.99999063801583
1682183472.6401293,2.6201359971332545,0.00045836623610465854,0.0,127.0999725390042,-0.0,50.13002555249917,-44.99999063801583
1682183472.7273657,2.6201359971332545,0.00045836623610465854,0.0,127.0999725390042,-0.0,50.13002555249917,-44.99999063801583
1682183472.8236682,2.6201359971332545,0.00045836623610465854,0.0,127.0999725390042,-0.0,50.13002555249917,-44.99999063801583
1682183472.909456,2.6201359971332545,0.00045836623610465854,0.0,127.0999725390042,-0.0,50.13002555249917,-44.99999063801583
1682183472.9900548,2.6201359971332545,0.00045836623610465854,0.0,127.0999725390042,-0.0,50.13002555249917,-44.99999063801583
1682183473.143552,2.6201359971332545,0.00045836623610465854,0.0,127.0999725390042,-0.0,50.13002555249917,-44.99999063801583
1682183473.2132215,2.6201359971332545,0.00045836623610465854,0.0,127.0999725390042,-0.0,50.13002555249917,-44.99999063801583
1682183473.347753,2.6201359971332545,0.00045836623610465854,0.0,127.0999725390042,-0.0,50.13002555249917,-44.99999063801583
1682183473.448234,2.6201359971332545,0.00045836623610465854,0.0,127.0999725390042,-0.0,50.13002555249917,-44.99999063801583
1682183473.5500913,2.6201359971332545,0.00045836623610465854,0.0,127.0999725390042,-0.0,50.13002555249917,-44.99999063801583
1682183473.6280253,2.6201359971332545,0.00045836623610465854,0.0,127.0999725390042,-0.0,50.13002555249917,-44.99999063801583
1682183473.709851,2.6201359971332545,0.00045836623610465854,0.0,127.0999725390042,-0.0,50.13002555249917,-44.99999063801583
1682183473.7716997,2.6201359971332545,0.00045836623610465854,0.0,127.0999725390042,-0.0,50.13002555249917,-44.99999063801583
1682183473.8673537,2.6201359971332545,0.00045836623610465854,0.0,127.0999725390042,-0.0,50.13002555249917,-44.99999063801583
1682183473.9566576,2.6201359971332545,0.00045836623610465854,0.0,127.0999725390042,-0.0,50.13002555249917,-44.99999063801583
1682183474.0407782,2.6201359971332545,0.00045836623610465854,0.0,127.0999725390042,-0.0,50.13002555249917,-44.99999063801583
1682183474.137479,2.6201359971332545,0.00045836623610465854,0.0,127.0999725390042,-0.0,50.13002555249917,-44.99999063801583
1682183474.2231662,2.6201359971332545,0.00045836623610465854,0.0,127.0999725390042,-0.0,50.13002555249917,-44.99999063801583
1682183474.3086393,2.6201359971332545,0.00045836623610465854,0.0,127.0999725390042,-0.0,50.13002555249917,-44.99999063801583
1682183474.383654,2.6201359971332545,0.00045836623610465854,0.0,127.0999725390042,-0.0,50.13002555249917,-44.99999063801583
1682183474.4759564,2.6201359971332545,0.00045836623610465854,0.0,127.0999725390042,-0.0,50.13002555249917,-44.99999063801583
1682183474.5528154,2.6201359971332545,0.00045836623610465854,0.0,127.0999725390042,-0.0,50.13002555249917,-44.99999063801583
1682183474.6359992,2.6201359971332545,0.00045836623610465854,0.0,127.0999725390042,-0.0,50.13002555249917,-44.99999063801583
1682183474.7160647,2.6201359971332545,0.00045836623610465854,0.0,127.0999725390042,-0.0,50.13002555249917,-44.99999063801583
1682183474.8069952,2.6201359971332545,0.00045836623610465854,0.0,127.0999725390042,-0.0,50.13002555249917,-44.99999063801583
1682183474.8940964,2.6201359971332545,0.00045836623610465854,0.0,127.0999725390042,-0.0,50.13002555249917,-44.99999063801583
1682183474.967449,2.6201359971332545,0.00045836623610465854,0.0,127.0999725390042,-0.0,50.13002555249917,-44.99999063801583
1682183475.0494268,2.6201359971332545,0.00045836623610465854,0.0,127.0999725390042,-0.0,50.13002555249917,-44.99999063801583
1682183475.1228166,2.6201359971332545,0.00045836623610465854,0.0,127.0999725390042,-0.0,50.13002555249917,-44.99999063801583
1682183475.2077289,2.6201359971332545,0.00045836623610465854,0.0,127.0999725390042,-0.0,50.13002555249917,-44.99999063801583
1682183475.2901614,2.6201359971332545,0.00045836623610465854,0.0,127.0999725390042,-0.0,50.13002555249917,-44.99999063801583
1682183475.3779418,2.6201359971332545,0.00045836623610465854,0.0,127.0999725390042,-0.0,50.13002555249917,-44.99999063801583
1682183475.4724758,2.6201359971332545,0.00045836623610465854,0.0,127.0999725390042,-0.0,50.13002555249917,-44.99999063801583
1682183475.5597897,2.6201359971332545,0.00045836623610465854,0.0,127.0999725390042,-0.0,50.13002555249917,-44.99999063801583
1682183475.6544516,2.6201359971332545,0.00045836623610465854,0.0,127.0999725390042,-0.0,50.13002555249917,-44.99999063801583
1682183475.7377863,2.6201359971332545,0.00045836623610465854,0.0,127.0999725390042,-0.0,50.13002555249917,-44.99999063801583
1682183475.8260713,2.6201359971332545,0.00045836623610465854,0.0,127.0999725390042,-0.0,50.13002555249917,-44.99999063801583
1682183475.9258149,2.6201359971332545,0.00045836623610465854,0.0,127.0999725390042,-0.0,50.13002555249917,-44.99999063801583
1682183476.0274606,2.6201359971332545,0.00045836623610465854,0.0,127.0999725390042,-0.0,50.13002555249917,-44.99999063801583
1682183476.1147254,2.6201359971332545,0.00045836623610465854,0.0,127.0999725390042,-0.0,50.13002555249917,-44.99999063801583
1682183476.1970813,2.6201359971332545,0.00045836623610465854,0.0,127.0999725390042,-0.0,50.13002555249917,-44.99999063801583
1682183476.2907937,2.6201359971332545,0.00045836623610465854,0.0,127.0999725390042,-0.0,50.13002555249917,-44.99999063801583
1682183476.3851779,2.6201359971332545,0.00045836623610465854,0.0,127.0999725390042,-0.0,50.13002555249917,-44.99999063801583
1682183476.4699173,2.6201359971332545,0.00045836623610465854,0.0,127.0999725390042,-0.0,50.13002555249917,-44.99999063801583
1682183476.5430393,2.6201359971332545,0.00045836623610465854,0.0,127.0999725390042,-0.0,50.13002555249917,-44.99999063801583
1682183476.6265166,2.6201359971332545,0.00045836623610465854,0.0,127.0999725390042,-0.0,50.13002555249917,-44.99999063801583
1682183476.7076237,2.6201359971332545,0.00045836623610465854,0.0,127.0999725390042,-0.0,50.13002555249917,-44.99999063801583
1682183476.8006277,2.6201359971332545,0.00045836623610465854,0.0,127.0999725390042,-0.0,50.13002555249917,-44.99999063801583
1682183476.8734214,2.6201359971332545,0.00045836623610465854,0.0,127.0999725390042,-0.0,50.13002555249917,-44.99999063801583
1682183476.9434578,2.6201359971332545,0.00045836623610465854,0.0,127.0999725390042,-0.0,50.13002555249917,-44.99999063801583
1682183477.0250864,2.6201359971332545,0.00045836623610465854,0.0,127.0999725390042,-0.0,50.13002555249917,-44.99999063801583
1682183477.096845,2.6201359971332545,0.00045836623610465854,0.0,127.0999725390042,-0.0,50.13002555249917,-44.99999063801583
1682183477.177629,2.6201359971332545,0.00045836623610465854,0.0,127.0999725390042,-0.0,50.13002555249917,-44.99999063801583
1682183477.2576778,2.6201359971332545,0.00045836623610465854,0.0,127.0999725390042,-0.0,50.13002555249917,-44.99999063801583
1682183477.342577,2.6201359971332545,0.00045836623610465854,0.0,127.0999725390042,-0.0,50.13002555249917,-44.99999063801583
1682183477.4289885,2.6201359971332545,0.00045836623610465854,0.0,127.0999725390042,-0.0,50.13002555249917,-44.99999063801583
1682183477.5050545,2.6201359971332545,0.00045836623610465854,0.0,127.0999725390042,-0.0,50.13002555249917,-44.99999063801583
1682183477.579449,2.6201359971332545,0.00045836623610465854,0.0,127.0999725390042,-0.0,50.13002555249917,-44.99999063801583
1682183477.6611822,2.6201359971332545,0.00045836623610465854,0.0,127.0999725390042,-0.0,50.13002555249917,-44.99999063801583
1682183477.749905,2.6201359971332545,0.00045836623610465854,0.0,127.0999725390042,-0.0,50.13002555249917,-44.99999063801583
1682183477.8249059,2.6201359971332545,0.00045836623610465854,0.0,127.0999725390042,-0.0,50.13002555249917,-44.99999063801583
1682183477.901095,2.6201359971332545,0.00045836623610465854,0.0,127.0999725390042,-0.0,50.13002555249917,-44.99999063801583
1682183477.9843073,2.6201359971332545,0.00045836623610465854,0.0,127.0999725390042,-0.0,50.13002555249917,-44.99999063801583
1682183478.051793,2.6201359971332545,0.00045836623610465854,0.0,127.0999725390042,-0.0,50.13002555249917,-44.99999063801583
1682183478.1265419,2.6201359971332545,0.00045836623610465854,0.0,127.0999725390042,-0.0,50.13002555249917,-44.99999063801583
1682183478.210851,2.6201359971332545,0.00045836623610465854,0.0,127.0999725390042,-0.0,50.13002555249917,-44.99999063801583
1682183478.2902727,2.6201359971332545,0.00045836623610465854,0.0,127.0999725390042,-0.0,50.13002555249917,-44.99999063801583
1682183478.3792136,2.6201359971332545,0.00045836623610465854,0.0,127.0999725390042,-0.0,50.13002555249917,-44.99999063801583
1682183478.4493496,2.6201359971332545,0.00045836623610465854,0.0,127.0999725390042,-0.0,50.13002555249917,-44.99999063801583
1682183478.5225072,2.6201359971332545,0.00045836623610465854,0.0,127.0999725390042,-0.0,50.13002555249917,-44.99999063801583
1682183478.6091933,2.6201359971332545,0.00045836623610465854,0.0,127.0999725390042,-0.0,50.13002555249917,-44.99999063801583
1682183478.700516,2.6201359971332545,0.00045836623610465854,0.0,127.0999725390042,-0.0,50.13002555249917,-44.99999063801583
1682183478.7887964,2.6201359971332545,0.00045836623610465854,0.0,127.0999725390042,-0.0,50.13002555249917,-44.99999063801583
1682183478.868496,2.6201359971332545,0.00045836623610465854,0.0,127.0999725390042,-0.0,50.13002555249917,-44.99999063801583
1682183478.9404073,2.6201359971332545,0.00045836623610465854,0.0,127.0999725390042,-0.0,50.13002555249917,-44.99999063801583
1682183479.0151694,2.6201359971332545,0.00045836623610465854,0.0,127.0999725390042,-0.0,50.13002555249917,-44.99999063801583
1682183479.0993986,2.6201359971332545,0.00045836623610465854,0.0,127.0999725390042,-0.0,50.13002555249917,-44.99999063801583
1682183479.1969423,2.6201359971332545,0.00045836623610465854,0.0,127.0999725390042,-0.0,50.13002555249917,-44.99999063801583
1682183479.2734647,2.6201359971332545,0.00045836623610465854,0.0,127.0999725390042,-0.0,50.13002555249917,-44.99999063801583
1682183479.3564014,2.6201359971332545,0.00045836623610465854,0.0,127.0999725390042,-0.0,50.13002555249917,-44.99999063801583
1682183479.4396808,2.6201359971332545,0.00045836623610465854,0.0,127.0999725390042,-0.0,50.13002555249917,-44.99999063801583
1682183479.517722,2.6201359971332545,0.00045836623610465854,0.0,127.0999725390042,-0.0,50.13002555249917,-44.99999063801583
1682183479.5893497,2.6201359971332545,0.00045836623610465854,0.0,127.0999725390042,-0.0,50.13002555249917,-44.99999063801583
1682183479.67775,2.6201359971332545,0.00045836623610465854,0.0,127.0999725390042,-0.0,50.13002555249917,-44.99999063801583
1682183479.754903,2.6201359971332545,0.00045836623610465854,0.0,127.0999725390042,-0.0,50.13002555249917,-44.99999063801583
1682183479.8309011,2.6201359971332545,0.00045836623610465854,0.0,127.0999725390042,-0.0,50.13002555249917,-44.99999063801583
1682183479.9116786,2.6201359971332545,0.00045836623610465854,0.0,127.0999725390042,-0.0,50.13002555249917,-44.99999063801583
1682183479.9923778,2.6201359971332545,0.00045836623610465854,0.0,127.0999725390042,-0.0,50.13002555249917,-44.99999063801583
1682183480.075435,2.6201359971332545,0.00045836623610465854,0.0,127.0999725390042,-0.0,50.13002555249917,-44.99999063801583
1682183480.1690166,2.6201359971332545,0.00045836623610465854,0.0,127.0999725390042,-0.0,50.13002555249917,-44.99999063801583
1682183480.2460277,2.6201359971332545,0.00045836623610465854,0.0,127.0999725390042,-0.0,50.13002555249917,-44.99999063801583
1682183480.3132079,2.6201359971332545,0.00045836623610465854,0.0,127.0999725390042,-0.0,50.13002555249917,-44.99999063801583
1682183480.3832476,2.6201359971332545,0.00045836623610465854,0.0,127.0999725390042,-0.0,50.13002555249917,-44.99999063801583
