HarrisonEXE/WomboComboOfMedusa/logs/joint_data_arm_4.csv
timestamp,j1,j2,j3,j4,j5,j6,j7
1682116563.212517,-1.8000042091829942,81.79998119945785,0.0,119.99999413330205,-14.99997778074544,50.64998475158039,-44.99999063801583
1682116569.2272758,-1.8000042091829942,0.03053865048047288,0.0,119.99999413330205,-0.005614986392282068,50.64998475158039,-44.99999063801583
1682116569.2282138,-1.8000042091829942,0.03053865048047288,0.0,119.99999413330205,-0.005614986392282068,50.64998475158039,-44.99999063801583
1682116569.2299578,-1.8000042091829942,0.0,0.0,119.99999413330205,-0.0,50.64998475158039,-44.99999063801583
1682116569.231652,-1.8000042091829942,0.0,0.0,119.99999413330205,-0.0,50.64998475158039,-44.99999063801583
1682116569.2324228,-1.8000042091829942,0.0,0.0,119.99999413330205,-0.0,50.64998475158039,-44.99999063801583
1682116569.2332938,-1.8000042091829942,0.0,0.0,119.99999413330205,-0.0,50.64998475158039,-44.99999063801583
1682116569.2345812,-1.8000042091829942,0.0,0.0,119.99999413330205,-0.0,50.64998475158039,-44.99999063801583
1682116569.235316,-1.8000042091829942,0.0,0.0,119.99999413330205,-0.0,50.64998475158039,-44.99999063801583
1682116569.2364564,-1.8000042091829942,0.0,0.0,119.99999413330205,-0.0,50.64998475158039,-44.99999063801583
1682116569.237387,-1.8000042091829942,0.0,0.0,119.99999413330205,-0.0,50.64998475158039,-44.99999063801583
1682116569.2387195,-1.8000042091829942,0.0,0.0,119.99999413330205,-0.0,50.64998475158039,-44.99999063801583
1682116569.2402084,-1.8000042091829942,0.0,0.0,119.99999413330205,-0.0,50.64998475158039,-44.99999063801583
1682116569.2415202,-1.8000042091829942,0.0,0.0,119.99999413330205,-0.0,50.64998475158039,-44.99999063801583
1682116569.2444298,-1.8000042091829942,0.0,0.0,119.99999413330205,-0.0,50.64998475158039,-44.99999063801583
1682116569.2453592,-1.8000042091829942,0.0,0.0,119.99999413330205,-0.0,50.64998475158039,-44.99999063801583
1682116569.2481031,-1.8000042091829942,0.0,0.0,119.99999413330205,-0.0,50.64998475158039,-44.99999063801583
1682116569.2509997,-1.8000042091829942,0.0,0.0,119.99999413330205,-0.0,50.64998475158039,-44.99999063801583
1682116569.2542813,-1.8000042091829942,0.0,0.0,119.99999413330205,-0.0,50.64998475158039,-44.99999063801583
1682116569.2561579,-1.8000042091829942,0.0,0.0,119.99999413330205,-0.0,50.64998475158039,-44.99999063801583
1682116569.2581172,-1.8000042091829942,0.0,0.0,119.99999413330205,-0.0,50.64998475158039,-44.99999063801583
1682116569.261874,-1.8000042091829942,0.0,0.0,119.99999413330205,-0.0,50.64998475158039,-44.99999063801583
1682116569.264492,-1.8000042091829942,0.0,0.0,119.99999413330205,-0.0,50.64998475158039,-44.99999063801583
1682116569.2669508,-1.8000042091829942,0.0,0.0,119.99999413330205,-0.0,50.64998475158039,-44.99999063801583
1682116569.2695258,-1.8000042091829942,0.0,0.0,119.99999413330205,-0.0,50.64998475158039,-44.99999063801583
1682116569.271569,-1.8000042091829942,0.0,0.0,119.99999413330205,-0.0,50.64998475158039,-44.99999063801583
1682116569.2740738,-1.8000042091829942,0.0,0.0,119.99999413330205,-0.0,50.64998475158039,-44.99999063801583
1682116569.275798,-1.8000042091829942,0.0,0.0,119.99999413330205,-0.0,50.64998475158039,-44.99999063801583
1682116569.2774367,-1.8000042091829942,0.0,0.0,119.99999413330205,-0.0,50.64998475158039,-44.99999063801583
1682116569.279317,-1.8000042091829942,0.0,0.0,119.99999413330205,-0.0,50.64998475158039,-44.99999063801583
1682116569.2819247,-1.8000042091829942,0.0,0.0,119.99999413330205,-0.0,50.64998475158039,-44.99999063801583
1682116569.2841334,-1.8000042091829942,0.0,0.0,119.99999413330205,-0.0,50.64998475158039,-44.99999063801583
1682116569.2898211,-1.8000042091829942,0.0,0.0,119.99999413330205,-0.0,50.64998475158039,-44.99999063801583
1682116569.2910862,-1.8000042091829942,0.0,0.0,119.99999413330205,-0.0,50.64998475158039,-44.99999063801583
1682116569.2923908,-1.8000042091829942,0.0,0.0,119.99999413330205,-0.0,50.64998475158039,-44.99999063801583
1682116569.29346,-1.8000042091829942,0.0,0.0,119.99999413330205,-0.0,50.64998475158039,-44.99999063801583
1682116569.293915,-1.8000042091829942,0.0,0.0,119.99999413330205,-0.0,50.64998475158039,-44.99999063801583
1682116569.2941563,-1.8000042091829942,0.0,0.0,119.99999413330205,-0.0,50.64998475158039,-44.99999063801583
1682116569.294362,-1.8000042091829942,0.0,0.0,119.99999413330205,-0.0,50.64998475158039,-44.99999063801583
1682116593.685318,-1.8000042091829942,0.0,0.0,119.99999413330205,-0.0,50.64998475158039,-44.99999063801583
1682116593.7680547,-1.8000042091829942,0.0,0.0,119.99999413330205,-0.0,50.64998475158039,-44.99999063801583
1682116593.8548117,-1.8000042091829942,0.0,0.0,119.99999413330205,-0.0,50.64998475158039,-44.99999063801583
1682116593.9439018,-1.8000042091829942,0.0,0.0,119.99999413330205,-0.0,50.64998475158039,-44.99999063801583
1682116594.0210366,-1.8000042091829942,0.0,0.0,119.99999413330205,-0.0,50.64998475158039,-44.99999063801583
1682116594.123708,-1.8000042091829942,0.0,0.0,119.99999413330205,-0.0,50.64998475158039,-44.99999063801583
1682116594.2061698,-1.8000042091829942,0.0,0.0,119.99999413330205,-0.0,50.64998475158039,-44.99999063801583
1682116594.284139,-1.8000042091829942,0.0,0.0,119.99999413330205,-0.0,50.64998475158039,-44.99999063801583
1682116594.3788784,-1.8000042091829942,0.0,0.0,119.99999413330205,-0.0,50.64998475158039,-44.99999063801583
1682116594.4618535,-1.8000042091829942,0.0,0.0,119.99999413330205,-0.0,50.64998475158039,-44.99999063801583
1682116594.5491242,-1.8000042091829942,0.0,0.0,119.99999413330205,-0.0,50.64998475158039,-44.99999063801583
1682116594.6270769,-1.8000042091829942,0.0,0.0,119.99999413330205,-0.0,50.64998475158039,-44.99999063801583
1682116594.7300992,-1.8000042091829942,0.0,0.0,119.99999413330205,-0.0,50.64998475158039,-44.99999063801583
1682116594.8158848,-1.8000042091829942,0.0,0.0,119.99999413330205,-0.0,50.64998475158039,-44.99999063801583
1682116594.9043007,-1.8000042091829942,0.0,0.0,119.99999413330205,-0.0,50.64998475158039,-44.99999063801583
1682116594.9754534,-1.8000042091829942,0.0,0.0,119.99999413330205,-0.0,50.64998475158039,-44.99999063801583
1682116595.0704324,-1.8000042091829942,0.0,0.0,119.99999413330205,-0.0,50.64998475158039,-44.99999063801583
1682116595.1650338,-1.8000042091829942,0.0,0.0,119.99999413330205,-0.0,50.64998475158039,-44.99999063801583
1682116595.2608228,-1.8000042091829942,0.0,0.0,119.99999413330205,-0.0,50.64998475158039,-44.99999063801583
1682116595.3416204,-1.8000042091829942,0.0,0.0,119.99999413330205,-0.0,50.64998475158039,-44.99999063801583
1682116595.4227972,-1.8000042091829942,0.0,0.0,119.99999413330205,-0.0,50.64998475158039,-44.99999063801583
1682116595.5207524,-1.8000042091829942,0.0,0.0,119.99999413330205,-0.0,50.64998475158039,-44.99999063801583
1682116595.6176996,-1.8000042091829942,0.0,0.0,119.99999413330205,-0.0,50.64998475158039,-44.99999063801583
1682116595.7181158,-1.8000042091829942,0.0,0.0,119.99999413330205,-0.0,50.64998475158039,-44.99999063801583
1682116595.800372,-1.8000042091829942,0.0,0.0,119.99999413330205,-0.0,50.64998475158039,-44.99999063801583
1682116595.8828645,-1.8000042091829942,0.0,0.0,119.99999413330205,-0.0,50.64998475158039,-44.99999063801583
1682116595.973664,-1.8000042091829942,0.0,0.0,119.99999413330205,-0.0,50.64998475158039,-44.99999063801583
1682116596.048803,-1.8000042091829942,0.0,0.0,119.99999413330205,-0.0,50.64998475158039,-44.99999063801583
1682116596.13315,-1.8000042091829942,0.0,0.0,119.99999413330205,-0.0,50.64998475158039,-44.99999063801583
1682116596.1998405,-1.8000042091829942,0.0,0.0,119.99999413330205,-0.0,50.64998475158039,-44.99999063801583
1682116596.2821128,-1.8000042091829942,0.0,0.0,119.99999413330205,-0.0,50.64998475158039,-44.99999063801583
1682116596.3657174,-1.8000042091829942,0.0,0.0,119.99999413330205,-0.0,50.64998475158039,-44.99999063801583
1682116596.45169,-1.8000042091829942,0.0,0.0,119.99999413330205,-0.0,50.64998475158039,-44.99999063801583
1682116596.5329792,-1.8000042091829942,0.0,0.0,119.99999413330205,-0.0,50.64998475158039,-44.99999063801583
1682116596.6035023,-1.8000042091829942,0.0,0.0,119.99999413330205,-0.0,50.64998475158039,-44.99999063801583
1682116596.6845906,-1.8000042091829942,0.0,0.0,119.99999413330205,-0.0,50.64998475158039,-44.99999063801583
1682116596.78087,-1.8000042091829942,0.0,0.0,119.99999413330205,-0.0,50.64998475158039,-44.99999063801583
1682116596.8747826,-1.8000042091829942,0.0,0.0,119.99999413330205,-0.0,50.64998475158039,-44.99999063801583
1682116596.9555383,-1.8000042091829942,0.0,0.0,119.99999413330205,-0.0,50.64998475158039,-44.99999063801583
1682116597.0532355,-1.8000042091829942,0.0,0.0,119.99999413330205,-0.0,50.64998475158039,-44.99999063801583
1682116597.1461525,-1.8000042091829942,0.0,0.0,119.99999413330205,-0.0,50.64998475158039,-44.99999063801583
1682116597.2321906,-1.8000042091829942,0.0,0.0,119.99999413330205,-0.0,50.64998475158039,-44.99999063801583
1682116597.3245666,-1.8000042091829942,0.0,0.0,119.99999413330205,-0.0,50.64998475158039,-44.99999063801583
1682116597.4131255,-1.8000042091829942,0.0,0.0,119.99999413330205,-0.0,50.64998475158039,-44.99999063801583
1682116597.5039408,-1.8000042091829942,0.0,0.0,119.99999413330205,-0.0,50.64998475158039,-44.99999063801583
1682116597.591276,-1.8000042091829942,0.0,0.0,119.99999413330205,-0.0,50.64998475158039,-44.99999063801583
1682116597.6761448,-1.8000042091829942,0.0,0.0,119.99999413330205,-0.0,50.64998475158039,-44.99999063801583
1682116597.7782714,-1.8000042091829942,0.0,0.0,119.99999413330205,-0.0,50.64998475158039,-44.99999063801583
1682116597.866156,-1.8000042091829942,0.0,0.0,119.99999413330205,-0.0,50.64998475158039,-44.99999063801583
1682116597.9506075,-1.8000042091829942,0.0,0.0,119.99999413330205,-0.0,50.64998475158039,-44.99999063801583
1682116598.040202,-1.8000042091829942,0.0,0.0,119.99999413330205,-0.0,50.64998475158039,-44.99999063801583
1682116598.117648,-1.8000042091829942,0.0,0.0,119.99999413330205,-0.0,50.64998475158039,-44.99999063801583
1682116598.22261,-1.8000042091829942,0.0,0.0,119.99999413330205,-0.0,50.64998475158039,-44.99999063801583
1682116598.312351,-1.8000042091829942,0.0,0.0,119.99999413330205,-0.0,50.64998475158039,-44.99999063801583
1682116598.396551,-1.8000042091829942,0.0,0.0,119.99999413330205,-0.0,50.64998475158039,-44.99999063801583
1682116598.490951,-1.8000042091829942,0.0,0.0,119.99999413330205,-0.0,50.64998475158039,-44.99999063801583
1682116598.5761743,-1.8000042091829942,0.0,0.0,119.99999413330205,-0.0,50.64998475158039,-44.99999063801583
1682116598.652239,-1.8000042091829942,0.0,0.0,119.99999413330205,-0.0,50.64998475158039,-44.99999063801583
1682116598.751379,-1.8000042091829942,0.0,0.0,119.99999413330205,-0.0,50.64998475158039,-44.99999063801583
1682116598.8453448,-1.8000042091829942,0.0,0.0,119.99999413330205,-0.0,50.64998475158039,-44.99999063801583
1682116598.9236329,-1.8000042091829942,0.0,0.0,119.99999413330205,-0.0,50.64998475158039,-44.99999063801583
1682116599.0189805,-1.8000042091829942,0.0,0.0,119.99999413330205,-0.0,50.64998475158039,-44.99999063801583
1682116599.1154912,-1.8000042091829942,0.0,0.0,119.99999413330205,-0.0,50.64998475158039,-44.99999063801583
1682116599.2005725,-1.8000042091829942,0.0,0.0,119.99999413330205,-0.0,50.64998475158039,-44.99999063801583
1682116599.2875645,-1.8000042091829942,0.0,0.0,119.99999413330205,-0.0,50.64998475158039,-44.99999063801583
1682116599.3915558,-1.8000042091829942,0.0,0.0,119.99999413330205,-0.0,50.64998475158039,-44.99999063801583
1682116599.4802148,-1.8000042091829942,0.0,0.0,119.99999413330205,-0.0,50.64998475158039,-44.99999063801583
1682116599.564822,-1.8000042091829942,0.0,0.0,119.99999413330205,-0.0,50.64998475158039,-44.99999063801583
1682116599.6589255,-1.8000042091829942,0.0,0.0,119.99999413330205,-0.0,50.64998475158039,-44.99999063801583
1682116599.7481833,-1.8000042091829942,0.0,0.0,119.99999413330205,-0.0,50.64998475158039,-44.99999063801583
1682116599.8374856,-1.8000042091829942,0.0,0.0,119.99999413330205,-0.0,50.64998475158039,-44.99999063801583
1682116599.9155762,-1.8000042091829942,0.0,0.0,119.99999413330205,-0.0,50.64998475158039,-44.99999063801583
1682116600.0142066,-1.8000042091829942,0.0,0.0,119.99999413330205,-0.0,50.64998475158039,-44.99999063801583
1682116600.1035488,-1.8000042091829942,0.0,0.0,119.99999413330205,-0.0,50.64998475158039,-44.99999063801583
1682116600.1955037,-1.8000042091829942,0.0,0.0,119.99999413330205,-0.0,50.64998475158039,-44.99999063801583
1682116600.2777672,-1.8000042091829942,0.0,0.0,119.99999413330205,-0.0,50.64998475158039,-44.99999063801583
1682116600.3542619,-1.8000042091829942,0.0,0.0,119.99999413330205,-0.0,50.64998475158039,-44.99999063801583
1682116600.426313,-1.8000042091829942,0.0,0.0,119.99999413330205,-0.0,50.64998475158039,-44.99999063801583
1682116600.503598,-1.8000042091829942,0.0,0.0,119.99999413330205,-0.0,50.64998475158039,-44.99999063801583
1682116600.5716045,-1.8000042091829942,0.0,0.0,119.99999413330205,-0.0,50.64998475158039,-44.99999063801583
1682116600.6402583,-1.8000042091829942,0.0,0.0,119.99999413330205,-0.0,50.64998475158039,-44.99999063801583
1682116600.7300403,-1.8000042091829942,0.0,0.0,119.99999413330205,-0.0,50.64998475158039,-44.99999063801583
1682116600.808537,-1.8000042091829942,0.0,0.0,119.99999413330205,-0.0,50.64998475158039,-44.99999063801583
1682116600.8911383,-1.8000042091829942,0.0,0.0,119.99999413330205,-0.0,50.64998475158039,-44.99999063801583
1682116600.9778888,-1.8000042091829942,0.0,0.0,119.99999413330205,-0.0,50.64998475158039,-44.99999063801583
1682116601.068399,-1.8000042091829942,0.0,0.0,119.99999413330205,-0.0,50.64998475158039,-44.99999063801583
1682116601.1508906,-1.8000042091829942,0.0,0.0,119.99999413330205,-0.0,50.64998475158039,-44.99999063801583
1682116601.2198567,-1.8000042091829942,0.0,0.0,119.99999413330205,-0.0,50.64998475158039,-44.99999063801583
1682116601.299681,-1.8000042091829942,0.0,0.0,119.99999413330205,-0.0,50.64998475158039,-44.99999063801583
1682116601.379651,-1.8000042091829942,0.0,0.0,119.99999413330205,-0.0,50.64998475158039,-44.99999063801583
1682116601.4652586,-1.8000042091829942,0.0,0.0,119.99999413330205,-0.0,50.64998475158039,-44.99999063801583
1682116601.5567622,-1.8000042091829942,0.0,0.0,119.99999413330205,-0.0,50.64998475158039,-44.99999063801583
1682116601.744232,-1.8000042091829942,0.0,0.0,119.99999413330205,-0.0,50.64998475158039,-44.99999063801583
1682116601.8262486,-1.8000042091829942,0.0,0.0,119.99999413330205,-0.0,50.64998475158039,-44.99999063801583
1682116601.9140399,-1.8000042091829942,0.0,0.0,119.99999413330205,-0.0,50.64998475158039,-44.99999063801583
1682116601.9854486,-1.8000042091829942,0.0,0.0,119.99999413330205,-0.0,50.64998475158039,-44.99999063801583
1682116602.0672412,-1.8000042091829942,0.0,0.0,119.99999413330205,-0.0,50.64998475158039,-44.99999063801583
1682116602.1582441,-1.8000042091829942,0.0,0.0,119.99999413330205,-0.0,50.64998475158039,-44.99999063801583
1682116602.2346358,-1.8000042091829942,0.0,0.0,119.99999413330205,-0.0,50.64998475158039,-44.99999063801583
1682116602.324145,-1.8000042091829942,0.0,0.0,119.99999413330205,-0.0,50.64998475158039,-44.99999063801583
1682116602.408933,-1.8000042091829942,0.0,0.0,119.99999413330205,-0.0,50.64998475158039,-44.99999063801583
1682116602.4857898,-1.8000042091829942,0.0,0.0,119.99999413330205,-0.0,50.64998475158039,-44.99999063801583
1682116602.5843544,-1.8000042091829942,0.0,0.0,119.99999413330205,-0.0,50.64998475158039,-44.99999063801583
1682116602.6606882,-1.8000042091829942,0.0,0.0,119.99999413330205,-0.0,50.64998475158039,-44.99999063801583
1682116602.7417192,-1.8000042091829942,0.0,0.0,119.99999413330205,-0.0,50.64998475158039,-44.99999063801583
1682116602.8376043,-1.8000042091829942,0.0,0.0,119.99999413330205,-0.0,50.64998475158039,-44.99999063801583
1682116602.9276655,-1.8000042091829942,0.0,0.0,119.99999413330205,-0.0,50.64998475158039,-44.99999063801583
1682116603.0104203,-1.8000042091829942,0.0,0.0,119.99999413330205,-0.0,50.64998475158039,-44.99999063801583
1682116603.0928185,-1.8000042091829942,0.0,0.0,119.99999413330205,-0.0,50.64998475158039,-44.99999063801583
1682116603.179787,-1.8000042091829942,0.0,0.0,119.99999413330205,-0.0,50.64998475158039,-44.99999063801583
1682116603.2671351,-1.8000042091829942,0.0,0.0,119.99999413330205,-0.0,50.64998475158039,-44.99999063801583
1682116603.3599946,-1.8000042091829942,0.0,0.0,119.99999413330205,-0.0,50.64998475158039,-44.99999063801583
1682116603.4452581,-1.8000042091829942,0.0,0.0,119.99999413330205,-0.0,50.64998475158039,-44.99999063801583
1682116603.5256796,-1.8000042091829942,0.0,0.0,119.99999413330205,-0.0,50.64998475158039,-44.99999063801583
1682116603.6228356,-1.8000042091829942,0.0,0.0,119.99999413330205,-0.0,50.64998475158039,-44.99999063801583
1682116603.6993544,-1.8000042091829942,0.0,0.0,119.99999413330205,-0.0,50.64998475158039,-44.99999063801583
1682116603.776175,-1.8000042091829942,0.0,0.0,119.99999413330205,-0.0,50.64998475158039,-44.99999063801583
1682116603.8651197,-1.8000042091829942,0.0,0.0,119.99999413330205,-0.0,50.64998475158039,-44.99999063801583
1682116603.9469757,-1.8000042091829942,0.0,0.0,119.99999413330205,-0.0,50.64998475158039,-44.99999063801583
1682116604.0416825,-1.8000042091829942,0.0,0.0,119.99999413330205,-0.0,50.64998475158039,-44.99999063801583
1682116604.1223037,-1.8000042091829942,0.0,0.0,119.99999413330205,-0.0,50.64998475158039,-44.99999063801583
1682116604.2223263,-1.8000042091829942,0.0,0.0,119.99999413330205,-0.0,50.64998475158039,-44.99999063801583
1682116604.318491,-1.8000042091829942,0.0,0.0,119.99999413330205,-0.0,50.64998475158039,-44.99999063801583
1682116604.4038649,-1.8000042091829942,0.0,0.0,119.99999413330205,-0.0,50.64998475158039,-44.99999063801583
1682116604.4866447,-1.8000042091829942,0.0,0.0,119.99999413330205,-0.0,50.64998475158039,-44.99999063801583
1682116604.57956,-1.8000042091829942,0.0,0.0,119.99999413330205,-0.0,50.64998475158039,-44.99999063801583
1682116604.6592326,-1.8000042091829942,0.0,0.0,119.99999413330205,-0.0,50.64998475158039,-44.99999063801583
1682116604.7550182,-1.8000042091829942,0.0,0.0,119.99999413330205,-0.0,50.64998475158039,-44.99999063801583
1682116604.8321688,-1.8000042091829942,0.0,0.0,119.99999413330205,-0.0,50.64998475158039,-44.99999063801583
1682116604.9140732,-1.8000042091829942,0.0,0.0,119.99999413330205,-0.0,50.64998475158039,-44.99999063801583
1682116604.9843616,-1.8000042091829942,0.0,0.0,119.99999413330205,-0.0,50.64998475158039,-44.99999063801583
1682118328.3230088,-1.8000042091829942,81.79998119945785,0.0,119.99999413330205,-14.99997778074544,50.64998475158039,-44.99999063801583
1682118334.3331985,-1.8000042091829942,0.009224620501606254,0.0,119.99999413330205,-0.0016615776058793875,50.64998475158039,-44.99999063801583
1682118334.334692,-1.8000042091829942,0.009224620501606254,0.0,119.99999413330205,-0.0016615776058793875,50.64998475158039,-44.99999063801583
1682118334.3360367,-1.8000042091829942,0.009224620501606254,0.0,119.99999413330205,-0.0016615776058793875,50.64998475158039,-44.99999063801583
1682118334.3369172,-1.8000042091829942,0.009224620501606254,0.0,119.99999413330205,-0.0016615776058793875,50.64998475158039,-44.99999063801583
1682118334.3381994,-1.8000042091829942,0.009224620501606254,0.0,119.99999413330205,-0.0016615776058793875,50.64998475158039,-44.99999063801583
1682118334.339036,-1.8000042091829942,0.009224620501606254,0.0,119.99999413330205,-0.0016615776058793875,50.64998475158039,-44.99999063801583
1682118334.339741,-1.8000042091829942,0.009224620501606254,0.0,119.99999413330205,-0.0016615776058793875,50.64998475158039,-44.99999063801583
1682118334.34075,-1.8000042091829942,0.009224620501606254,0.0,119.99999413330205,-0.0016615776058793875,50.64998475158039,-44.99999063801583
1682118334.3419216,-1.8000042091829942,0.009224620501606254,0.0,119.99999413330205,-0.0016615776058793875,50.64998475158039,-44.99999063801583
1682118334.3429563,-1.8000042091829942,0.009224620501606254,0.0,119.99999413330205,-0.0016615776058793875,50.64998475158039,-44.99999063801583
1682118334.3440013,-1.8000042091829942,0.009224620501606254,0.0,119.99999413330205,-0.0016615776058793875,50.64998475158039,-44.99999063801583
1682118334.3459115,-1.8000042091829942,0.009224620501606254,0.0,119.99999413330205,-0.0016615776058793875,50.64998475158039,-44.99999063801583
1682118334.3465137,-1.8000042091829942,0.009224620501606254,0.0,119.99999413330205,-0.0016615776058793875,50.64998475158039,-44.99999063801583
1682118334.34705,-1.8000042091829942,0.009224620501606254,0.0,119.99999413330205,-0.0016615776058793875,50.64998475158039,-44.99999063801583
1682118334.3476243,-1.8000042091829942,0.009224620501606254,0.0,119.99999413330205,-0.0016615776058793875,50.64998475158039,-44.99999063801583
1682118334.349092,-1.8000042091829942,0.009224620501606254,0.0,119.99999413330205,-0.0016615776058793875,50.64998475158039,-44.99999063801583
1682118334.3511643,-1.8000042091829942,0.009224620501606254,0.0,119.99999413330205,-0.0016615776058793875,50.64998475158039,-44.99999063801583
1682118334.3518462,-1.8000042091829942,0.009224620501606254,0.0,119.99999413330205,-0.0016615776058793875,50.64998475158039,-44.99999063801583
1682118334.352624,-1.8000042091829942,0.009224620501606254,0.0,119.99999413330205,-0.0016615776058793875,50.64998475158039,-44.99999063801583
1682118334.353077,-1.8000042091829942,0.009224620501606254,0.0,119.99999413330205,-0.0016615776058793875,50.64998475158039,-44.99999063801583
1682118334.353583,-1.8000042091829942,0.009224620501606254,0.0,119.99999413330205,-0.0016615776058793875,50.64998475158039,-44.99999063801583
1682118334.3542988,-1.8000042091829942,0.009224620501606254,0.0,119.99999413330205,-0.0016615776058793875,50.64998475158039,-44.99999063801583
1682118334.3551023,-1.8000042091829942,0.009224620501606254,0.0,119.99999413330205,-0.0016615776058793875,50.64998475158039,-44.99999063801583
1682119406.5096443,-1.8000042091829942,81.79998119945785,0.0,119.99999413330205,-14.99997778074544,50.64998475158039,-44.99999063801583
1682119412.5180423,-1.8000042091829942,0.014896902673401402,0.0,119.99999413330205,-0.0027501974166279516,50.64998475158039,-44.99999063801583
1682119412.518517,-1.8000042091829942,0.014896902673401402,0.0,119.99999413330205,-0.0027501974166279516,50.64998475158039,-44.99999063801583
1682119412.5186486,-1.8000042091829942,0.014896902673401402,0.0,119.99999413330205,-0.0027501974166279516,50.64998475158039,-44.99999063801583
1682119412.5187514,-1.8000042091829942,0.014896902673401402,0.0,119.99999413330205,-0.0027501974166279516,50.64998475158039,-44.99999063801583
1682119412.5188873,-1.8000042091829942,0.014896902673401402,0.0,119.99999413330205,-0.0027501974166279516,50.64998475158039,-44.99999063801583
1682119412.5189805,-1.8000042091829942,0.014896902673401402,0.0,119.99999413330205,-0.0027501974166279516,50.64998475158039,-44.99999063801583
1682119412.519069,-1.8000042091829942,0.014896902673401402,0.0,119.99999413330205,-0.0027501974166279516,50.64998475158039,-44.99999063801583
1682119412.5191557,-1.8000042091829942,0.014896902673401402,0.0,119.99999413330205,-0.0027501974166279516,50.64998475158039,-44.99999063801583
1682119412.5192425,-1.8000042091829942,0.014896902673401402,0.0,119.99999413330205,-0.0027501974166279516,50.64998475158039,-44.99999063801583
1682119412.51966,-1.8000042091829942,0.014896902673401402,0.0,119.99999413330205,-0.0027501974166279516,50.64998475158039,-44.99999063801583
1682119412.5198827,-1.8000042091829942,0.014896902673401402,0.0,119.99999413330205,-0.0027501974166279516,50.64998475158039,-44.99999063801583
1682119412.520088,-1.8000042091829942,0.014896902673401402,0.0,119.99999413330205,-0.0027501974166279516,50.64998475158039,-44.99999063801583
1682119412.5202916,-1.8000042091829942,0.014896902673401402,0.0,119.99999413330205,-0.0027501974166279516,50.64998475158039,-44.99999063801583
1682119412.5203803,-1.8000042091829942,0.014896902673401402,0.0,119.99999413330205,-0.0027501974166279516,50.64998475158039,-44.99999063801583
1682119412.5204659,-1.8000042091829942,0.014896902673401402,0.0,119.99999413330205,-0.0027501974166279516,50.64998475158039,-44.99999063801583
1682119412.5205507,-1.8000042091829942,0.014896902673401402,0.0,119.99999413330205,-0.0027501974166279516,50.64998475158039,-44.99999063801583
1682119412.5206354,-1.8000042091829942,0.014896902673401402,0.0,119.99999413330205,-0.0027501974166279516,50.64998475158039,-44.99999063801583
1682119412.5207489,-1.8000042091829942,0.014896902673401402,0.0,119.99999413330205,-0.0027501974166279516,50.64998475158039,-44.99999063801583
1682119412.5208354,-1.8000042091829942,0.014896902673401402,0.0,119.99999413330205,-0.0027501974166279516,50.64998475158039,-44.99999063801583
1682119412.520941,-1.8000042091829942,0.014896902673401402,0.0,119.99999413330205,-0.0027501974166279516,50.64998475158039,-44.99999063801583
1682119412.5210278,-1.8000042091829942,0.014896902673401402,0.0,119.99999413330205,-0.0027501974166279516,50.64998475158039,-44.99999063801583
1682119412.5211465,-1.8000042091829942,0.014896902673401402,0.0,119.99999413330205,-0.0027501974166279516,50.64998475158039,-44.99999063801583
1682119412.521418,-1.8000042091829942,0.014896902673401402,0.0,119.99999413330205,-0.0027501974166279516,50.64998475158039,-44.99999063801583
1682119412.5216947,-1.8000042091829942,0.014896902673401402,0.0,119.99999413330205,-0.0027501974166279516,50.64998475158039,-44.99999063801583
1682119412.5220585,-1.8000042091829942,0.014896902673401402,0.0,119.99999413330205,-0.0027501974166279516,50.64998475158039,-44.99999063801583
1682119412.52279,-1.8000042091829942,0.014896902673401402,0.0,119.99999413330205,-0.0027501974166279516,50.64998475158039,-44.99999063801583
1682119412.5251882,-1.8000042091829942,0.014896902673401402,0.0,119.99999413330205,-0.0027501974166279516,50.64998475158039,-44.99999063801583
1682119412.5262558,-1.8000042091829942,0.014896902673401402,0.0,119.99999413330205,-0.0027501974166279516,50.64998475158039,-44.99999063801583
1682119412.5282922,-1.8000042091829942,0.014896902673401402,0.0,119.99999413330205,-0.0027501974166279516,50.64998475158039,-44.99999063801583
1682119412.5301223,-1.8000042091829942,0.014896902673401402,0.0,119.99999413330205,-0.0027501974166279516,50.64998475158039,-44.99999063801583
1682119412.5312433,-1.8000042091829942,0.014896902673401402,0.0,119.99999413330205,-0.0027501974166279516,50.64998475158039,-44.99999063801583
1682119412.5319169,-1.8000042091829942,0.014896902673401402,0.0,119.99999413330205,-0.0027501974166279516,50.64998475158039,-44.99999063801583
1682119412.5326743,-1.8000042091829942,0.014896902673401402,0.0,119.99999413330205,-0.0027501974166279516,50.64998475158039,-44.99999063801583
1682119412.5331452,-1.8000042091829942,0.014896902673401402,0.0,119.99999413330205,-0.0027501974166279516,50.64998475158039,-44.99999063801583
1682119412.5336528,-1.8000042091829942,0.014896902673401402,0.0,119.99999413330205,-0.0027501974166279516,50.64998475158039,-44.99999063801583
1682119412.534209,-1.8000042091829942,0.014896902673401402,0.0,119.99999413330205,-0.0027501974166279516,50.64998475158039,-44.99999063801583
1682119412.534605,-1.8000042091829942,0.014896902673401402,0.0,119.99999413330205,-0.0027501974166279516,50.64998475158039,-44.99999063801583
1682119412.5352476,-1.8000042091829942,0.014896902673401402,0.0,119.99999413330205,-0.0027501974166279516,50.64998475158039,-44.99999063801583
1682119412.5358436,-1.8000042091829942,0.014896902673401402,0.0,119.99999413330205,-0.0027501974166279516,50.64998475158039,-44.99999063801583
1682119412.5362296,-1.8000042091829942,0.014896902673401402,0.0,119.99999413330205,-0.0027501974166279516,50.64998475158039,-44.99999063801583
1682119412.5368772,-1.8000042091829942,0.014896902673401402,0.0,119.99999413330205,-0.0027501974166279516,50.64998475158039,-44.99999063801583
1682119412.5371723,-1.8000042091829942,0.014896902673401402,0.0,119.99999413330205,-0.0027501974166279516,50.64998475158039,-44.99999063801583
1682119412.5378463,-1.8000042091829942,0.014896902673401402,0.0,119.99999413330205,-0.0027501974166279516,50.64998475158039,-44.99999063801583
1682119412.5395515,-1.8000042091829942,0.014896902673401402,0.0,119.99999413330205,-0.0027501974166279516,50.64998475158039,-44.99999063801583
1682119412.5425708,-1.8000042091829942,0.014896902673401402,0.0,119.99999413330205,-0.0027501974166279516,50.64998475158039,-44.99999063801583
1682119412.5446422,-1.8000042091829942,0.014896902673401402,0.0,119.99999413330205,-0.0027501974166279516,50.64998475158039,-44.99999063801583
1682119412.548038,-1.8000042091829942,0.014896902673401402,0.0,119.99999413330205,-0.0027501974166279516,50.64998475158039,-44.99999063801583
1682119412.5524046,-1.8000042091829942,0.014896902673401402,0.0,119.99999413330205,-0.0027501974166279516,50.64998475158039,-44.99999063801583
1682119412.5564818,-1.8000042091829942,0.014896902673401402,0.0,119.99999413330205,-0.0027501974166279516,50.64998475158039,-44.99999063801583
1682119412.5599527,-1.8000042091829942,0.014896902673401402,0.0,119.99999413330205,-0.0027501974166279516,50.64998475158039,-44.99999063801583
1682119412.5640564,-1.8000042091829942,0.014896902673401402,0.0,119.99999413330205,-0.0027501974166279516,50.64998475158039,-44.99999063801583
1682119412.5692208,-1.8000042091829942,0.014896902673401402,0.0,119.99999413330205,-0.0027501974166279516,50.64998475158039,-44.99999063801583
1682119412.572769,-1.8000042091829942,0.014896902673401402,0.0,119.99999413330205,-0.0027501974166279516,50.64998475158039,-44.99999063801583
1682119412.5764024,-1.8000042091829942,0.014896902673401402,0.0,119.99999413330205,-0.0027501974166279516,50.64998475158039,-44.99999063801583
1682119412.5797927,-1.8000042091829942,0.014896902673401402,0.0,119.99999413330205,-0.0027501974166279516,50.64998475158039,-44.99999063801583
1682119412.5836372,-1.8000042091829942,0.014896902673401402,0.0,119.99999413330205,-0.0027501974166279516,50.64998475158039,-44.99999063801583
1682119412.587176,-1.8000042091829942,0.014896902673401402,0.0,119.99999413330205,-0.0027501974166279516,50.64998475158039,-44.99999063801583
1682119412.5897856,-1.8000042091829942,0.014896902673401402,0.0,119.99999413330205,-0.0027501974166279516,50.64998475158039,-44.99999063801583
1682119412.5951474,-1.8000042091829942,0.014896902673401402,0.0,119.99999413330205,-0.0027501974166279516,50.64998475158039,-44.99999063801583
1682119412.6020834,-1.8000042091829942,0.014896902673401402,0.0,119.99999413330205,-0.0027501974166279516,50.64998475158039,-44.99999063801583
1682119412.607349,-1.8000042091829942,0.014896902673401402,0.0,119.99999413330205,-0.0027501974166279516,50.64998475158039,-44.99999063801583
1682119412.6125937,-1.8000042091829942,0.014896902673401402,0.0,119.99999413330205,-0.0027501974166279516,50.64998475158039,-44.99999063801583
1682119412.617641,-1.8000042091829942,0.014896902673401402,0.0,119.99999413330205,-0.0027501974166279516,50.64998475158039,-44.99999063801583
1682119412.622256,-1.8000042091829942,0.014896902673401402,0.0,119.99999413330205,-0.0027501974166279516,50.64998475158039,-44.99999063801583
1682119412.6394584,-1.8000042091829942,0.014896902673401402,0.0,119.99999413330205,-0.0027501974166279516,50.64998475158039,-44.99999063801583
1682119412.7331655,-1.8000042091829942,0.014896902673401402,0.0,119.99999413330205,-0.0027501974166279516,50.64998475158039,-44.99999063801583
1682119412.82446,-1.8000042091829942,0.014896902673401402,0.0,119.99999413330205,-0.0027501974166279516,50.64998475158039,-44.99999063801583
1682119412.8982198,-1.8000042091829942,0.014896902673401402,0.0,119.99999413330205,-0.0027501974166279516,50.64998475158039,-44.99999063801583
1682119412.9873815,-1.8000042091829942,0.014896902673401402,0.0,119.99999413330205,-0.0027501974166279516,50.64998475158039,-44.99999063801583
1682119413.0727334,-1.8000042091829942,0.014896902673401402,0.0,119.99999413330205,-0.0027501974166279516,50.64998475158039,-44.99999063801583
1682119413.155322,-1.8000042091829942,0.014896902673401402,0.0,119.99999413330205,-0.0027501974166279516,50.64998475158039,-44.99999063801583
1682119413.2458267,-1.8000042091829942,0.014896902673401402,0.0,119.99999413330205,-0.0027501974166279516,50.64998475158039,-44.99999063801583
1682119413.3371387,-1.8000042091829942,0.014896902673401402,0.0,119.99999413330205,-0.0027501974166279516,50.64998475158039,-44.99999063801583
1682119413.4220803,-1.8000042091829942,0.014896902673401402,0.0,119.99999413330205,-0.0027501974166279516,50.64998475158039,-44.99999063801583
1682119413.5148592,-1.8000042091829942,0.014896902673401402,0.0,119.99999413330205,-0.0027501974166279516,50.64998475158039,-44.99999063801583
1682119413.6010542,-1.8000042091829942,0.014896902673401402,0.0,119.99999413330205,-0.0027501974166279516,50.64998475158039,-44.99999063801583
1682119413.6918952,-1.8000042091829942,0.014896902673401402,0.0,119.99999413330205,-0.0027501974166279516,50.64998475158039,-44.99999063801583
1682119413.785114,-1.8000042091829942,0.014896902673401402,0.0,119.99999413330205,-0.0027501974166279516,50.64998475158039,-44.99999063801583
1682119413.8707728,-1.8000042091829942,0.014896902673401402,0.0,119.99999413330205,-0.0027501974166279516,50.64998475158039,-44.99999063801583
1682119413.959236,-1.8000042091829942,0.014896902673401402,0.0,119.99999413330205,-0.0027501974166279516,50.64998475158039,-44.99999063801583
1682119414.0406775,-1.8000042091829942,0.014896902673401402,0.0,119.99999413330205,-0.0027501974166279516,50.64998475158039,-44.99999063801583
1682119414.1212769,-1.8000042091829942,0.014896902673401402,0.0,119.99999413330205,-0.0027501974166279516,50.64998475158039,-44.99999063801583
1682119414.204102,-1.8000042091829942,0.014896902673401402,0.0,119.99999413330205,-0.0027501974166279516,50.64998475158039,-44.99999063801583
1682119414.2956054,-1.8000042091829942,0.014896902673401402,0.0,119.99999413330205,-0.0027501974166279516,50.64998475158039,-44.99999063801583
1682119414.3874207,-1.8000042091829942,0.014896902673401402,0.0,119.99999413330205,-0.0027501974166279516,50.64998475158039,-44.99999063801583
1682119414.4926968,-1.8000042091829942,0.014896902673401402,0.0,119.99999413330205,-0.0027501974166279516,50.64998475158039,-44.99999063801583
1682119414.5754323,-1.8000042091829942,0.014896902673401402,0.0,119.99999413330205,-0.0027501974166279516,50.64998475158039,-44.99999063801583
1682119414.6592164,-1.8000042091829942,0.014896902673401402,0.0,119.99999413330205,-0.0027501974166279516,50.64998475158039,-44.99999063801583
1682119414.7502387,-1.8000042091829942,0.014896902673401402,0.0,119.99999413330205,-0.0027501974166279516,50.64998475158039,-44.99999063801583
1682119414.8323298,-1.8000042091829942,0.014896902673401402,0.0,119.99999413330205,-0.0027501974166279516,50.64998475158039,-44.99999063801583
1682119414.919798,-1.8000042091829942,0.014896902673401402,0.0,119.99999413330205,-0.0027501974166279516,50.64998475158039,-44.99999063801583
1682119415.011217,-1.8000042091829942,0.014896902673401402,0.0,119.99999413330205,-0.0027501974166279516,50.64998475158039,-44.99999063801583
1682119415.0882947,-1.8000042091829942,0.014896902673401402,0.0,119.99999413330205,-0.0027501974166279516,50.64998475158039,-44.99999063801583
1682119415.1663382,-1.8000042091829942,0.014896902673401402,0.0,119.99999413330205,-0.0027501974166279516,50.64998475158039,-44.99999063801583
1682119415.2525578,-1.8000042091829942,0.014896902673401402,0.0,119.99999413330205,-0.0027501974166279516,50.64998475158039,-44.99999063801583
1682119415.3373723,-1.8000042091829942,0.014896902673401402,0.0,119.99999413330205,-0.0027501974166279516,50.64998475158039,-44.99999063801583
1682119415.4180515,-1.8000042091829942,0.014896902673401402,0.0,119.99999413330205,-0.0027501974166279516,50.64998475158039,-44.99999063801583
1682119415.5148396,-1.8000042091829942,0.014896902673401402,0.0,119.99999413330205,-0.0027501974166279516,50.64998475158039,-44.99999063801583
1682119415.6132488,-1.8000042091829942,0.014896902673401402,0.0,119.99999413330205,-0.0027501974166279516,50.64998475158039,-44.99999063801583
1682119415.7050116,-1.8000042091829942,0.014896902673401402,0.0,119.99999413330205,-0.0027501974166279516,50.64998475158039,-44.99999063801583
1682119415.7895596,-1.8000042091829942,0.014896902673401402,0.0,119.99999413330205,-0.0027501974166279516,50.64998475158039,-44.99999063801583
1682119415.875122,-1.8000042091829942,0.014896902673401402,0.0,119.99999413330205,-0.0027501974166279516,50.64998475158039,-44.99999063801583
1682119415.964708,-1.8000042091829942,0.014896902673401402,0.0,119.99999413330205,-0.0027501974166279516,50.64998475158039,-44.99999063801583
1682119416.052318,-1.8000042091829942,0.014896902673401402,0.0,119.99999413330205,-0.0027501974166279516,50.64998475158039,-44.99999063801583
1682119416.140845,-1.8000042091829942,0.014896902673401402,0.0,119.99999413330205,-0.0027501974166279516,50.64998475158039,-44.99999063801583
1682119416.2226784,-1.8000042091829942,0.014896902673401402,0.0,119.99999413330205,-0.0027501974166279516,50.64998475158039,-44.99999063801583
1682119416.3069718,-1.8000042091829942,0.014896902673401402,0.0,119.99999413330205,-0.0027501974166279516,50.64998475158039,-44.99999063801583
1682119416.3892767,-1.8000042091829942,0.014896902673401402,0.0,119.99999413330205,-0.0027501974166279516,50.64998475158039,-44.99999063801583
1682119416.4855747,-1.8000042091829942,0.014896902673401402,0.0,119.99999413330205,-0.0027501974166279516,50.64998475158039,-44.99999063801583
1682119416.5709522,-1.8000042091829942,0.014896902673401402,0.0,119.99999413330205,-0.0027501974166279516,50.64998475158039,-44.99999063801583
1682119416.6641705,-1.8000042091829942,0.014896902673401402,0.0,119.99999413330205,-0.0027501974166279516,50.64998475158039,-44.99999063801583
1682119416.739704,-1.8000042091829942,0.014896902673401402,0.0,119.99999413330205,-0.0027501974166279516,50.64998475158039,-44.99999063801583
1682119416.8274071,-1.8000042091829942,0.014896902673401402,0.0,119.99999413330205,-0.0027501974166279516,50.64998475158039,-44.99999063801583
1682119416.9295835,-1.8000042091829942,0.014896902673401402,0.0,119.99999413330205,-0.0027501974166279516,50.64998475158039,-44.99999063801583
1682119417.0191417,-1.8000042091829942,0.014896902673401402,0.0,119.99999413330205,-0.0027501974166279516,50.64998475158039,-44.99999063801583
1682119417.1052759,-1.8000042091829942,0.014896902673401402,0.0,119.99999413330205,-0.0027501974166279516,50.64998475158039,-44.99999063801583
1682119417.1919994,-1.8000042091829942,0.014896902673401402,0.0,119.99999413330205,-0.0027501974166279516,50.64998475158039,-44.99999063801583
1682119417.2751684,-1.8000042091829942,0.014896902673401402,0.0,119.99999413330205,-0.0027501974166279516,50.64998475158039,-44.99999063801583
1682119417.359482,-1.8000042091829942,0.014896902673401402,0.0,119.99999413330205,-0.0027501974166279516,50.64998475158039,-44.99999063801583
1682119417.445704,-1.8000042091829942,0.014896902673401402,0.0,119.99999413330205,-0.0027501974166279516,50.64998475158039,-44.99999063801583
1682119417.5327623,-1.8000042091829942,0.014896902673401402,0.0,119.99999413330205,-0.0027501974166279516,50.64998475158039,-44.99999063801583
1682119417.621211,-1.8000042091829942,0.014896902673401402,0.0,119.99999413330205,-0.0027501974166279516,50.64998475158039,-44.99999063801583
1682119417.7019558,-1.8000042091829942,0.014896902673401402,0.0,119.99999413330205,-0.0027501974166279516,50.64998475158039,-44.99999063801583
1682119417.7944262,-1.8000042091829942,0.014896902673401402,0.0,119.99999413330205,-0.0027501974166279516,50.64998475158039,-44.99999063801583
1682119417.878347,-1.8000042091829942,0.014896902673401402,0.0,119.99999413330205,-0.0027501974166279516,50.64998475158039,-44.99999063801583
1682119417.9855049,-1.8000042091829942,0.014896902673401402,0.0,119.99999413330205,-0.0027501974166279516,50.64998475158039,-44.99999063801583
1682119418.0753868,-1.8000042091829942,0.014896902673401402,0.0,119.99999413330205,-0.0027501974166279516,50.64998475158039,-44.99999063801583
1682119418.1503375,-1.8000042091829942,0.014896902673401402,0.0,119.99999413330205,-0.0027501974166279516,50.64998475158039,-44.99999063801583
1682119418.239044,-1.8000042091829942,0.014896902673401402,0.0,119.99999413330205,-0.0027501974166279516,50.64998475158039,-44.99999063801583
1682119418.3344936,-1.8000042091829942,0.014896902673401402,0.0,119.99999413330205,-0.0027501974166279516,50.64998475158039,-44.99999063801583
1682119418.4169712,-1.8000042091829942,0.014896902673401402,0.0,119.99999413330205,-0.0027501974166279516,50.64998475158039,-44.99999063801583
1682119418.491737,-1.8000042091829942,0.014896902673401402,0.0,119.99999413330205,-0.0027501974166279516,50.64998475158039,-44.99999063801583
1682119418.586811,-1.8000042091829942,0.014896902673401402,0.0,119.99999413330205,-0.0027501974166279516,50.64998475158039,-44.99999063801583
1682119418.6709955,-1.8000042091829942,0.014896902673401402,0.0,119.99999413330205,-0.0027501974166279516,50.64998475158039,-44.99999063801583
1682119418.7526722,-1.8000042091829942,0.014896902673401402,0.0,119.99999413330205,-0.0027501974166279516,50.64998475158039,-44.99999063801583
1682119418.8330214,-1.8000042091829942,0.014896902673401402,0.0,119.99999413330205,-0.0027501974166279516,50.64998475158039,-44.99999063801583
1682119418.9118574,-1.8000042091829942,0.014896902673401402,0.0,119.99999413330205,-0.0027501974166279516,50.64998475158039,-44.99999063801583
1682119418.9954822,-1.8000042091829942,0.014896902673401402,0.0,119.99999413330205,-0.0027501974166279516,50.64998475158039,-44.99999063801583
1682119419.0858335,-1.8000042091829942,0.014896902673401402,0.0,119.99999413330205,-0.0027501974166279516,50.64998475158039,-44.99999063801583
1682119419.1913714,-1.8000042091829942,0.014896902673401402,0.0,119.99999413330205,-0.0027501974166279516,50.64998475158039,-44.99999063801583
1682119419.2760108,-1.8000042091829942,0.014896902673401402,0.0,119.99999413330205,-0.0027501974166279516,50.64998475158039,-44.99999063801583
1682119419.370088,-1.8000042091829942,0.014896902673401402,0.0,119.99999413330205,-0.0027501974166279516,50.64998475158039,-44.99999063801583
1682119419.4544272,-1.8000042091829942,0.014896902673401402,0.0,119.99999413330205,-0.0027501974166279516,50.64998475158039,-44.99999063801583
1682119419.5364885,-1.8000042091829942,0.014896902673401402,0.0,119.99999413330205,-0.0027501974166279516,50.64998475158039,-44.99999063801583
1682119419.6234586,-1.8000042091829942,0.014896902673401402,0.0,119.99999413330205,-0.0027501974166279516,50.64998475158039,-44.99999063801583
1682119419.7127,-1.8000042091829942,0.014896902673401402,0.0,119.99999413330205,-0.0027501974166279516,50.64998475158039,-44.99999063801583
1682119419.8039932,-1.8000042091829942,0.014896902673401402,0.0,119.99999413330205,-0.0027501974166279516,50.64998475158039,-44.99999063801583
1682119419.8885527,-1.8000042091829942,0.014896902673401402,0.0,119.99999413330205,-0.0027501974166279516,50.64998475158039,-44.99999063801583
1682119419.9680502,-1.8000042091829942,0.014896902673401402,0.0,119.99999413330205,-0.0027501974166279516,50.64998475158039,-44.99999063801583
1682119420.0554333,-1.8000042091829942,0.014896902673401402,0.0,119.99999413330205,-0.0027501974166279516,50.64998475158039,-44.99999063801583
1682119420.144646,-1.8000042091829942,0.014896902673401402,0.0,119.99999413330205,-0.0027501974166279516,50.64998475158039,-44.99999063801583
1682119420.219204,-1.8000042091829942,0.014896902673401402,0.0,119.99999413330205,-0.0027501974166279516,50.64998475158039,-44.99999063801583
1682119420.2987242,-1.8000042091829942,0.014896902673401402,0.0,119.99999413330205,-0.0027501974166279516,50.64998475158039,-44.99999063801583
1682119420.3841202,-1.8000042091829942,0.014896902673401402,0.0,119.99999413330205,-0.0027501974166279516,50.64998475158039,-44.99999063801583
1682119420.4735713,-1.8000042091829942,0.014896902673401402,0.0,119.99999413330205,-0.0027501974166279516,50.64998475158039,-44.99999063801583
1682119420.5564167,-1.8000042091829942,0.014896902673401402,0.0,119.99999413330205,-0.0027501974166279516,50.64998475158039,-44.99999063801583
1682119420.636996,-1.8000042091829942,0.014896902673401402,0.0,119.99999413330205,-0.0027501974166279516,50.64998475158039,-44.99999063801583
1682119420.730624,-1.8000042091829942,0.014896902673401402,0.0,119.99999413330205,-0.0027501974166279516,50.64998475158039,-44.99999063801583
1682119420.8111298,-1.8000042091829942,0.014896902673401402,0.0,119.99999413330205,-0.0027501974166279516,50.64998475158039,-44.99999063801583
1682119420.9035594,-1.8000042091829942,0.014896902673401402,0.0,119.99999413330205,-0.0027501974166279516,50.64998475158039,-44.99999063801583
1682119420.9883575,-1.8000042091829942,0.014896902673401402,0.0,119.99999413330205,-0.0027501974166279516,50.64998475158039,-44.99999063801583
1682119421.064749,-1.8000042091829942,0.014896902673401402,0.0,119.99999413330205,-0.0027501974166279516,50.64998475158039,-44.99999063801583
1682119421.1465929,-1.8000042091829942,0.014896902673401402,0.0,119.99999413330205,-0.0027501974166279516,50.64998475158039,-44.99999063801583
1682119421.2201085,-1.8000042091829942,0.014896902673401402,0.0,119.99999413330205,-0.0027501974166279516,50.64998475158039,-44.99999063801583
1682119421.2952852,-1.8000042091829942,0.014896902673401402,0.0,119.99999413330205,-0.0027501974166279516,50.64998475158039,-44.99999063801583
1682119421.3845263,-1.8000042091829942,0.014896902673401402,0.0,119.99999413330205,-0.0027501974166279516,50.64998475158039,-44.99999063801583
1682119421.4614413,-1.8000042091829942,0.014896902673401402,0.0,119.99999413330205,-0.0027501974166279516,50.64998475158039,-44.99999063801583
1682119421.552633,-1.8000042091829942,0.014896902673401402,0.0,119.99999413330205,-0.0027501974166279516,50.64998475158039,-44.99999063801583
1682119421.6380446,-1.8000042091829942,0.014896902673401402,0.0,119.99999413330205,-0.0027501974166279516,50.64998475158039,-44.99999063801583
1682119421.7194018,-1.8000042091829942,0.014896902673401402,0.0,119.99999413330205,-0.0027501974166279516,50.64998475158039,-44.99999063801583
1682119421.807757,-1.8000042091829942,0.014896902673401402,0.0,119.99999413330205,-0.0027501974166279516,50.64998475158039,-44.99999063801583
1682119421.8921936,-1.8000042091829942,0.014896902673401402,0.0,119.99999413330205,-0.0027501974166279516,50.64998475158039,-44.99999063801583
1682119421.9875548,-1.8000042091829942,0.014896902673401402,0.0,119.99999413330205,-0.0027501974166279516,50.64998475158039,-44.99999063801583
1682119422.0685215,-1.8000042091829942,0.014896902673401402,0.0,119.99999413330205,-0.0027501974166279516,50.64998475158039,-44.99999063801583
1682119422.1476543,-1.8000042091829942,0.014896902673401402,0.0,119.99999413330205,-0.0027501974166279516,50.64998475158039,-44.99999063801583
1682119422.2280312,-1.8000042091829942,0.014896902673401402,0.0,119.99999413330205,-0.0027501974166279516,50.64998475158039,-44.99999063801583
1682119422.3225734,-1.8000042091829942,0.014896902673401402,0.0,119.99999413330205,-0.0027501974166279516,50.64998475158039,-44.99999063801583
1682119422.4151168,-1.8000042091829942,0.014896902673401402,0.0,119.99999413330205,-0.0027501974166279516,50.64998475158039,-44.99999063801583
1682119422.4950325,-1.8000042091829942,0.014896902673401402,0.0,119.99999413330205,-0.0027501974166279516,50.64998475158039,-44.99999063801583
1682119422.585146,-1.8000042091829942,0.014896902673401402,0.0,119.99999413330205,-0.0027501974166279516,50.64998475158039,-44.99999063801583
1682119422.672812,-1.8000042091829942,0.014896902673401402,0.0,119.99999413330205,-0.0027501974166279516,50.64998475158039,-44.99999063801583
1682119422.7523596,-1.8000042091829942,0.014896902673401402,0.0,119.99999413330205,-0.0027501974166279516,50.64998475158039,-44.99999063801583
1682119422.8302472,-1.8000042091829942,0.014896902673401402,0.0,119.99999413330205,-0.0027501974166279516,50.64998475158039,-44.99999063801583
1682119422.917995,-1.8000042091829942,0.014896902673401402,0.0,119.99999413330205,-0.0027501974166279516,50.64998475158039,-44.99999063801583
1682119423.0057812,-1.8000042091829942,0.014896902673401402,0.0,119.99999413330205,-0.0027501974166279516,50.64998475158039,-44.99999063801583
1682119423.076596,-1.8000042091829942,0.014896902673401402,0.0,119.99999413330205,-0.0027501974166279516,50.64998475158039,-44.99999063801583
1682119423.1713147,-1.8000042091829942,0.014896902673401402,0.0,119.99999413330205,-0.0027501974166279516,50.64998475158039,-44.99999063801583
1682119423.2465506,-1.8000042091829942,0.014896902673401402,0.0,119.99999413330205,-0.0027501974166279516,50.64998475158039,-44.99999063801583
1682119423.3277063,-1.8000042091829942,0.014896902673401402,0.0,119.99999413330205,-0.0027501974166279516,50.64998475158039,-44.99999063801583
1682119423.4072022,-1.8000042091829942,0.014896902673401402,0.0,119.99999413330205,-0.0027501974166279516,50.64998475158039,-44.99999063801583
1682119423.4835074,-1.8000042091829942,0.014896902673401402,0.0,119.99999413330205,-0.0027501974166279516,50.64998475158039,-44.99999063801583
1682119423.5654612,-1.8000042091829942,0.014896902673401402,0.0,119.99999413330205,-0.0027501974166279516,50.64998475158039,-44.99999063801583
1682119423.6486588,-1.8000042091829942,0.014896902673401402,0.0,119.99999413330205,-0.0027501974166279516,50.64998475158039,-44.99999063801583
1682119423.7342594,-1.8000042091829942,0.014896902673401402,0.0,119.99999413330205,-0.0027501974166279516,50.64998475158039,-44.99999063801583
1682119423.8277123,-1.8000042091829942,0.014896902673401402,0.0,119.99999413330205,-0.0027501974166279516,50.64998475158039,-44.99999063801583
1682119423.9100165,-1.8000042091829942,0.014896902673401402,0.0,119.99999413330205,-0.0027501974166279516,50.64998475158039,-44.99999063801583
1682119423.9926121,-1.8000042091829942,0.014896902673401402,0.0,119.99999413330205,-0.0027501974166279516,50.64998475158039,-44.99999063801583
1682119424.0699391,-1.8000042091829942,0.014896902673401402,0.0,119.99999413330205,-0.0027501974166279516,50.64998475158039,-44.99999063801583
1682119424.1454496,-1.8000042091829942,0.014896902673401402,0.0,119.99999413330205,-0.0027501974166279516,50.64998475158039,-44.99999063801583
1682119424.2226775,-1.8000042091829942,0.014896902673401402,0.0,119.99999413330205,-0.0027501974166279516,50.64998475158039,-44.99999063801583
1682119424.3022268,-1.8000042091829942,0.014896902673401402,0.0,119.99999413330205,-0.0027501974166279516,50.64998475158039,-44.99999063801583
1682119424.379781,-1.8000042091829942,0.014896902673401402,0.0,119.99999413330205,-0.0027501974166279516,50.64998475158039,-44.99999063801583
1682119424.4556193,-1.8000042091829942,0.014896902673401402,0.0,119.99999413330205,-0.0027501974166279516,50.64998475158039,-44.99999063801583
1682119424.5479877,-1.8000042091829942,0.014896902673401402,0.0,119.99999413330205,-0.0027501974166279516,50.64998475158039,-44.99999063801583
1682119424.6273468,-1.8000042091829942,0.014896902673401402,0.0,119.99999413330205,-0.0027501974166279516,50.64998475158039,-44.99999063801583
1682119424.7131279,-1.8000042091829942,0.014896902673401402,0.0,119.99999413330205,-0.0027501974166279516,50.64998475158039,-44.99999063801583
1682119424.7999854,-1.8000042091829942,0.014896902673401402,0.0,119.99999413330205,-0.0027501974166279516,50.64998475158039,-44.99999063801583
1682119424.8869576,-1.8000042091829942,0.014896902673401402,0.0,119.99999413330205,-0.0027501974166279516,50.64998475158039,-44.99999063801583
1682119424.9680226,-1.8000042091829942,0.014896902673401402,0.0,119.99999413330205,-0.0027501974166279516,50.64998475158039,-44.99999063801583
1682119425.0580723,-1.8000042091829942,0.014896902673401402,0.0,119.99999413330205,-0.0027501974166279516,50.64998475158039,-44.99999063801583
1682119425.1388412,-1.8000042091829942,0.014896902673401402,0.0,119.99999413330205,-0.0027501974166279516,50.64998475158039,-44.99999063801583
1682119425.219104,-1.8000042091829942,0.014896902673401402,0.0,119.99999413330205,-0.0027501974166279516,50.64998475158039,-44.99999063801583
1682119425.31526,-1.8000042091829942,0.014896902673401402,0.0,119.99999413330205,-0.0027501974166279516,50.64998475158039,-44.99999063801583
1682119425.3914247,-1.8000042091829942,0.014896902673401402,0.0,119.99999413330205,-0.0027501974166279516,50.64998475158039,-44.99999063801583
1682119425.4743667,-1.8000042091829942,0.014896902673401402,0.0,119.99999413330205,-0.0027501974166279516,50.64998475158039,-44.99999063801583
1682119425.5547254,-1.8000042091829942,0.014896902673401402,0.0,119.99999413330205,-0.0027501974166279516,50.64998475158039,-44.99999063801583
1682119425.639084,-1.8000042091829942,0.014896902673401402,0.0,119.99999413330205,-0.0027501974166279516,50.64998475158039,-44.99999063801583
1682119425.7323132,-1.8000042091829942,0.014896902673401402,0.0,119.99999413330205,-0.0027501974166279516,50.64998475158039,-44.99999063801583
1682119425.8257751,-1.8000042091829942,0.014896902673401402,0.0,119.99999413330205,-0.0027501974166279516,50.64998475158039,-44.99999063801583
1682119425.9152522,-1.8000042091829942,0.014896902673401402,0.0,119.99999413330205,-0.0027501974166279516,50.64998475158039,-44.99999063801583
1682119426.0167558,-1.8000042091829942,0.014896902673401402,0.0,119.99999413330205,-0.0027501974166279516,50.64998475158039,-44.99999063801583
1682119426.105363,-1.8000042091829942,0.014896902673401402,0.0,119.99999413330205,-0.0027501974166279516,50.64998475158039,-44.99999063801583
1682119426.196426,-1.8000042091829942,0.014896902673401402,0.0,119.99999413330205,-0.0027501974166279516,50.64998475158039,-44.99999063801583
1682119426.2873058,-1.8000042091829942,0.014896902673401402,0.0,119.99999413330205,-0.0027501974166279516,50.64998475158039,-44.99999063801583
1682119426.3816638,-1.8000042091829942,0.014896902673401402,0.0,119.99999413330205,-0.0027501974166279516,50.64998475158039,-44.99999063801583
1682119426.4535356,-1.8000042091829942,0.014896902673401402,0.0,119.99999413330205,-0.0027501974166279516,50.64998475158039,-44.99999063801583
1682119426.531965,-1.8000042091829942,0.014896902673401402,0.0,119.99999413330205,-0.0027501974166279516,50.64998475158039,-44.99999063801583
1682119426.6157253,-1.8000042091829942,0.014896902673401402,0.0,119.99999413330205,-0.0027501974166279516,50.64998475158039,-44.99999063801583
1682119426.6952653,-1.8000042091829942,0.014896902673401402,0.0,119.99999413330205,-0.0027501974166279516,50.64998475158039,-44.99999063801583
1682119426.7735145,-1.8000042091829942,0.014896902673401402,0.0,119.99999413330205,-0.0027501974166279516,50.64998475158039,-44.99999063801583
1682119426.855799,-1.8000042091829942,0.014896902673401402,0.0,119.99999413330205,-0.0027501974166279516,50.64998475158039,-44.99999063801583
1682119426.96508,-1.8000042091829942,0.014896902673401402,0.0,119.99999413330205,-0.0027501974166279516,50.64998475158039,-44.99999063801583
1682119427.049395,-1.8000042091829942,0.014896902673401402,0.0,119.99999413330205,-0.0027501974166279516,50.64998475158039,-44.99999063801583
1682119427.1320496,-1.8000042091829942,0.014896902673401402,0.0,119.99999413330205,-0.0027501974166279516,50.64998475158039,-44.99999063801583
1682119427.2134848,-1.8000042091829942,0.014896902673401402,0.0,119.99999413330205,-0.0027501974166279516,50.64998475158039,-44.99999063801583
1682119427.2982044,-1.8000042091829942,0.014896902673401402,0.0,119.99999413330205,-0.0027501974166279516,50.64998475158039,-44.99999063801583
1682119427.3849254,-1.8000042091829942,0.014896902673401402,0.0,119.99999413330205,-0.0027501974166279516,50.64998475158039,-44.99999063801583
1682119427.4649134,-1.8000042091829942,0.014896902673401402,0.0,119.99999413330205,-0.0027501974166279516,50.64998475158039,-44.99999063801583
1682119427.5429766,-1.8000042091829942,0.014896902673401402,0.0,119.99999413330205,-0.0027501974166279516,50.64998475158039,-44.99999063801583
1682119427.6324904,-1.8000042091829942,0.014896902673401402,0.0,119.99999413330205,-0.0027501974166279516,50.64998475158039,-44.99999063801583
1682119427.7106576,-1.8000042091829942,0.014896902673401402,0.0,119.99999413330205,-0.0027501974166279516,50.64998475158039,-44.99999063801583
1682119427.788878,-1.8000042091829942,0.014896902673401402,0.0,119.99999413330205,-0.0027501974166279516,50.64998475158039,-44.99999063801583
1682119427.8857367,-1.8000042091829942,0.014896902673401402,0.0,119.99999413330205,-0.0027501974166279516,50.64998475158039,-44.99999063801583
1682119427.9744704,-1.8000042091829942,0.014896902673401402,0.0,119.99999413330205,-0.0027501974166279516,50.64998475158039,-44.99999063801583
1682119428.0701847,-1.8000042091829942,0.014896902673401402,0.0,119.99999413330205,-0.0027501974166279516,50.64998475158039,-44.99999063801583
1682119428.1643844,-1.8000042091829942,0.014896902673401402,0.0,119.99999413330205,-0.0027501974166279516,50.64998475158039,-44.99999063801583
1682119428.2616184,-1.8000042091829942,0.014896902673401402,0.0,119.99999413330205,-0.0027501974166279516,50.64998475158039,-44.99999063801583
1682119428.3502665,-1.8000042091829942,0.014896902673401402,0.0,119.99999413330205,-0.0027501974166279516,50.64998475158039,-44.99999063801583
1682119428.4282424,-1.8000042091829942,0.014896902673401402,0.0,119.99999413330205,-0.0027501974166279516,50.64998475158039,-44.99999063801583
1682119428.5259535,-1.8000042091829942,0.014896902673401402,0.0,119.99999413330205,-0.0027501974166279516,50.64998475158039,-44.99999063801583
1682119428.6105735,-1.8000042091829942,0.014896902673401402,0.0,119.99999413330205,-0.0027501974166279516,50.64998475158039,-44.99999063801583
1682119428.6935985,-1.8000042091829942,0.014896902673401402,0.0,119.99999413330205,-0.0027501974166279516,50.64998475158039,-44.99999063801583
1682119428.7712672,-1.8000042091829942,0.014896902673401402,0.0,119.99999413330205,-0.0027501974166279516,50.64998475158039,-44.99999063801583
1682119428.8547983,-1.8000042091829942,0.014896902673401402,0.0,119.99999413330205,-0.0027501974166279516,50.64998475158039,-44.99999063801583
1682119428.931606,-1.8000042091829942,0.014896902673401402,0.0,119.99999413330205,-0.0027501974166279516,50.64998475158039,-44.99999063801583
1682119429.010947,-1.8000042091829942,0.014896902673401402,0.0,119.99999413330205,-0.0027501974166279516,50.64998475158039,-44.99999063801583
1682119429.0886953,-1.8000042091829942,0.014896902673401402,0.0,119.99999413330205,-0.0027501974166279516,50.64998475158039,-44.99999063801583
1682119429.1813533,-1.8000042091829942,0.014896902673401402,0.0,119.99999413330205,-0.0027501974166279516,50.64998475158039,-44.99999063801583
1682119429.2735596,-1.8000042091829942,0.014896902673401402,0.0,119.99999413330205,-0.0027501974166279516,50.64998475158039,-44.99999063801583
1682119429.3643832,-1.8000042091829942,0.014896902673401402,0.0,119.99999413330205,-0.0027501974166279516,50.64998475158039,-44.99999063801583
1682119429.4355128,-1.8000042091829942,0.014896902673401402,0.0,119.99999413330205,-0.0027501974166279516,50.64998475158039,-44.99999063801583
1682119429.508177,-1.8000042091829942,0.014896902673401402,0.0,119.99999413330205,-0.0027501974166279516,50.64998475158039,-44.99999063801583
1682119429.5909173,-1.8000042091829942,0.014896902673401402,0.0,119.99999413330205,-0.0027501974166279516,50.64998475158039,-44.99999063801583
1682119429.6805482,-1.8000042091829942,0.014896902673401402,0.0,119.99999413330205,-0.0027501974166279516,50.64998475158039,-44.99999063801583
1682119429.761468,-1.8000042091829942,0.014896902673401402,0.0,119.99999413330205,-0.0027501974166279516,50.64998475158039,-44.99999063801583
1682119429.8534641,-1.8000042091829942,0.014896902673401402,0.0,119.99999413330205,-0.0027501974166279516,50.64998475158039,-44.99999063801583
1682119429.942102,-1.8000042091829942,0.014896902673401402,0.0,119.99999413330205,-0.0027501974166279516,50.64998475158039,-44.99999063801583
1682119430.0161984,-1.8000042091829942,0.014896902673401402,0.0,119.99999413330205,-0.0027501974166279516,50.64998475158039,-44.99999063801583
1682119430.1012576,-1.8000042091829942,0.014896902673401402,0.0,119.99999413330205,-0.0027501974166279516,50.64998475158039,-44.99999063801583
1682119430.1814957,-1.8000042091829942,0.014896902673401402,0.0,119.99999413330205,-0.0027501974166279516,50.64998475158039,-44.99999063801583
1682119430.268274,-1.8000042091829942,0.014896902673401402,0.0,119.99999413330205,-0.0027501974166279516,50.64998475158039,-44.99999063801583
1682119430.3497562,-1.8000042091829942,0.014896902673401402,0.0,119.99999413330205,-0.0027501974166279516,50.64998475158039,-44.99999063801583
1682119430.4185576,-1.8000042091829942,0.014896902673401402,0.0,119.99999413330205,-0.0027501974166279516,50.64998475158039,-44.99999063801583
1682119430.497569,-1.8000042091829942,0.014896902673401402,0.0,119.99999413330205,-0.0027501974166279516,50.64998475158039,-44.99999063801583
1682183458.114512,18.0699429428359,51.7400942525963,0.0,119.979997906252,-0.0006875493541569879,50.64998475158039,-44.99999063801583
1682183464.1268952,-1.7999469134034811,0.00017188733853924697,0.0,119.99999413330205,-0.0,50.64998475158039,-44.99999063801583
1682183464.1278903,-1.7999469134034811,0.00017188733853924697,0.0,119.99999413330205,-0.0,50.64998475158039,-44.99999063801583
1682183464.1287715,-1.7999469134034811,0.00017188733853924697,0.0,119.99999413330205,-0.0,50.64998475158039,-44.99999063801583
1682183464.1291206,-1.7999469134034811,0.00017188733853924697,0.0,119.99999413330205,-0.0,50.64998475158039,-44.99999063801583
1682183464.1300423,-1.7999469134034811,0.00017188733853924697,0.0,119.99999413330205,-0.0,50.64998475158039,-44.99999063801583
1682183464.13147,-1.7999469134034811,0.00017188733853924697,0.0,119.99999413330205,-0.0,50.64998475158039,-44.99999063801583
1682183464.1327286,-1.7999469134034811,0.00017188733853924697,0.0,119.99999413330205,-0.0,50.64998475158039,-44.99999063801583
1682183464.133465,-1.7999469134034811,0.00017188733853924697,0.0,119.99999413330205,-0.0,50.64998475158039,-44.99999063801583
1682183464.1343386,-1.7999469134034811,0.00017188733853924697,0.0,119.99999413330205,-0.0,50.64998475158039,-44.99999063801583
1682183464.1351757,-1.7999469134034811,0.00017188733853924697,0.0,119.99999413330205,-0.0,50.64998475158039,-44.99999063801583
1682183464.1359403,-1.7999469134034811,0.00017188733853924697,0.0,119.99999413330205,-0.0,50.64998475158039,-44.99999063801583
1682183464.1369956,-1.7999469134034811,0.00017188733853924697,0.0,119.99999413330205,-0.0,50.64998475158039,-44.99999063801583
1682183464.137972,-1.7999469134034811,0.00017188733853924697,0.0,119.99999413330205,-0.0,50.64998475158039,-44.99999063801583
1682183464.1398308,-1.7999469134034811,0.00017188733853924697,0.0,119.99999413330205,-0.0,50.64998475158039,-44.99999063801583
1682183464.1413376,-1.7999469134034811,0.00017188733853924697,0.0,119.99999413330205,-0.0,50.64998475158039,-44.99999063801583
1682183464.1428037,-1.7999469134034811,0.00017188733853924697,0.0,119.99999413330205,-0.0,50.64998475158039,-44.99999063801583
1682183464.1435943,-1.7999469134034811,0.00017188733853924697,0.0,119.99999413330205,-0.0,50.64998475158039,-44.99999063801583
1682183464.147561,-1.7999469134034811,0.00017188733853924697,0.0,119.99999413330205,-0.0,50.64998475158039,-44.99999063801583
1682183464.1520696,-1.7999469134034811,0.00017188733853924697,0.0,119.99999413330205,-0.0,50.64998475158039,-44.99999063801583
1682183464.1583204,-1.7999469134034811,0.00017188733853924697,0.0,119.99999413330205,-0.0,50.64998475158039,-44.99999063801583
1682183464.163042,-1.7999469134034811,0.00017188733853924697,0.0,119.99999413330205,-0.0,50.64998475158039,-44.99999063801583
1682183464.1674469,-1.7999469134034811,0.00017188733853924697,0.0,119.99999413330205,-0.0,50.64998475158039,-44.99999063801583
1682183464.1711419,-1.7999469134034811,0.00017188733853924697,0.0,119.99999413330205,-0.0,50.64998475158039,-44.99999063801583
1682183464.1805406,-1.7999469134034811,0.00017188733853924697,0.0,119.99999413330205,-0.0,50.64998475158039,-44.99999063801583
1682183464.1844335,-1.7999469134034811,0.00017188733853924697,0.0,119.99999413330205,-0.0,50.64998475158039,-44.99999063801583
1682183464.1867204,-1.7999469134034811,0.00017188733853924697,0.0,119.99999413330205,-0.0,50.64998475158039,-44.99999063801583
1682183464.189919,-1.7999469134034811,0.00017188733853924697,0.0,119.99999413330205,-0.0,50.64998475158039,-44.99999063801583
1682183464.1942816,-1.7999469134034811,0.00017188733853924697,0.0,119.99999413330205,-0.0,50.64998475158039,-44.99999063801583
1682183464.1981885,-1.7999469134034811,0.00017188733853924697,0.0,119.99999413330205,-0.0,50.64998475158039,-44.99999063801583
1682183464.20159,-1.7999469134034811,0.00017188733853924697,0.0,119.99999413330205,-0.0,50.64998475158039,-44.99999063801583
1682183464.2036655,-1.7999469134034811,0.00017188733853924697,0.0,119.99999413330205,-0.0,50.64998475158039,-44.99999063801583
1682183464.206636,-1.7999469134034811,0.00017188733853924697,0.0,119.99999413330205,-0.0,50.64998475158039,-44.99999063801583
1682183464.2108345,-1.7999469134034811,0.00017188733853924697,0.0,119.99999413330205,-0.0,50.64998475158039,-44.99999063801583
1682183464.2126327,-1.7999469134034811,0.00017188733853924697,0.0,119.99999413330205,-0.0,50.64998475158039,-44.99999063801583
1682183464.214557,-1.7999469134034811,0.00017188733853924697,0.0,119.99999413330205,-0.0,50.64998475158039,-44.99999063801583
1682183464.2170477,-1.7999469134034811,0.00017188733853924697,0.0,119.99999413330205,-0.0,50.64998475158039,-44.99999063801583
1682183464.2204518,-1.7999469134034811,0.00017188733853924697,0.0,119.99999413330205,-0.0,50.64998475158039,-44.99999063801583
1682183464.2234263,-1.7999469134034811,0.00017188733853924697,0.0,119.99999413330205,-0.0,50.64998475158039,-44.99999063801583
1682183464.2265127,-1.7999469134034811,0.00017188733853924697,0.0,119.99999413330205,-0.0,50.64998475158039,-44.99999063801583
1682183464.2295148,-1.7999469134034811,0.00017188733853924697,0.0,119.99999413330205,-0.0,50.64998475158039,-44.99999063801583
1682183464.2329838,-1.7999469134034811,0.00017188733853924697,0.0,119.99999413330205,-0.0,50.64998475158039,-44.99999063801583
1682183464.236674,-1.7999469134034811,0.00017188733853924697,0.0,119.99999413330205,-0.0,50.64998475158039,-44.99999063801583
1682183464.2406194,-1.7999469134034811,0.00017188733853924697,0.0,119.99999413330205,-0.0,50.64998475158039,-44.99999063801583
1682183464.2439742,-1.7999469134034811,0.00017188733853924697,0.0,119.99999413330205,-0.0,50.64998475158039,-44.99999063801583
1682183464.2470937,-1.7999469134034811,0.00017188733853924697,0.0,119.99999413330205,-0.0,50.64998475158039,-44.99999063801583
1682183464.2496917,-1.7999469134034811,0.00017188733853924697,0.0,119.99999413330205,-0.0,50.64998475158039,-44.99999063801583
1682183464.2531426,-1.7999469134034811,0.00017188733853924697,0.0,119.99999413330205,-0.0,50.64998475158039,-44.99999063801583
1682183464.2561207,-1.7999469134034811,0.00017188733853924697,0.0,119.99999413330205,-0.0,50.64998475158039,-44.99999063801583
1682183464.2604547,-1.7999469134034811,0.00017188733853924697,0.0,119.99999413330205,-0.0,50.64998475158039,-44.99999063801583
1682183464.2632315,-1.7999469134034811,0.00017188733853924697,0.0,119.99999413330205,-0.0,50.64998475158039,-44.99999063801583
1682183464.2670462,-1.7999469134034811,0.00017188733853924697,0.0,119.99999413330205,-0.0,50.64998475158039,-44.99999063801583
1682183464.2727313,-1.7999469134034811,0.00017188733853924697,0.0,119.99999413330205,-0.0,50.64998475158039,-44.99999063801583
1682183464.2756195,-1.7999469134034811,0.00017188733853924697,0.0,119.99999413330205,-0.0,50.64998475158039,-44.99999063801583
1682183464.2789707,-1.7999469134034811,0.00017188733853924697,0.0,119.99999413330205,-0.0,50.64998475158039,-44.99999063801583
1682183464.282069,-1.7999469134034811,0.00017188733853924697,0.0,119.99999413330205,-0.0,50.64998475158039,-44.99999063801583
1682183464.2855904,-1.7999469134034811,0.00017188733853924697,0.0,119.99999413330205,-0.0,50.64998475158039,-44.99999063801583
1682183464.2906222,-1.7999469134034811,0.00017188733853924697,0.0,119.99999413330205,-0.0,50.64998475158039,-44.99999063801583
1682183464.293167,-1.7999469134034811,0.00017188733853924697,0.0,119.99999413330205,-0.0,50.64998475158039,-44.99999063801583
1682183464.295207,-1.7999469134034811,0.00017188733853924697,0.0,119.99999413330205,-0.0,50.64998475158039,-44.99999063801583
1682183464.296816,-1.7999469134034811,0.00017188733853924697,0.0,119.99999413330205,-0.0,50.64998475158039,-44.99999063801583
1682183464.2995195,-1.7999469134034811,0.00017188733853924697,0.0,119.99999413330205,-0.0,50.64998475158039,-44.99999063801583
1682183464.304598,-1.7999469134034811,0.00017188733853924697,0.0,119.99999413330205,-0.0,50.64998475158039,-44.99999063801583
1682183464.3062289,-1.7999469134034811,0.00017188733853924697,0.0,119.99999413330205,-0.0,50.64998475158039,-44.99999063801583
1682183464.3080857,-1.7999469134034811,0.00017188733853924697,0.0,119.99999413330205,-0.0,50.64998475158039,-44.99999063801583
1682183464.3100832,-1.7999469134034811,0.00017188733853924697,0.0,119.99999413330205,-0.0,50.64998475158039,-44.99999063801583
1682183464.3140385,-1.7999469134034811,0.00017188733853924697,0.0,119.99999413330205,-0.0,50.64998475158039,-44.99999063801583
1682183464.3163683,-1.7999469134034811,0.00017188733853924697,0.0,119.99999413330205,-0.0,50.64998475158039,-44.99999063801583
1682183464.3181033,-1.7999469134034811,0.00017188733853924697,0.0,119.99999413330205,-0.0,50.64998475158039,-44.99999063801583
1682183464.3199136,-1.7999469134034811,0.00017188733853924697,0.0,119.99999413330205,-0.0,50.64998475158039,-44.99999063801583
1682183464.3842337,-1.7999469134034811,0.00017188733853924697,0.0,119.99999413330205,-0.0,50.64998475158039,-44.99999063801583
1682183464.4595315,-1.7999469134034811,0.00017188733853924697,0.0,119.99999413330205,-0.0,50.64998475158039,-44.99999063801583
1682183464.5395246,-1.7999469134034811,0.00017188733853924697,0.0,119.99999413330205,-0.0,50.64998475158039,-44.99999063801583
1682183464.6176164,-1.7999469134034811,0.00017188733853924697,0.0,119.99999413330205,-0.0,50.64998475158039,-44.99999063801583
1682183464.6977057,-1.7999469134034811,0.00017188733853924697,0.0,119.99999413330205,-0.0,50.64998475158039,-44.99999063801583
1682183464.7728357,-1.7999469134034811,0.00017188733853924697,0.0,119.99999413330205,-0.0,50.64998475158039,-44.99999063801583
1682183464.8549552,-1.7999469134034811,0.00017188733853924697,0.0,119.99999413330205,-0.0,50.64998475158039,-44.99999063801583
1682183464.9447584,-1.7999469134034811,0.00017188733853924697,0.0,119.99999413330205,-0.0,50.64998475158039,-44.99999063801583
1682183465.0166755,-1.7999469134034811,0.00017188733853924697,0.0,119.99999413330205,-0.0,50.64998475158039,-44.99999063801583
1682183465.0915327,-1.7999469134034811,0.00017188733853924697,0.0,119.99999413330205,-0.0,50.64998475158039,-44.99999063801583
1682183465.1750214,-1.7999469134034811,0.00017188733853924697,0.0,119.99999413330205,-0.0,50.64998475158039,-44.99999063801583
1682183465.2507694,-1.7999469134034811,0.00017188733853924697,0.0,119.99999413330205,-0.0,50.64998475158039,-44.99999063801583
1682183465.3313777,-1.7999469134034811,0.00017188733853924697,0.0,119.99999413330205,-0.0,50.64998475158039,-44.99999063801583
1682183465.4051359,-1.7999469134034811,0.00017188733853924697,0.0,119.99999413330205,-0.0,50.64998475158039,-44.99999063801583
1682183465.4759188,-1.7999469134034811,0.00017188733853924697,0.0,119.99999413330205,-0.0,50.64998475158039,-44.99999063801583
1682183465.5696774,-1.7999469134034811,0.00017188733853924697,0.0,119.99999413330205,-0.0,50.64998475158039,-44.99999063801583
1682183465.6445286,-1.7999469134034811,0.00017188733853924697,0.0,119.99999413330205,-0.0,50.64998475158039,-44.99999063801583
1682183465.7195678,-1.7999469134034811,0.00017188733853924697,0.0,119.99999413330205,-0.0,50.64998475158039,-44.99999063801583
1682183465.7938707,-1.7999469134034811,0.00017188733853924697,0.0,119.99999413330205,-0.0,50.64998475158039,-44.99999063801583
1682183465.8662481,-1.7999469134034811,0.00017188733853924697,0.0,119.99999413330205,-0.0,50.64998475158039,-44.99999063801583
1682183465.9303384,-1.7999469134034811,0.00017188733853924697,0.0,119.99999413330205,-0.0,50.64998475158039,-44.99999063801583
1682183466.0300918,-1.7999469134034811,0.00017188733853924697,0.0,119.99999413330205,-0.0,50.64998475158039,-44.99999063801583
1682183466.1103427,-1.7999469134034811,0.00017188733853924697,0.0,119.99999413330205,-0.0,50.64998475158039,-44.99999063801583
1682183466.1987278,-1.7999469134034811,0.00017188733853924697,0.0,119.99999413330205,-0.0,50.64998475158039,-44.99999063801583
1682183466.2824137,-1.7999469134034811,0.00017188733853924697,0.0,119.99999413330205,-0.0,50.64998475158039,-44.99999063801583
1682183466.3575919,-1.7999469134034811,0.00017188733853924697,0.0,119.99999413330205,-0.0,50.64998475158039,-44.99999063801583
1682183466.4343445,-1.7999469134034811,0.00017188733853924697,0.0,119.99999413330205,-0.0,50.64998475158039,-44.99999063801583
1682183466.5149522,-1.7999469134034811,0.00017188733853924697,0.0,119.99999413330205,-0.0,50.64998475158039,-44.99999063801583
1682183466.5952516,-1.7999469134034811,0.00017188733853924697,0.0,119.99999413330205,-0.0,50.64998475158039,-44.99999063801583
1682183466.6808128,-1.7999469134034811,0.00017188733853924697,0.0,119.99999413330205,-0.0,50.64998475158039,-44.99999063801583
1682183466.7638338,-1.7999469134034811,0.00017188733853924697,0.0,119.99999413330205,-0.0,50.64998475158039,-44.99999063801583
1682183466.8519423,-1.7999469134034811,0.00017188733853924697,0.0,119.99999413330205,-0.0,50.64998475158039,-44.99999063801583
1682183466.9456372,-1.7999469134034811,0.00017188733853924697,0.0,119.99999413330205,-0.0,50.64998475158039,-44.99999063801583
1682183467.0307448,-1.7999469134034811,0.00017188733853924697,0.0,119.99999413330205,-0.0,50.64998475158039,-44.99999063801583
1682183467.1054635,-1.7999469134034811,0.00017188733853924697,0.0,119.99999413330205,-0.0,50.64998475158039,-44.99999063801583
1682183467.1838505,-1.7999469134034811,0.00017188733853924697,0.0,119.99999413330205,-0.0,50.64998475158039,-44.99999063801583
1682183467.2698686,-1.7999469134034811,0.00017188733853924697,0.0,119.99999413330205,-0.0,50.64998475158039,-44.99999063801583
1682183467.3554902,-1.7999469134034811,0.00017188733853924697,0.0,119.99999413330205,-0.0,50.64998475158039,-44.99999063801583
1682183467.4448647,-1.7999469134034811,0.00017188733853924697,0.0,119.99999413330205,-0.0,50.64998475158039,-44.99999063801583
1682183467.5356886,-1.7999469134034811,0.00017188733853924697,0.0,119.99999413330205,-0.0,50.64998475158039,-44.99999063801583
1682183467.6111395,-1.7999469134034811,0.00017188733853924697,0.0,119.99999413330205,-0.0,50.64998475158039,-44.99999063801583
1682183467.6799252,-1.7999469134034811,0.00017188733853924697,0.0,119.99999413330205,-0.0,50.64998475158039,-44.99999063801583
1682183467.75882,-1.7999469134034811,0.00017188733853924697,0.0,119.99999413330205,-0.0,50.64998475158039,-44.99999063801583
1682183467.8402257,-1.7999469134034811,0.00017188733853924697,0.0,119.99999413330205,-0.0,50.64998475158039,-44.99999063801583
1682183467.938347,-1.7999469134034811,0.00017188733853924697,0.0,119.99999413330205,-0.0,50.64998475158039,-44.99999063801583
1682183468.018189,-1.7999469134034811,0.00017188733853924697,0.0,119.99999413330205,-0.0,50.64998475158039,-44.99999063801583
1682183468.09889,-1.7999469134034811,0.00017188733853924697,0.0,119.99999413330205,-0.0,50.64998475158039,-44.99999063801583
1682183468.1841319,-1.7999469134034811,0.00017188733853924697,0.0,119.99999413330205,-0.0,50.64998475158039,-44.99999063801583
1682183468.2517772,-1.7999469134034811,0.00017188733853924697,0.0,119.99999413330205,-0.0,50.64998475158039,-44.99999063801583
1682183468.332754,-1.7999469134034811,0.00017188733853924697,0.0,119.99999413330205,-0.0,50.64998475158039,-44.99999063801583
1682183468.4111686,-1.7999469134034811,0.00017188733853924697,0.0,119.99999413330205,-0.0,50.64998475158039,-44.99999063801583
1682183468.5008364,-1.7999469134034811,0.00017188733853924697,0.0,119.99999413330205,-0.0,50.64998475158039,-44.99999063801583
1682183468.586682,-1.7999469134034811,0.00017188733853924697,0.0,119.99999413330205,-0.0,50.64998475158039,-44.99999063801583
1682183468.6652286,-1.7999469134034811,0.00017188733853924697,0.0,119.99999413330205,-0.0,50.64998475158039,-44.99999063801583
1682183468.732456,-1.7999469134034811,0.00017188733853924697,0.0,119.99999413330205,-0.0,50.64998475158039,-44.99999063801583
1682183468.7980998,-1.7999469134034811,0.00017188733853924697,0.0,119.99999413330205,-0.0,50.64998475158039,-44.99999063801583
1682183468.8726697,-1.7999469134034811,0.00017188733853924697,0.0,119.99999413330205,-0.0,50.64998475158039,-44.99999063801583
1682183468.9526145,-1.7999469134034811,0.00017188733853924697,0.0,119.99999413330205,-0.0,50.64998475158039,-44.99999063801583
1682183469.0249264,-1.7999469134034811,0.00017188733853924697,0.0,119.99999413330205,-0.0,50.64998475158039,-44.99999063801583
1682183469.114755,-1.7999469134034811,0.00017188733853924697,0.0,119.99999413330205,-0.0,50.64998475158039,-44.99999063801583
1682183469.1920624,-1.7999469134034811,0.00017188733853924697,0.0,119.99999413330205,-0.0,50.64998475158039,-44.99999063801583
1682183469.276171,-1.7999469134034811,0.00017188733853924697,0.0,119.99999413330205,-0.0,50.64998475158039,-44.99999063801583
1682183469.3561811,-1.7999469134034811,0.00017188733853924697,0.0,119.99999413330205,-0.0,50.64998475158039,-44.99999063801583
1682183469.4545922,-1.7999469134034811,0.00017188733853924697,0.0,119.99999413330205,-0.0,50.64998475158039,-44.99999063801583
1682183469.5376105,-1.7999469134034811,0.00017188733853924697,0.0,119.99999413330205,-0.0,50.64998475158039,-44.99999063801583
1682183469.6186361,-1.7999469134034811,0.00017188733853924697,0.0,119.99999413330205,-0.0,50.64998475158039,-44.99999063801583
1682183469.7000427,-1.7999469134034811,0.00017188733853924697,0.0,119.99999413330205,-0.0,50.64998475158039,-44.99999063801583
1682183469.779492,-1.7999469134034811,0.00017188733853924697,0.0,119.99999413330205,-0.0,50.64998475158039,-44.99999063801583
1682183469.8640015,-1.7999469134034811,0.00017188733853924697,0.0,119.99999413330205,-0.0,50.64998475158039,-44.99999063801583
1682183469.9586418,-1.7999469134034811,0.00017188733853924697,0.0,119.99999413330205,-0.0,50.64998475158039,-44.99999063801583
1682183470.05839,-1.7999469134034811,0.00017188733853924697,0.0,119.99999413330205,-0.0,50.64998475158039,-44.99999063801583
1682183470.150472,-1.7999469134034811,0.00017188733853924697,0.0,119.99999413330205,-0.0,50.64998475158039,-44.99999063801583
1682183470.234961,-1.7999469134034811,0.00017188733853924697,0.0,119.99999413330205,-0.0,50.64998475158039,-44.99999063801583
1682183470.308893,-1.7999469134034811,0.00017188733853924697,0.0,119.99999413330205,-0.0,50.64998475158039,-44.99999063801583
1682183470.3774917,-1.7999469134034811,0.00017188733853924697,0.0,119.99999413330205,-0.0,50.64998475158039,-44.99999063801583
1682183470.4767659,-1.7999469134034811,0.00017188733853924697,0.0,119.99999413330205,-0.0,50.64998475158039,-44.99999063801583
1682183470.5597928,-1.7999469134034811,0.00017188733853924697,0.0,119.99999413330205,-0.0,50.64998475158039,-44.99999063801583
1682183470.6570714,-1.7999469134034811,0.00017188733853924697,0.0,119.99999413330205,-0.0,50.64998475158039,-44.99999063801583
1682183470.7329433,-1.7999469134034811,0.00017188733853924697,0.0,119.99999413330205,-0.0,50.64998475158039,-44.99999063801583
1682183470.8157053,-1.7999469134034811,0.00017188733853924697,0.0,119.99999413330205,-0.0,50.64998475158039,-44.99999063801583
1682183470.9186625,-1.7999469134034811,0.00017188733853924697,0.0,119.99999413330205,-0.0,50.64998475158039,-44.99999063801583
1682183470.9948046,-1.7999469134034811,0.00017188733853924697,0.0,119.99999413330205,-0.0,50.64998475158039,-44.99999063801583
1682183471.074632,-1.7999469134034811,0.00017188733853924697,0.0,119.99999413330205,-0.0,50.64998475158039,-44.99999063801583
1682183471.1457345,-1.7999469134034811,0.00017188733853924697,0.0,119.99999413330205,-0.0,50.64998475158039,-44.99999063801583
1682183471.2275522,-1.7999469134034811,0.00017188733853924697,0.0,119.99999413330205,-0.0,50.64998475158039,-44.99999063801583
1682183471.3029058,-1.7999469134034811,0.00017188733853924697,0.0,119.99999413330205,-0.0,50.64998475158039,-44.99999063801583
1682183471.382882,-1.7999469134034811,0.00017188733853924697,0.0,119.99999413330205,-0.0,50.64998475158039,-44.99999063801583
1682183471.465684,-1.7999469134034811,0.00017188733853924697,0.0,119.99999413330205,-0.0,50.64998475158039,-44.99999063801583
1682183471.5382323,-1.7999469134034811,0.00017188733853924697,0.0,119.99999413330205,-0.0,50.64998475158039,-44.99999063801583
1682183471.6282945,-1.7999469134034811,0.00017188733853924697,0.0,119.99999413330205,-0.0,50.64998475158039,-44.99999063801583
1682183471.7022986,-1.7999469134034811,0.00017188733853924697,0.0,119.99999413330205,-0.0,50.64998475158039,-44.99999063801583
1682183471.783109,-1.7999469134034811,0.00017188733853924697,0.0,119.99999413330205,-0.0,50.64998475158039,-44.99999063801583
1682183471.8788388,-1.7999469134034811,0.00017188733853924697,0.0,119.99999413330205,-0.0,50.64998475158039,-44.99999063801583
1682183471.957501,-1.7999469134034811,0.00017188733853924697,0.0,119.99999413330205,-0.0,50.64998475158039,-44.99999063801583
1682183472.0457127,-1.7999469134034811,0.00017188733853924697,0.0,119.99999413330205,-0.0,50.64998475158039,-44.99999063801583
1682183472.1308568,-1.7999469134034811,0.00017188733853924697,0.0,119.99999413330205,-0.0,50.64998475158039,-44.99999063801583
1682183472.2187786,-1.7999469134034811,0.00017188733853924697,0.0,119.99999413330205,-0.0,50.64998475158039,-44.99999063801583
1682183472.299746,-1.7999469134034811,0.00017188733853924697,0.0,119.99999413330205,-0.0,50.64998475158039,-44.99999063801583
1682183472.3854148,-1.7999469134034811,0.00017188733853924697,0.0,119.99999413330205,-0.0,50.64998475158039,-44.99999063801583
1682183472.4782457,-1.7999469134034811,0.00017188733853924697,0.0,119.99999413330205,-0.0,50.64998475158039,-44.99999063801583
1682183472.5566597,-1.7999469134034811,0.00017188733853924697,0.0,119.99999413330205,-0.0,50.64998475158039,-44.99999063801583
1682183472.6402922,-1.7999469134034811,0.00017188733853924697,0.0,119.99999413330205,-0.0,50.64998475158039,-44.99999063801583
1682183472.7273014,-1.7999469134034811,0.00017188733853924697,0.0,119.99999413330205,-0.0,50.64998475158039,-44.99999063801583
1682183472.8233833,-1.7999469134034811,0.00017188733853924697,0.0,119.99999413330205,-0.0,50.64998475158039,-44.99999063801583
1682183472.909406,-1.7999469134034811,0.00017188733853924697,0.0,119.99999413330205,-0.0,50.64998475158039,-44.99999063801583
1682183472.9905725,-1.7999469134034811,0.00017188733853924697,0.0,119.99999413330205,-0.0,50.64998475158039,-44.99999063801583
1682183473.1434653,-1.7999469134034811,0.00017188733853924697,0.0,119.99999413330205,-0.0,50.64998475158039,-44.99999063801583
1682183473.2131605,-1.7999469134034811,0.00017188733853924697,0.0,119.99999413330205,-0.0,50.64998475158039,-44.99999063801583
1682183473.3479578,-1.7999469134034811,0.00017188733853924697,0.0,119.99999413330205,-0.0,50.64998475158039,-44.99999063801583
1682183473.4481585,-1.7999469134034811,0.00017188733853924697,0.0,119.99999413330205,-0.0,50.64998475158039,-44.99999063801583
1682183473.5500076,-1.7999469134034811,0.00017188733853924697,0.0,119.99999413330205,-0.0,50.64998475158039,-44.99999063801583
1682183473.6281872,-1.7999469134034811,0.00017188733853924697,0.0,119.99999413330205,-0.0,50.64998475158039,-44.99999063801583
1682183473.709793,-1.7999469134034811,0.00017188733853924697,0.0,119.99999413330205,-0.0,50.64998475158039,-44.99999063801583
1682183473.7716355,-1.7999469134034811,0.00017188733853924697,0.0,119.99999413330205,-0.0,50.64998475158039,-44.99999063801583
1682183473.8674378,-1.7999469134034811,0.00017188733853924697,0.0,119.99999413330205,-0.0,50.64998475158039,-44.99999063801583
1682183473.9567776,-1.7999469134034811,0.00017188733853924697,0.0,119.99999413330205,-0.0,50.64998475158039,-44.99999063801583
1682183474.0410373,-1.7999469134034811,0.00017188733853924697,0.0,119.99999413330205,-0.0,50.64998475158039,-44.99999063801583
1682183474.1376452,-1.7999469134034811,0.00017188733853924697,0.0,119.99999413330205,-0.0,50.64998475158039,-44.99999063801583
1682183474.2232935,-1.7999469134034811,0.00017188733853924697,0.0,119.99999413330205,-0.0,50.64998475158039,-44.99999063801583
1682183474.3088057,-1.7999469134034811,0.00017188733853924697,0.0,119.99999413330205,-0.0,50.64998475158039,-44.99999063801583
1682183474.38362,-1.7999469134034811,0.00017188733853924697,0.0,119.99999413330205,-0.0,50.64998475158039,-44.99999063801583
1682183474.4758875,-1.7999469134034811,0.00017188733853924697,0.0,119.99999413330205,-0.0,50.64998475158039,-44.99999063801583
1682183474.5530593,-1.7999469134034811,0.00017188733853924697,0.0,119.99999413330205,-0.0,50.64998475158039,-44.99999063801583
1682183474.6358461,-1.7999469134034811,0.00017188733853924697,0.0,119.99999413330205,-0.0,50.64998475158039,-44.99999063801583
1682183474.7162075,-1.7999469134034811,0.00017188733853924697,0.0,119.99999413330205,-0.0,50.64998475158039,-44.99999063801583
1682183474.8068185,-1.7999469134034811,0.00017188733853924697,0.0,119.99999413330205,-0.0,50.64998475158039,-44.99999063801583
1682183474.8939147,-1.7999469134034811,0.00017188733853924697,0.0,119.99999413330205,-0.0,50.64998475158039,-44.99999063801583
1682183474.9678614,-1.7999469134034811,0.00017188733853924697,0.0,119.99999413330205,-0.0,50.64998475158039,-44.99999063801583
1682183475.0497413,-1.7999469134034811,0.00017188733853924697,0.0,119.99999413330205,-0.0,50.64998475158039,-44.99999063801583
1682183475.1227171,-1.7999469134034811,0.00017188733853924697,0.0,119.99999413330205,-0.0,50.64998475158039,-44.99999063801583
1682183475.2078705,-1.7999469134034811,0.00017188733853924697,0.0,119.99999413330205,-0.0,50.64998475158039,-44.99999063801583
1682183475.2900558,-1.7999469134034811,0.00017188733853924697,0.0,119.99999413330205,-0.0,50.64998475158039,-44.99999063801583
1682183475.3780987,-1.7999469134034811,0.00017188733853924697,0.0,119.99999413330205,-0.0,50.64998475158039,-44.99999063801583
1682183475.4723237,-1.7999469134034811,0.00017188733853924697,0.0,119.99999413330205,-0.0,50.64998475158039,-44.99999063801583
1682183475.5603662,-1.7999469134034811,0.00017188733853924697,0.0,119.99999413330205,-0.0,50.64998475158039,-44.99999063801583
1682183475.6542633,-1.7999469134034811,0.00017188733853924697,0.0,119.99999413330205,-0.0,50.64998475158039,-44.99999063801583
1682183475.7376924,-1.7999469134034811,0.00017188733853924697,0.0,119.99999413330205,-0.0,50.64998475158039,-44.99999063801583
1682183475.826167,-1.7999469134034811,0.00017188733853924697,0.0,119.99999413330205,-0.0,50.64998475158039,-44.99999063801583
1682183475.926146,-1.7999469134034811,0.00017188733853924697,0.0,119.99999413330205,-0.0,50.64998475158039,-44.99999063801583
1682183476.027558,-1.7999469134034811,0.00017188733853924697,0.0,119.99999413330205,-0.0,50.64998475158039,-44.99999063801583
1682183476.114462,-1.7999469134034811,0.00017188733853924697,0.0,119.99999413330205,-0.0,50.64998475158039,-44.99999063801583
1682183476.196938,-1.7999469134034811,0.00017188733853924697,0.0,119.99999413330205,-0.0,50.64998475158039,-44.99999063801583
1682183476.2906747,-1.7999469134034811,0.00017188733853924697,0.0,119.99999413330205,-0.0,50.64998475158039,-44.99999063801583
1682183476.3852916,-1.7999469134034811,0.00017188733853924697,0.0,119.99999413330205,-0.0,50.64998475158039,-44.99999063801583
1682183476.469786,-1.7999469134034811,0.00017188733853924697,0.0,119.99999413330205,-0.0,50.64998475158039,-44.99999063801583
1682183476.5429642,-1.7999469134034811,0.00017188733853924697,0.0,119.99999413330205,-0.0,50.64998475158039,-44.99999063801583
1682183476.6266465,-1.7999469134034811,0.00017188733853924697,0.0,119.99999413330205,-0.0,50.64998475158039,-44.99999063801583
1682183476.7077312,-1.7999469134034811,0.00017188733853924697,0.0,119.99999413330205,-0.0,50.64998475158039,-44.99999063801583
1682183476.800823,-1.7999469134034811,0.00017188733853924697,0.0,119.99999413330205,-0.0,50.64998475158039,-44.99999063801583
1682183476.874157,-1.7999469134034811,0.00017188733853924697,0.0,119.99999413330205,-0.0,50.64998475158039,-44.99999063801583
1682183476.9432304,-1.7999469134034811,0.00017188733853924697,0.0,119.99999413330205,-0.0,50.64998475158039,-44.99999063801583
1682183477.0250099,-1.7999469134034811,0.00017188733853924697,0.0,119.99999413330205,-0.0,50.64998475158039,-44.99999063801583
1682183477.0971582,-1.7999469134034811,0.00017188733853924697,0.0,119.99999413330205,-0.0,50.64998475158039,-44.99999063801583
1682183477.1774137,-1.7999469134034811,0.00017188733853924697,0.0,119.99999413330205,-0.0,50.64998475158039,-44.99999063801583
1682183477.257881,-1.7999469134034811,0.00017188733853924697,0.0,119.99999413330205,-0.0,50.64998475158039,-44.99999063801583
1682183477.34252,-1.7999469134034811,0.00017188733853924697,0.0,119.99999413330205,-0.0,50.64998475158039,-44.99999063801583
1682183477.429092,-1.7999469134034811,0.00017188733853924697,0.0,119.99999413330205,-0.0,50.64998475158039,-44.99999063801583
1682183477.5058537,-1.7999469134034811,0.00017188733853924697,0.0,119.99999413330205,-0.0,50.64998475158039,-44.99999063801583
1682183477.579321,-1.7999469134034811,0.00017188733853924697,0.0,119.99999413330205,-0.0,50.64998475158039,-44.99999063801583
1682183477.661434,-1.7999469134034811,0.00017188733853924697,0.0,119.99999413330205,-0.0,50.64998475158039,-44.99999063801583
1682183477.7495124,-1.7999469134034811,0.00017188733853924697,0.0,119.99999413330205,-0.0,50.64998475158039,-44.99999063801583
1682183477.8246615,-1.7999469134034811,0.00017188733853924697,0.0,119.99999413330205,-0.0,50.64998475158039,-44.99999063801583
1682183477.9010458,-1.7999469134034811,0.00017188733853924697,0.0,119.99999413330205,-0.0,50.64998475158039,-44.99999063801583
1682183477.9842455,-1.7999469134034811,0.00017188733853924697,0.0,119.99999413330205,-0.0,50.64998475158039,-44.99999063801583
1682183478.0519197,-1.7999469134034811,0.00017188733853924697,0.0,119.99999413330205,-0.0,50.64998475158039,-44.99999063801583
1682183478.1266925,-1.7999469134034811,0.00017188733853924697,0.0,119.99999413330205,-0.0,50.64998475158039,-44.99999063801583
1682183478.2103004,-1.7999469134034811,0.00017188733853924697,0.0,119.99999413330205,-0.0,50.64998475158039,-44.99999063801583
1682183478.2901163,-1.7999469134034811,0.00017188733853924697,0.0,119.99999413330205,-0.0,50.64998475158039,-44.99999063801583
1682183478.3790247,-1.7999469134034811,0.00017188733853924697,0.0,119.99999413330205,-0.0,50.64998475158039,-44.99999063801583
1682183478.44959,-1.7999469134034811,0.00017188733853924697,0.0,119.99999413330205,-0.0,50.64998475158039,-44.99999063801583
1682183478.5226092,-1.7999469134034811,0.00017188733853924697,0.0,119.99999413330205,-0.0,50.64998475158039,-44.99999063801583
1682183478.6092756,-1.7999469134034811,0.00017188733853924697,0.0,119.99999413330205,-0.0,50.64998475158039,-44.99999063801583
1682183478.700627,-1.7999469134034811,0.00017188733853924697,0.0,119.99999413330205,-0.0,50.64998475158039,-44.99999063801583
1682183478.7888346,-1.7999469134034811,0.00017188733853924697,0.0,119.99999413330205,-0.0,50.64998475158039,-44.99999063801583
1682183478.868466,-1.7999469134034811,0.00017188733853924697,0.0,119.99999413330205,-0.0,50.64998475158039,-44.99999063801583
1682183478.9404676,-1.7999469134034811,0.00017188733853924697,0.0,119.99999413330205,-0.0,50.64998475158039,-44.99999063801583
1682183479.0152411,-1.7999469134034811,0.00017188733853924697,0.0,119.99999413330205,-0.0,50.64998475158039,-44.99999063801583
1682183479.099333,-1.7999469134034811,0.00017188733853924697,0.0,119.99999413330205,-0.0,50.64998475158039,-44.99999063801583
1682183479.1973562,-1.7999469134034811,0.00017188733853924697,0.0,119.99999413330205,-0.0,50.64998475158039,-44.99999063801583
1682183479.2733467,-1.7999469134034811,0.00017188733853924697,0.0,119.99999413330205,-0.0,50.64998475158039,-44.99999063801583
1682183479.356269,-1.7999469134034811,0.00017188733853924697,0.0,119.99999413330205,-0.0,50.64998475158039,-44.99999063801583
1682183479.4398196,-1.7999469134034811,0.00017188733853924697,0.0,119.99999413330205,-0.0,50.64998475158039,-44.99999063801583
1682183479.517576,-1.7999469134034811,0.00017188733853924697,0.0,119.99999413330205,-0.0,50.64998475158039,-44.99999063801583
1682183479.5892646,-1.7999469134034811,0.00017188733853924697,0.0,119.99999413330205,-0.0,50.64998475158039,-44.99999063801583
1682183479.6778462,-1.7999469134034811,0.00017188733853924697,0.0,119.99999413330205,-0.0,50.64998475158039,-44.99999063801583
1682183479.7550006,-1.7999469134034811,0.00017188733853924697,0.0,119.99999413330205,-0.0,50.64998475158039,-44.99999063801583
1682183479.8308353,-1.7999469134034811,0.00017188733853924697,0.0,119.99999413330205,-0.0,50.64998475158039,-44.99999063801583
1682183479.911611,-1.7999469134034811,0.00017188733853924697,0.0,119.99999413330205,-0.0,50.64998475158039,-44.99999063801583
1682183479.9922945,-1.7999469134034811,0.00017188733853924697,0.0,119.99999413330205,-0.0,50.64998475158039,-44.99999063801583
1682183480.0754924,-1.7999469134034811,0.00017188733853924697,0.0,119.99999413330205,-0.0,50.64998475158039,-44.99999063801583
1682183480.1688,-1.7999469134034811,0.00017188733853924697,0.0,119.99999413330205,-0.0,50.64998475158039,-44.99999063801583
1682183480.246152,-1.7999469134034811,0.00017188733853924697,0.0,119.99999413330205,-0.0,50.64998475158039,-44.99999063801583
1682183480.313124,-1.7999469134034811,0.00017188733853924697,0.0,119.99999413330205,-0.0,50.64998475158039,-44.99999063801583
1682183480.382732,-1.7999469134034811,0.00017188733853924697,0.0,119.99999413330205,-0.0,50.64998475158039,-44.99999063801583
1682183480.4645834,-1.7999469134034811,0.00017188733853924697,0.0,119.99999413330205,-0.0,50.64998475158039,-44.99999063801583
1682183480.549071,-1.7999469134034811,0.00017188733853924697,0.0,119.99999413330205,-0.0,50.64998475158039,-44.99999063801583
1682183480.633256,-1.7999469134034811,0.00017188733853924697,0.0,119.99999413330205,-0.0,50.64998475158039,-44.99999063801583
1682183480.722282,-1.7999469134034811,0.00017188733853924697,0.0,119.99999413330205,-0.0,50.64998475158039,-44.99999063801583
1682183480.8117824,-1.7999469134034811,0.00017188733853924697,0.0,119.99999413330205,-0.0,50.64998475158039,-44.99999063801583
1682183480.8964005,-1.7999469134034811,0.00017188733853924697,0.0,119.99999413330205,-0.0,50.64998475158039,-44.99999063801583
1682183480.9867918,-1.7999469134034811,0.00017188733853924697,0.0,119.99999413330205,-0.0,50.64998475158039,-44.99999063801583
1682183481.0570521,-1.7999469134034811,0.00017188733853924697,0.0,119.99999413330205,-0.0,50.64998475158039,-44.99999063801583
1682183481.1442761,-1.7999469134034811,0.00017188733853924697,0.0,119.99999413330205,-0.0,50.64998475158039,-44.99999063801583
1682183481.2134054,-1.7999469134034811,0.00017188733853924697,0.0,119.99999413330205,-0.0,50.64998475158039,-44.99999063801583
1682183481.3014455,-1.7999469134034811,0.00017188733853924697,0.0,119.99999413330205,-0.0,50.64998475158039,-44.99999063801583
1682183481.3908668,-1.7999469134034811,0.00017188733853924697,0.0,119.99999413330205,-0.0,50.64998475158039,-44.99999063801583
1682183481.4789095,-1.7999469134034811,0.00017188733853924697,0.0,119.99999413330205,-0.0,50.64998475158039,-44.99999063801583
1682183481.5679445,-1.7999469134034811,0.00017188733853924697,0.0,119.99999413330205,-0.0,50.64998475158039,-44.99999063801583
1682183481.6468914,-1.7999469134034811,0.00017188733853924697,0.0,119.99999413330205,-0.0,50.64998475158039,-44.99999063801583
1682183481.7249851,-1.7999469134034811,0.00017188733853924697,0.0,119.99999413330205,-0.0,50.64998475158039,-44.99999063801583
1682183481.8092892,-1.7999469134034811,0.00017188733853924697,0.0,119.99999413330205,-0.0,50.64998475158039,-44.99999063801583
1682183481.9029737,-1.7999469134034811,0.00017188733853924697,0.0,119.99999413330205,-0.0,50.64998475158039,-44.99999063801583
1682183481.9819307,-1.7999469134034811,0.00017188733853924697,0.0,119.99999413330205,-0.0,50.64998475158039,-44.99999063801583
1682183482.0786972,-1.7999469134034811,0.00017188733853924697,0.0,119.99999413330205,-0.0,50.64998475158039,-44.99999063801583
1682183482.1623976,-1.7999469134034811,0.00017188733853924697,0.0,119.99999413330205,-0.0,50.64998475158039,-44.99999063801583
1682183482.241964,-1.7999469134034811,0.00017188733853924697,0.0,119.99999413330205,-0.0,50.64998475158039,-44.99999063801583
1682183482.329365,-1.7999469134034811,0.00017188733853924697,0.0,119.99999413330205,-0.0,50.64998475158039,-44.99999063801583
1682183482.3993762,-1.7999469134034811,0.00017188733853924697,0.0,119.99999413330205,-0.0,50.64998475158039,-44.99999063801583
1682183482.536739,-1.7999469134034811,0.00017188733853924697,0.0,119.99999413330205,-0.0,50.64998475158039,-44.99999063801583
1682183482.6178594,-1.7999469134034811,0.00017188733853924697,0.0,119.99999413330205,-0.0,50.64998475158039,-44.99999063801583
1682183482.6906245,-1.7999469134034811,0.00017188733853924697,0.0,119.99999413330205,-0.0,50.64998475158039,-44.99999063801583
1682183482.7858632,-1.7999469134034811,0.00017188733853924697,0.0,119.99999413330205,-0.0,50.64998475158039,-44.99999063801583
1682183482.8638601,-1.7999469134034811,0.00017188733853924697,0.0,119.99999413330205,-0.0,50.64998475158039,-44.99999063801583
1682183482.9372988,-1.7999469134034811,0.00017188733853924697,0.0,119.99999413330205,-0.0,50.64998475158039,-44.99999063801583
1682183483.0276341,-1.7999469134034811,0.00017188733853924697,0.0,119.99999413330205,-0.0,50.64998475158039,-44.99999063801583
1682183483.125792,-1.7999469134034811,0.00017188733853924697,0.0,119.99999413330205,-0.0,50.64998475158039,-44.99999063801583
1682183483.218441,-1.7999469134034811,0.00017188733853924697,0.0,119.99999413330205,-0.0,50.64998475158039,-44.99999063801583
1682183483.30036,-1.7999469134034811,0.00017188733853924697,0.0,119.99999413330205,-0.0,50.64998475158039,-44.99999063801583
1682183483.3716967,-1.7999469134034811,0.00017188733853924697,0.0,119.99999413330205,-0.0,50.64998475158039,-44.99999063801583
1682183483.4409258,-1.7999469134034811,0.00017188733853924697,0.0,119.99999413330205,-0.0,50.64998475158039,-44.99999063801583
1682183483.515847,-1.7999469134034811,0.00017188733853924697,0.0,119.99999413330205,-0.0,50.64998475158039,-44.99999063801583
1682183483.6043239,-1.7999469134034811,0.00017188733853924697,0.0,119.99999413330205,-0.0,50.64998475158039,-44.99999063801583
1682183483.6956956,-1.7999469134034811,0.00017188733853924697,0.0,119.99999413330205,-0.0,50.64998475158039,-44.99999063801583
1682183483.7748406,-1.7999469134034811,0.00017188733853924697,0.0,119.99999413330205,-0.0,50.64998475158039,-44.99999063801583
1682183483.8697233,-1.7999469134034811,0.00017188733853924697,0.0,119.99999413330205,-0.0,50.64998475158039,-44.99999063801583
1682183483.939122,-1.7999469134034811,0.00017188733853924697,0.0,119.99999413330205,-0.0,50.64998475158039,-44.99999063801583
