HarrisonEXE/WomboComboOfMedusa/logs/joint_data_arm_2.csv
timestamp,j1,j2,j3,j4,j5,j6,j7
1682116563.2119043,1.2999839413723249,81.68000383715747,0.0,119.99999413330205,-14.99997778074544,54.199973954431464,-44.99999063801583
1682116569.2297368,1.2999839413723249,0.006990085100596043,0.0,119.99999413330205,-0.001260507149287811,54.199973954431464,-44.99999063801583
1682116569.2310684,1.2999839413723249,0.006990085100596043,0.0,119.99999413330205,-0.001260507149287811,54.199973954431464,-44.99999063801583
1682116569.2320542,1.2999839413723249,0.006990085100596043,0.0,119.99999413330205,-0.001260507149287811,54.199973954431464,-44.99999063801583
1682116569.233174,1.2999839413723249,0.006990085100596043,0.0,119.99999413330205,-0.001260507149287811,54.199973954431464,-44.99999063801583
1682116569.233615,1.2999839413723249,0.006990085100596043,0.0,119.99999413330205,-0.001260507149287811,54.199973954431464,-44.99999063801583
1682116569.2342014,1.2999839413723249,0.006990085100596043,0.0,119.99999413330205,-0.001260507149287811,54.199973954431464,-44.99999063801583
1682116569.2358212,1.2999839413723249,0.006990085100596043,0.0,119.99999413330205,-0.001260507149287811,54.199973954431464,-44.99999063801583
1682116569.237668,1.2999839413723249,0.006990085100596043,0.0,119.99999413330205,-0.001260507149287811,54.199973954431464,-44.99999063801583
1682116569.2385986,1.2999839413723249,0.006990085100596043,0.0,119.99999413330205,-0.001260507149287811,54.199973954431464,-44.99999063801583
1682116569.2396858,1.2999839413723249,0.006990085100596043,0.0,119.99999413330205,-0.001260507149287811,54.199973954431464,-44.99999063801583
1682116569.2404993,1.2999839413723249,0.006990085100596043,0.0,119.99999413330205,-0.001260507149287811,54.199973954431464,-44.99999063801583
1682116569.241379,1.2999839413723249,0.006990085100596043,0.0,119.99999413330205,-0.001260507149287811,54.199973954431464,-44.99999063801583
1682116569.242578,1.2999839413723249,0.006990085100596043,0.0,119.99999413330205,-0.001260507149287811,54.199973954431464,-44.99999063801583
1682116569.2448096,1.2999839413723249,0.006990085100596043,0.0,119.99999413330205,-0.001260507149287811,54.199973954431464,-44.99999063801583
1682116569.2469318,1.2999839413723249,0.006990085100596043,0.0,119.99999413330205,-0.001260507149287811,54.199973954431464,-44.99999063801583
1682116569.2479177,1.2999839413723249,0.006990085100596043,0.0,119.99999413330205,-0.001260507149287811,54.199973954431464,-44.99999063801583
1682116569.2493224,1.2999839413723249,0.006990085100596043,0.0,119.99999413330205,-0.001260507149287811,54.199973954431464,-44.99999063801583
1682116569.2517614,1.2999839413723249,0.006990085100596043,0.0,119.99999413330205,-0.001260507149287811,54.199973954431464,-44.99999063801583
1682116569.2523644,1.2999839413723249,0.006990085100596043,0.0,119.99999413330205,-0.001260507149287811,54.199973954431464,-44.99999063801583
1682116569.2554693,1.2999839413723249,0.006990085100596043,0.0,119.99999413330205,-0.001260507149287811,54.199973954431464,-44.99999063801583
1682116569.2580545,1.2999839413723249,0.006990085100596043,0.0,119.99999413330205,-0.001260507149287811,54.199973954431464,-44.99999063801583
1682116569.2601037,1.2999839413723249,0.006990085100596043,0.0,119.99999413330205,-0.001260507149287811,54.199973954431464,-44.99999063801583
1682116569.2615163,1.2999839413723249,0.006990085100596043,0.0,119.99999413330205,-0.001260507149287811,54.199973954431464,-44.99999063801583
1682116569.262471,1.2999839413723249,0.006990085100596043,0.0,119.99999413330205,-0.001260507149287811,54.199973954431464,-44.99999063801583
1682116569.2647297,1.2999839413723249,0.006990085100596043,0.0,119.99999413330205,-0.001260507149287811,54.199973954431464,-44.99999063801583
1682116569.2659967,1.2999839413723249,0.006990085100596043,0.0,119.99999413330205,-0.001260507149287811,54.199973954431464,-44.99999063801583
1682116569.2678206,1.2999839413723249,0.006990085100596043,0.0,119.99999413330205,-0.001260507149287811,54.199973954431464,-44.99999063801583
1682116569.2697902,1.2999839413723249,0.006990085100596043,0.0,119.99999413330205,-0.001260507149287811,54.199973954431464,-44.99999063801583
1682116569.271479,1.2999839413723249,0.006990085100596043,0.0,119.99999413330205,-0.001260507149287811,54.199973954431464,-44.99999063801583
1682116569.2732406,1.2999839413723249,0.006990085100596043,0.0,119.99999413330205,-0.001260507149287811,54.199973954431464,-44.99999063801583
1682116569.2748349,1.2999839413723249,0.006990085100596043,0.0,119.99999413330205,-0.001260507149287811,54.199973954431464,-44.99999063801583
1682116569.2760837,1.2999839413723249,0.006990085100596043,0.0,119.99999413330205,-0.001260507149287811,54.199973954431464,-44.99999063801583
1682116569.2777498,1.2999839413723249,0.006990085100596043,0.0,119.99999413330205,-0.001260507149287811,54.199973954431464,-44.99999063801583
1682116569.2797627,1.2999839413723249,0.006990085100596043,0.0,119.99999413330205,-0.001260507149287811,54.199973954431464,-44.99999063801583
1682116569.281035,1.2999839413723249,0.006990085100596043,0.0,119.99999413330205,-0.001260507149287811,54.199973954431464,-44.99999063801583
1682116569.282704,1.2999839413723249,0.006990085100596043,0.0,119.99999413330205,-0.001260507149287811,54.199973954431464,-44.99999063801583
1682116569.2847195,1.2999839413723249,0.006990085100596043,0.0,119.99999413330205,-0.001260507149287811,54.199973954431464,-44.99999063801583
1682116569.2861402,1.2999839413723249,0.006990085100596043,0.0,119.99999413330205,-0.001260507149287811,54.199973954431464,-44.99999063801583
1682116593.6852458,1.2999839413723249,0.00017188733853924697,0.0,119.99999413330205,-5.729577951308232e-05,54.199973954431464,-44.99999063801583
1682116593.7679336,1.2999839413723249,0.00017188733853924697,0.0,119.99999413330205,-5.729577951308232e-05,54.199973954431464,-44.99999063801583
1682116593.8546877,1.2999839413723249,0.00017188733853924697,0.0,119.99999413330205,-5.729577951308232e-05,54.199973954431464,-44.99999063801583
1682116593.9440396,1.2999839413723249,0.00017188733853924697,0.0,119.99999413330205,-5.729577951308232e-05,54.199973954431464,-44.99999063801583
1682116594.020896,1.2999839413723249,0.00017188733853924697,0.0,119.99999413330205,-5.729577951308232e-05,54.199973954431464,-44.99999063801583
1682116594.1235836,1.2999839413723249,0.00017188733853924697,0.0,119.99999413330205,-5.729577951308232e-05,54.199973954431464,-44.99999063801583
1682116594.2062404,1.2999839413723249,0.00017188733853924697,0.0,119.99999413330205,-5.729577951308232e-05,54.199973954431464,-44.99999063801583
1682116594.283132,1.2999839413723249,0.00017188733853924697,0.0,119.99999413330205,-5.729577951308232e-05,54.199973954431464,-44.99999063801583
1682116594.3790312,1.2999839413723249,0.00017188733853924697,0.0,119.99999413330205,-5.729577951308232e-05,54.199973954431464,-44.99999063801583
1682116594.461673,1.2999839413723249,0.00017188733853924697,0.0,119.99999413330205,-5.729577951308232e-05,54.199973954431464,-44.99999063801583
1682116594.5492582,1.2999839413723249,0.00017188733853924697,0.0,119.99999413330205,-5.729577951308232e-05,54.199973954431464,-44.99999063801583
1682116594.6270144,1.2999839413723249,0.00017188733853924697,0.0,119.99999413330205,-5.729577951308232e-05,54.199973954431464,-44.99999063801583
1682116594.7290902,1.2999839413723249,0.00017188733853924697,0.0,119.99999413330205,-5.729577951308232e-05,54.199973954431464,-44.99999063801583
1682116594.8156564,1.2999839413723249,0.00017188733853924697,0.0,119.99999413330205,-5.729577951308232e-05,54.199973954431464,-44.99999063801583
1682116594.9043765,1.2999839413723249,0.00017188733853924697,0.0,119.99999413330205,-5.729577951308232e-05,54.199973954431464,-44.99999063801583
1682116594.975343,1.2999839413723249,0.00017188733853924697,0.0,119.99999413330205,-5.729577951308232e-05,54.199973954431464,-44.99999063801583
1682116595.0702887,1.2999839413723249,0.00017188733853924697,0.0,119.99999413330205,-5.729577951308232e-05,54.199973954431464,-44.99999063801583
1682116595.165195,1.2999839413723249,0.00017188733853924697,0.0,119.99999413330205,-5.729577951308232e-05,54.199973954431464,-44.99999063801583
1682116595.2603152,1.2999839413723249,0.00017188733853924697,0.0,119.99999413330205,-5.729577951308232e-05,54.199973954431464,-44.99999063801583
1682116595.3415356,1.2999839413723249,0.00017188733853924697,0.0,119.99999413330205,-5.729577951308232e-05,54.199973954431464,-44.99999063801583
1682116595.4228826,1.2999839413723249,0.00017188733853924697,0.0,119.99999413330205,-5.729577951308232e-05,54.199973954431464,-44.99999063801583
1682116595.518804,1.2999839413723249,0.00017188733853924697,0.0,119.99999413330205,-5.729577951308232e-05,54.199973954431464,-44.99999063801583
1682116595.6176455,1.2999839413723249,0.00017188733853924697,0.0,119.99999413330205,-5.729577951308232e-05,54.199973954431464,-44.99999063801583
1682116595.7176776,1.2999839413723249,0.00017188733853924697,0.0,119.99999413330205,-5.729577951308232e-05,54.199973954431464,-44.99999063801583
1682116595.8005054,1.2999839413723249,0.00017188733853924697,0.0,119.99999413330205,-5.729577951308232e-05,54.199973954431464,-44.99999063801583
1682116595.883125,1.2999839413723249,0.00017188733853924697,0.0,119.99999413330205,-5.729577951308232e-05,54.199973954431464,-44.99999063801583
1682116595.973329,1.2999839413723249,0.00017188733853924697,0.0,119.99999413330205,-5.729577951308232e-05,54.199973954431464,-44.99999063801583
1682116596.0489576,1.2999839413723249,0.00017188733853924697,0.0,119.99999413330205,-5.729577951308232e-05,54.199973954431464,-44.99999063801583
1682116596.132852,1.2999839413723249,0.00017188733853924697,0.0,119.99999413330205,-5.729577951308232e-05,54.199973954431464,-44.99999063801583
1682116596.199661,1.2999839413723249,0.00017188733853924697,0.0,119.99999413330205,-5.729577951308232e-05,54.199973954431464,-44.99999063801583
1682116596.2819061,1.2999839413723249,0.00017188733853924697,0.0,119.99999413330205,-5.729577951308232e-05,54.199973954431464,-44.99999063801583
1682116596.3654883,1.2999839413723249,0.00017188733853924697,0.0,119.99999413330205,-5.729577951308232e-05,54.199973954431464,-44.99999063801583
1682116596.4514415,1.2999839413723249,0.00017188733853924697,0.0,119.99999413330205,-5.729577951308232e-05,54.199973954431464,-44.99999063801583
1682116596.5320773,1.2999839413723249,0.00017188733853924697,0.0,119.99999413330205,-5.729577951308232e-05,54.199973954431464,-44.99999063801583
1682116596.6033282,1.2999839413723249,0.00017188733853924697,0.0,119.99999413330205,-5.729577951308232e-05,54.199973954431464,-44.99999063801583
1682116596.6840317,1.2999839413723249,0.00017188733853924697,0.0,119.99999413330205,-5.729577951308232e-05,54.199973954431464,-44.99999063801583
1682116596.780565,1.2999839413723249,0.00017188733853924697,0.0,119.99999413330205,-5.729577951308232e-05,54.199973954431464,-44.99999063801583
1682116596.8746657,1.2999839413723249,0.00017188733853924697,0.0,119.99999413330205,-5.729577951308232e-05,54.199973954431464,-44.99999063801583
1682116596.9553957,1.2999839413723249,0.00017188733853924697,0.0,119.99999413330205,-5.729577951308232e-05,54.199973954431464,-44.99999063801583
1682116597.0533934,1.2999839413723249,0.00017188733853924697,0.0,119.99999413330205,-5.729577951308232e-05,54.199973954431464,-44.99999063801583
1682116597.1457705,1.2999839413723249,0.00017188733853924697,0.0,119.99999413330205,-5.729577951308232e-05,54.199973954431464,-44.99999063801583
1682116597.2330084,1.2999839413723249,0.00017188733853924697,0.0,119.99999413330205,-5.729577951308232e-05,54.199973954431464,-44.99999063801583
1682116597.3244793,1.2999839413723249,0.00017188733853924697,0.0,119.99999413330205,-5.729577951308232e-05,54.199973954431464,-44.99999063801583
1682116597.4127202,1.2999839413723249,0.00017188733853924697,0.0,119.99999413330205,-5.729577951308232e-05,54.199973954431464,-44.99999063801583
1682116597.5034006,1.2999839413723249,0.00017188733853924697,0.0,119.99999413330205,-5.729577951308232e-05,54.199973954431464,-44.99999063801583
1682116597.59032,1.2999839413723249,0.00017188733853924697,0.0,119.99999413330205,-5.729577951308232e-05,54.199973954431464,-44.99999063801583
1682116597.675328,1.2999839413723249,0.00017188733853924697,0.0,119.99999413330205,-5.729577951308232e-05,54.199973954431464,-44.99999063801583
1682116597.778355,1.2999839413723249,0.00017188733853924697,0.0,119.99999413330205,-5.729577951308232e-05,54.199973954431464,-44.99999063801583
1682116597.8662078,1.2999839413723249,0.00017188733853924697,0.0,119.99999413330205,-5.729577951308232e-05,54.199973954431464,-44.99999063801583
1682116597.9515023,1.2999839413723249,0.00017188733853924697,0.0,119.99999413330205,-5.729577951308232e-05,54.199973954431464,-44.99999063801583
1682116598.0402954,1.2999839413723249,0.00017188733853924697,0.0,119.99999413330205,-5.729577951308232e-05,54.199973954431464,-44.99999063801583
1682116598.1175847,1.2999839413723249,0.00017188733853924697,0.0,119.99999413330205,-5.729577951308232e-05,54.199973954431464,-44.99999063801583
1682116598.222272,1.2999839413723249,0.00017188733853924697,0.0,119.99999413330205,-5.729577951308232e-05,54.199973954431464,-44.99999063801583
1682116598.3123071,1.2999839413723249,0.00017188733853924697,0.0,119.99999413330205,-5.729577951308232e-05,54.199973954431464,-44.99999063801583
1682116598.396681,1.2999839413723249,0.00017188733853924697,0.0,119.99999413330205,-5.729577951308232e-05,54.199973954431464,-44.99999063801583
1682116598.4910178,1.2999839413723249,0.00017188733853924697,0.0,119.99999413330205,-5.729577951308232e-05,54.199973954431464,-44.99999063801583
1682116598.5762508,1.2999839413723249,0.00017188733853924697,0.0,119.99999413330205,-5.729577951308232e-05,54.199973954431464,-44.99999063801583
1682116598.6520143,1.2999839413723249,0.00017188733853924697,0.0,119.99999413330205,-5.729577951308232e-05,54.199973954431464,-44.99999063801583
1682116598.7514365,1.2999839413723249,0.00017188733853924697,0.0,119.99999413330205,-5.729577951308232e-05,54.199973954431464,-44.99999063801583
1682116598.8450792,1.2999839413723249,0.00017188733853924697,0.0,119.99999413330205,-5.729577951308232e-05,54.199973954431464,-44.99999063801583
1682116598.923513,1.2999839413723249,0.00017188733853924697,0.0,119.99999413330205,-5.729577951308232e-05,54.199973954431464,-44.99999063801583
1682116599.0188358,1.2999839413723249,0.00017188733853924697,0.0,119.99999413330205,-5.729577951308232e-05,54.199973954431464,-44.99999063801583
1682116599.115576,1.2999839413723249,0.00017188733853924697,0.0,119.99999413330205,-5.729577951308232e-05,54.199973954431464,-44.99999063801583
1682116599.2003834,1.2999839413723249,0.00017188733853924697,0.0,119.99999413330205,-5.729577951308232e-05,54.199973954431464,-44.99999063801583
1682116599.2870724,1.2999839413723249,0.00017188733853924697,0.0,119.99999413330205,-5.729577951308232e-05,54.199973954431464,-44.99999063801583
1682116599.392294,1.2999839413723249,0.00017188733853924697,0.0,119.99999413330205,-5.729577951308232e-05,54.199973954431464,-44.99999063801583
1682116599.4799771,1.2999839413723249,0.00017188733853924697,0.0,119.99999413330205,-5.729577951308232e-05,54.199973954431464,-44.99999063801583
1682116599.564998,1.2999839413723249,0.00017188733853924697,0.0,119.99999413330205,-5.729577951308232e-05,54.199973954431464,-44.99999063801583
1682116599.6595097,1.2999839413723249,0.00017188733853924697,0.0,119.99999413330205,-5.729577951308232e-05,54.199973954431464,-44.99999063801583
1682116599.7491343,1.2999839413723249,0.00017188733853924697,0.0,119.99999413330205,-5.729577951308232e-05,54.199973954431464,-44.99999063801583
1682116599.8370614,1.2999839413723249,0.00017188733853924697,0.0,119.99999413330205,-5.729577951308232e-05,54.199973954431464,-44.99999063801583
1682116599.916282,1.2999839413723249,0.00017188733853924697,0.0,119.99999413330205,-5.729577951308232e-05,54.199973954431464,-44.99999063801583
1682116600.0140436,1.2999839413723249,0.00017188733853924697,0.0,119.99999413330205,-5.729577951308232e-05,54.199973954431464,-44.99999063801583
1682116600.1036816,1.2999839413723249,0.00017188733853924697,0.0,119.99999413330205,-5.729577951308232e-05,54.199973954431464,-44.99999063801583
1682116600.1959412,1.2999839413723249,0.00017188733853924697,0.0,119.99999413330205,-5.729577951308232e-05,54.199973954431464,-44.99999063801583
1682116600.2778652,1.2999839413723249,0.00017188733853924697,0.0,119.99999413330205,-5.729577951308232e-05,54.199973954431464,-44.99999063801583
1682116600.354778,1.2999839413723249,0.00017188733853924697,0.0,119.99999413330205,-5.729577951308232e-05,54.199973954431464,-44.99999063801583
1682116600.4269164,1.2999839413723249,0.00017188733853924697,0.0,119.99999413330205,-5.729577951308232e-05,54.199973954431464,-44.99999063801583
1682116600.5035224,1.2999839413723249,0.00017188733853924697,0.0,119.99999413330205,-5.729577951308232e-05,54.199973954431464,-44.99999063801583
1682116600.572171,1.2999839413723249,0.00017188733853924697,0.0,119.99999413330205,-5.729577951308232e-05,54.199973954431464,-44.99999063801583
1682116600.640471,1.2999839413723249,0.00017188733853924697,0.0,119.99999413330205,-5.729577951308232e-05,54.199973954431464,-44.99999063801583
1682116600.7299547,1.2999839413723249,0.00017188733853924697,0.0,119.99999413330205,-5.729577951308232e-05,54.199973954431464,-44.99999063801583
1682116600.8090048,1.2999839413723249,0.00017188733853924697,0.0,119.99999413330205,-5.729577951308232e-05,54.199973954431464,-44.99999063801583
1682116600.8907287,1.2999839413723249,0.00017188733853924697,0.0,119.99999413330205,-5.729577951308232e-05,54.199973954431464,-44.99999063801583
1682116600.9774501,1.2999839413723249,0.00017188733853924697,0.0,119.99999413330205,-5.729577951308232e-05,54.199973954431464,-44.99999063801583
1682116601.0684698,1.2999839413723249,0.00017188733853924697,0.0,119.99999413330205,-5.729577951308232e-05,54.199973954431464,-44.99999063801583
1682116601.1507401,1.2999839413723249,0.00017188733853924697,0.0,119.99999413330205,-5.729577951308232e-05,54.199973954431464,-44.99999063801583
1682116601.219746,1.2999839413723249,0.00017188733853924697,0.0,119.99999413330205,-5.729577951308232e-05,54.199973954431464,-44.99999063801583
1682116601.299791,1.2999839413723249,0.00017188733853924697,0.0,119.99999413330205,-5.729577951308232e-05,54.199973954431464,-44.99999063801583
1682116601.3795328,1.2999839413723249,0.00017188733853924697,0.0,119.99999413330205,-5.729577951308232e-05,54.199973954431464,-44.99999063801583
1682116601.465194,1.2999839413723249,0.00017188733853924697,0.0,119.99999413330205,-5.729577951308232e-05,54.199973954431464,-44.99999063801583
1682116601.556981,1.2999839413723249,0.00017188733853924697,0.0,119.99999413330205,-5.729577951308232e-05,54.199973954431464,-44.99999063801583
1682116601.7441134,1.2999839413723249,0.00017188733853924697,0.0,119.99999413330205,-5.729577951308232e-05,54.199973954431464,-44.99999063801583
1682116601.8261294,1.2999839413723249,0.00017188733853924697,0.0,119.99999413330205,-5.729577951308232e-05,54.199973954431464,-44.99999063801583
1682116601.913976,1.2999839413723249,0.00017188733853924697,0.0,119.99999413330205,-5.729577951308232e-05,54.199973954431464,-44.99999063801583
1682116601.9855561,1.2999839413723249,0.00017188733853924697,0.0,119.99999413330205,-5.729577951308232e-05,54.199973954431464,-44.99999063801583
1682116602.0673628,1.2999839413723249,0.00017188733853924697,0.0,119.99999413330205,-5.729577951308232e-05,54.199973954431464,-44.99999063801583
1682116602.1583636,1.2999839413723249,0.00017188733853924697,0.0,119.99999413330205,-5.729577951308232e-05,54.199973954431464,-44.99999063801583
1682116602.2343514,1.2999839413723249,0.00017188733853924697,0.0,119.99999413330205,-5.729577951308232e-05,54.199973954431464,-44.99999063801583
1682116602.3240254,1.2999839413723249,0.00017188733853924697,0.0,119.99999413330205,-5.729577951308232e-05,54.199973954431464,-44.99999063801583
1682116602.4089985,1.2999839413723249,0.00017188733853924697,0.0,119.99999413330205,-5.729577951308232e-05,54.199973954431464,-44.99999063801583
1682116602.4856749,1.2999839413723249,0.00017188733853924697,0.0,119.99999413330205,-5.729577951308232e-05,54.199973954431464,-44.99999063801583
1682116602.5845945,1.2999839413723249,0.00017188733853924697,0.0,119.99999413330205,-5.729577951308232e-05,54.199973954431464,-44.99999063801583
1682116602.66083,1.2999839413723249,0.00017188733853924697,0.0,119.99999413330205,-5.729577951308232e-05,54.199973954431464,-44.99999063801583
1682116602.7411942,1.2999839413723249,0.00017188733853924697,0.0,119.99999413330205,-5.729577951308232e-05,54.199973954431464,-44.99999063801583
1682116602.8377445,1.2999839413723249,0.00017188733853924697,0.0,119.99999413330205,-5.729577951308232e-05,54.199973954431464,-44.99999063801583
1682116602.9276257,1.2999839413723249,0.00017188733853924697,0.0,119.99999413330205,-5.729577951308232e-05,54.199973954431464,-44.99999063801583
1682116603.0106099,1.2999839413723249,0.00017188733853924697,0.0,119.99999413330205,-5.729577951308232e-05,54.199973954431464,-44.99999063801583
1682116603.0930445,1.2999839413723249,0.00017188733853924697,0.0,119.99999413330205,-5.729577951308232e-05,54.199973954431464,-44.99999063801583
1682116603.1804848,1.2999839413723249,0.00017188733853924697,0.0,119.99999413330205,-5.729577951308232e-05,54.199973954431464,-44.99999063801583
1682116603.2671995,1.2999839413723249,0.00017188733853924697,0.0,119.99999413330205,-5.729577951308232e-05,54.199973954431464,-44.99999063801583
1682116603.36007,1.2999839413723249,0.00017188733853924697,0.0,119.99999413330205,-5.729577951308232e-05,54.199973954431464,-44.99999063801583
1682116603.444869,1.2999839413723249,0.00017188733853924697,0.0,119.99999413330205,-5.729577951308232e-05,54.199973954431464,-44.99999063801583
1682116603.525227,1.2999839413723249,0.00017188733853924697,0.0,119.99999413330205,-5.729577951308232e-05,54.199973954431464,-44.99999063801583
1682116603.623131,1.2999839413723249,0.00017188733853924697,0.0,119.99999413330205,-5.729577951308232e-05,54.199973954431464,-44.99999063801583
1682116603.6992471,1.2999839413723249,0.00017188733853924697,0.0,119.99999413330205,-5.729577951308232e-05,54.199973954431464,-44.99999063801583
1682116603.7763286,1.2999839413723249,0.00017188733853924697,0.0,119.99999413330205,-5.729577951308232e-05,54.199973954431464,-44.99999063801583
1682116603.864797,1.2999839413723249,0.00017188733853924697,0.0,119.99999413330205,-5.729577951308232e-05,54.199973954431464,-44.99999063801583
1682116603.9467728,1.2999839413723249,0.00017188733853924697,0.0,119.99999413330205,-5.729577951308232e-05,54.199973954431464,-44.99999063801583
1682116604.0417526,1.2999839413723249,0.00017188733853924697,0.0,119.99999413330205,-5.729577951308232e-05,54.199973954431464,-44.99999063801583
1682116604.1222348,1.2999839413723249,0.00017188733853924697,0.0,119.99999413330205,-5.729577951308232e-05,54.199973954431464,-44.99999063801583
1682116604.2227778,1.2999839413723249,0.00017188733853924697,0.0,119.99999413330205,-5.729577951308232e-05,54.199973954431464,-44.99999063801583
1682116604.3189647,1.2999839413723249,0.00017188733853924697,0.0,119.99999413330205,-5.729577951308232e-05,54.199973954431464,-44.99999063801583
1682116604.4038038,1.2999839413723249,0.00017188733853924697,0.0,119.99999413330205,-5.729577951308232e-05,54.199973954431464,-44.99999063801583
1682116604.4860673,1.2999839413723249,0.00017188733853924697,0.0,119.99999413330205,-5.729577951308232e-05,54.199973954431464,-44.99999063801583
1682116604.5797377,1.2999839413723249,0.00017188733853924697,0.0,119.99999413330205,-5.729577951308232e-05,54.199973954431464,-44.99999063801583
1682116604.6595738,1.2999839413723249,0.00017188733853924697,0.0,119.99999413330205,-5.729577951308232e-05,54.199973954431464,-44.99999063801583
1682116604.7548978,1.2999839413723249,0.00017188733853924697,0.0,119.99999413330205,-5.729577951308232e-05,54.199973954431464,-44.99999063801583
1682116604.8316264,1.2999839413723249,0.00017188733853924697,0.0,119.99999413330205,-5.729577951308232e-05,54.199973954431464,-44.99999063801583
1682116604.9141886,1.2999839413723249,0.00017188733853924697,0.0,119.99999413330205,-5.729577951308232e-05,54.199973954431464,-44.99999063801583
1682116604.9842074,1.2999839413723249,0.00017188733853924697,0.0,119.99999413330205,-5.729577951308232e-05,54.199973954431464,-44.99999063801583
1682118328.3239012,1.2999839413723249,81.68000383715747,0.0,119.99999413330205,-14.99997778074544,54.199973954431464,-44.99999063801583
1682118334.3324988,1.2999839413723249,0.0005156620156177409,0.0,119.99999413330205,-0.00011459155902616463,54.199973954431464,-44.99999063801583
1682118334.3329682,1.2999839413723249,0.0005156620156177409,0.0,119.99999413330205,-0.00011459155902616463,54.199973954431464,-44.99999063801583
1682118334.3341782,1.2999839413723249,0.0005156620156177409,0.0,119.99999413330205,-0.00011459155902616463,54.199973954431464,-44.99999063801583
1682118334.3350239,1.2999839413723249,0.0005156620156177409,0.0,119.99999413330205,-0.00011459155902616463,54.199973954431464,-44.99999063801583
1682118334.335363,1.2999839413723249,0.0005156620156177409,0.0,119.99999413330205,-0.00011459155902616463,54.199973954431464,-44.99999063801583
1682118334.336689,1.2999839413723249,0.0005156620156177409,0.0,119.99999413330205,-0.00011459155902616463,54.199973954431464,-44.99999063801583
1682118334.3374956,1.2999839413723249,0.0005156620156177409,0.0,119.99999413330205,-0.00011459155902616463,54.199973954431464,-44.99999063801583
1682118334.338302,1.2999839413723249,0.0005156620156177409,0.0,119.99999413330205,-0.00011459155902616463,54.199973954431464,-44.99999063801583
1682118334.3393767,1.2999839413723249,0.0005156620156177409,0.0,119.99999413330205,-0.00011459155902616463,54.199973954431464,-44.99999063801583
1682118334.34026,1.2999839413723249,0.0005156620156177409,0.0,119.99999413330205,-0.00011459155902616463,54.199973954431464,-44.99999063801583
1682118334.341135,1.2999839413723249,0.0005156620156177409,0.0,119.99999413330205,-0.00011459155902616463,54.199973954431464,-44.99999063801583
1682118334.3423533,1.2999839413723249,0.0005156620156177409,0.0,119.99999413330205,-0.00011459155902616463,54.199973954431464,-44.99999063801583
1682118334.3436434,1.2999839413723249,0.0005156620156177409,0.0,119.99999413330205,-0.00011459155902616463,54.199973954431464,-44.99999063801583
1682118334.345158,1.2999839413723249,0.0005156620156177409,0.0,119.99999413330205,-0.00011459155902616463,54.199973954431464,-44.99999063801583
1682118334.3464243,1.2999839413723249,0.0005156620156177409,0.0,119.99999413330205,-0.00011459155902616463,54.199973954431464,-44.99999063801583
1682118334.3475826,1.2999839413723249,0.0005156620156177409,0.0,119.99999413330205,-0.00011459155902616463,54.199973954431464,-44.99999063801583
1682118334.3504565,1.2999839413723249,0.0005156620156177409,0.0,119.99999413330205,-0.00011459155902616463,54.199973954431464,-44.99999063801583
1682118334.3508472,1.2999839413723249,0.0005156620156177409,0.0,119.99999413330205,-0.00011459155902616463,54.199973954431464,-44.99999063801583
1682118334.351797,1.2999839413723249,0.0005156620156177409,0.0,119.99999413330205,-0.00011459155902616463,54.199973954431464,-44.99999063801583
1682118334.3531556,1.2999839413723249,0.0005156620156177409,0.0,119.99999413330205,-0.00011459155902616463,54.199973954431464,-44.99999063801583
1682118334.3541987,1.2999839413723249,0.0005156620156177409,0.0,119.99999413330205,-0.00011459155902616463,54.199973954431464,-44.99999063801583
1682119406.5098162,1.2999839413723249,81.68000383715747,0.0,119.99999413330205,-14.99997778074544,54.199973954431464,-44.99999063801583
1682119412.5255644,1.2999839413723249,0.0018907607239317169,0.0,119.99999413330205,-0.00034377467707849394,54.199973954431464,-44.99999063801583
1682119412.526554,1.2999839413723249,0.0018907607239317169,0.0,119.99999413330205,-0.00034377467707849394,54.199973954431464,-44.99999063801583
1682119412.5274498,1.2999839413723249,0.0018907607239317169,0.0,119.99999413330205,-0.00034377467707849394,54.199973954431464,-44.99999063801583
1682119412.5279417,1.2999839413723249,0.0018907607239317169,0.0,119.99999413330205,-0.00034377467707849394,54.199973954431464,-44.99999063801583
1682119412.5287597,1.2999839413723249,0.0018907607239317169,0.0,119.99999413330205,-0.00034377467707849394,54.199973954431464,-44.99999063801583
1682119412.529641,1.2999839413723249,0.0018907607239317169,0.0,119.99999413330205,-0.00034377467707849394,54.199973954431464,-44.99999063801583
1682119412.5307086,1.2999839413723249,0.0018907607239317169,0.0,119.99999413330205,-0.00034377467707849394,54.199973954431464,-44.99999063801583
1682119412.531565,1.2999839413723249,0.0018907607239317169,0.0,119.99999413330205,-0.00034377467707849394,54.199973954431464,-44.99999063801583
1682119412.5321636,1.2999839413723249,0.0018907607239317169,0.0,119.99999413330205,-0.00034377467707849394,54.199973954431464,-44.99999063801583
1682119412.5329616,1.2999839413723249,0.0018907607239317169,0.0,119.99999413330205,-0.00034377467707849394,54.199973954431464,-44.99999063801583
1682119412.5335457,1.2999839413723249,0.0018907607239317169,0.0,119.99999413330205,-0.00034377467707849394,54.199973954431464,-44.99999063801583
1682119412.5340793,1.2999839413723249,0.0018907607239317169,0.0,119.99999413330205,-0.00034377467707849394,54.199973954431464,-44.99999063801583
1682119412.5351093,1.2999839413723249,0.0018907607239317169,0.0,119.99999413330205,-0.00034377467707849394,54.199973954431464,-44.99999063801583
1682119412.5359254,1.2999839413723249,0.0018907607239317169,0.0,119.99999413330205,-0.00034377467707849394,54.199973954431464,-44.99999063801583
1682119412.5370612,1.2999839413723249,0.0018907607239317169,0.0,119.99999413330205,-0.00034377467707849394,54.199973954431464,-44.99999063801583
1682119412.5377955,1.2999839413723249,0.0018907607239317169,0.0,119.99999413330205,-0.00034377467707849394,54.199973954431464,-44.99999063801583
1682119412.5414267,1.2999839413723249,0.0018907607239317169,0.0,119.99999413330205,-0.00034377467707849394,54.199973954431464,-44.99999063801583
1682119412.5457313,1.2999839413723249,0.0018907607239317169,0.0,119.99999413330205,-0.00034377467707849394,54.199973954431464,-44.99999063801583
1682119412.5500426,1.2999839413723249,0.0018907607239317169,0.0,119.99999413330205,-0.00034377467707849394,54.199973954431464,-44.99999063801583
1682119412.5545683,1.2999839413723249,0.0018907607239317169,0.0,119.99999413330205,-0.00034377467707849394,54.199973954431464,-44.99999063801583
1682119412.557871,1.2999839413723249,0.0018907607239317169,0.0,119.99999413330205,-0.00034377467707849394,54.199973954431464,-44.99999063801583
1682119412.5618231,1.2999839413723249,0.0018907607239317169,0.0,119.99999413330205,-0.00034377467707849394,54.199973954431464,-44.99999063801583
1682119412.5656362,1.2999839413723249,0.0018907607239317169,0.0,119.99999413330205,-0.00034377467707849394,54.199973954431464,-44.99999063801583
1682119412.568919,1.2999839413723249,0.0018907607239317169,0.0,119.99999413330205,-0.00034377467707849394,54.199973954431464,-44.99999063801583
1682119412.5740645,1.2999839413723249,0.0018907607239317169,0.0,119.99999413330205,-0.00034377467707849394,54.199973954431464,-44.99999063801583
1682119412.5787013,1.2999839413723249,0.0018907607239317169,0.0,119.99999413330205,-0.00034377467707849394,54.199973954431464,-44.99999063801583
1682119412.5818272,1.2999839413723249,0.0018907607239317169,0.0,119.99999413330205,-0.00034377467707849394,54.199973954431464,-44.99999063801583
1682119412.5854468,1.2999839413723249,0.0018907607239317169,0.0,119.99999413330205,-0.00034377467707849394,54.199973954431464,-44.99999063801583
1682119412.5889323,1.2999839413723249,0.0018907607239317169,0.0,119.99999413330205,-0.00034377467707849394,54.199973954431464,-44.99999063801583
1682119412.5918515,1.2999839413723249,0.0018907607239317169,0.0,119.99999413330205,-0.00034377467707849394,54.199973954431464,-44.99999063801583
1682119412.5961308,1.2999839413723249,0.0018907607239317169,0.0,119.99999413330205,-0.00034377467707849394,54.199973954431464,-44.99999063801583
1682119412.6018345,1.2999839413723249,0.0018907607239317169,0.0,119.99999413330205,-0.00034377467707849394,54.199973954431464,-44.99999063801583
1682119412.6045156,1.2999839413723249,0.0018907607239317169,0.0,119.99999413330205,-0.00034377467707849394,54.199973954431464,-44.99999063801583
1682119412.6075745,1.2999839413723249,0.0018907607239317169,0.0,119.99999413330205,-0.00034377467707849394,54.199973954431464,-44.99999063801583
1682119412.611444,1.2999839413723249,0.0018907607239317169,0.0,119.99999413330205,-0.00034377467707849394,54.199973954431464,-44.99999063801583
1682119412.6159005,1.2999839413723249,0.0018907607239317169,0.0,119.99999413330205,-0.00034377467707849394,54.199973954431464,-44.99999063801583
1682119412.618991,1.2999839413723249,0.0018907607239317169,0.0,119.99999413330205,-0.00034377467707849394,54.199973954431464,-44.99999063801583
1682119412.6228406,1.2999839413723249,0.0018907607239317169,0.0,119.99999413330205,-0.00034377467707849394,54.199973954431464,-44.99999063801583
1682119412.6277916,1.2999839413723249,0.0018907607239317169,0.0,119.99999413330205,-0.00034377467707849394,54.199973954431464,-44.99999063801583
1682119412.6300302,1.2999839413723249,0.0018907607239317169,0.0,119.99999413330205,-0.00034377467707849394,54.199973954431464,-44.99999063801583
1682119412.63254,1.2999839413723249,0.0018907607239317169,0.0,119.99999413330205,-0.00034377467707849394,54.199973954431464,-44.99999063801583
1682119412.635857,1.2999839413723249,0.0018907607239317169,0.0,119.99999413330205,-0.00034377467707849394,54.199973954431464,-44.99999063801583
1682119412.6404727,1.2999839413723249,0.0018907607239317169,0.0,119.99999413330205,-0.00034377467707849394,54.199973954431464,-44.99999063801583
1682119412.6444688,1.2999839413723249,0.0018907607239317169,0.0,119.99999413330205,-0.00034377467707849394,54.199973954431464,-44.99999063801583
1682119412.6469333,1.2999839413723249,0.0018907607239317169,0.0,119.99999413330205,-0.00034377467707849394,54.199973954431464,-44.99999063801583
1682119412.6500452,1.2999839413723249,0.0018907607239317169,0.0,119.99999413330205,-0.00034377467707849394,54.199973954431464,-44.99999063801583
1682119412.6557634,1.2999839413723249,0.0018907607239317169,0.0,119.99999413330205,-0.00034377467707849394,54.199973954431464,-44.99999063801583
1682119412.657521,1.2999839413723249,0.0018907607239317169,0.0,119.99999413330205,-0.00034377467707849394,54.199973954431464,-44.99999063801583
1682119412.660231,1.2999839413723249,0.0018907607239317169,0.0,119.99999413330205,-0.00034377467707849394,54.199973954431464,-44.99999063801583
1682119412.66203,1.2999839413723249,0.0018907607239317169,0.0,119.99999413330205,-0.00034377467707849394,54.199973954431464,-44.99999063801583
1682119412.6642544,1.2999839413723249,0.0018907607239317169,0.0,119.99999413330205,-0.00034377467707849394,54.199973954431464,-44.99999063801583
1682119412.666005,1.2999839413723249,0.0018907607239317169,0.0,119.99999413330205,-0.00034377467707849394,54.199973954431464,-44.99999063801583
1682119412.6684258,1.2999839413723249,0.0018907607239317169,0.0,119.99999413330205,-0.00034377467707849394,54.199973954431464,-44.99999063801583
1682119412.6704342,1.2999839413723249,0.0018907607239317169,0.0,119.99999413330205,-0.00034377467707849394,54.199973954431464,-44.99999063801583
1682119412.6733599,1.2999839413723249,0.0018907607239317169,0.0,119.99999413330205,-0.00034377467707849394,54.199973954431464,-44.99999063801583
1682119412.6763825,1.2999839413723249,0.0018907607239317169,0.0,119.99999413330205,-0.00034377467707849394,54.199973954431464,-44.99999063801583
1682119412.6798058,1.2999839413723249,0.0018907607239317169,0.0,119.99999413330205,-0.00034377467707849394,54.199973954431464,-44.99999063801583
1682119412.6837258,1.2999839413723249,0.0018907607239317169,0.0,119.99999413330205,-0.00034377467707849394,54.199973954431464,-44.99999063801583
1682119412.6870615,1.2999839413723249,0.0018907607239317169,0.0,119.99999413330205,-0.00034377467707849394,54.199973954431464,-44.99999063801583
1682119412.6893027,1.2999839413723249,0.0018907607239317169,0.0,119.99999413330205,-0.00034377467707849394,54.199973954431464,-44.99999063801583
1682119412.6923702,1.2999839413723249,0.0018907607239317169,0.0,119.99999413330205,-0.00034377467707849394,54.199973954431464,-44.99999063801583
1682119412.6948118,1.2999839413723249,0.0018907607239317169,0.0,119.99999413330205,-0.00034377467707849394,54.199973954431464,-44.99999063801583
1682119412.6977022,1.2999839413723249,0.0018907607239317169,0.0,119.99999413330205,-0.00034377467707849394,54.199973954431464,-44.99999063801583
1682119412.700285,1.2999839413723249,0.0018907607239317169,0.0,119.99999413330205,-0.00034377467707849394,54.199973954431464,-44.99999063801583
1682119412.704672,1.2999839413723249,0.0018907607239317169,0.0,119.99999413330205,-0.00034377467707849394,54.199973954431464,-44.99999063801583
1682119412.7332304,1.2999839413723249,0.0018907607239317169,0.0,119.99999413330205,-0.00034377467707849394,54.199973954431464,-44.99999063801583
1682119412.8253102,1.2999839413723249,0.0018907607239317169,0.0,119.99999413330205,-0.00034377467707849394,54.199973954431464,-44.99999063801583
1682119412.89849,1.2999839413723249,0.0018907607239317169,0.0,119.99999413330205,-0.00034377467707849394,54.199973954431464,-44.99999063801583
1682119412.9875295,1.2999839413723249,0.0018907607239317169,0.0,119.99999413330205,-0.00034377467707849394,54.199973954431464,-44.99999063801583
1682119413.0716267,1.2999839413723249,0.0018907607239317169,0.0,119.99999413330205,-0.00034377467707849394,54.199973954431464,-44.99999063801583
1682119413.155035,1.2999839413723249,0.0018907607239317169,0.0,119.99999413330205,-0.00034377467707849394,54.199973954431464,-44.99999063801583
1682119413.2461205,1.2999839413723249,0.0018907607239317169,0.0,119.99999413330205,-0.00034377467707849394,54.199973954431464,-44.99999063801583
1682119413.337057,1.2999839413723249,0.0018907607239317169,0.0,119.99999413330205,-0.00034377467707849394,54.199973954431464,-44.99999063801583
1682119413.4216163,1.2999839413723249,0.0018907607239317169,0.0,119.99999413330205,-0.00034377467707849394,54.199973954431464,-44.99999063801583
1682119413.5147257,1.2999839413723249,0.0018907607239317169,0.0,119.99999413330205,-0.00034377467707849394,54.199973954431464,-44.99999063801583
1682119413.6009843,1.2999839413723249,0.0018907607239317169,0.0,119.99999413330205,-0.00034377467707849394,54.199973954431464,-44.99999063801583
1682119413.691112,1.2999839413723249,0.0018907607239317169,0.0,119.99999413330205,-0.00034377467707849394,54.199973954431464,-44.99999063801583
1682119413.784987,1.2999839413723249,0.0018907607239317169,0.0,119.99999413330205,-0.00034377467707849394,54.199973954431464,-44.99999063801583
1682119413.8705375,1.2999839413723249,0.0018907607239317169,0.0,119.99999413330205,-0.00034377467707849394,54.199973954431464,-44.99999063801583
1682119413.9596229,1.2999839413723249,0.0018907607239317169,0.0,119.99999413330205,-0.00034377467707849394,54.199973954431464,-44.99999063801583
1682119414.04114,1.2999839413723249,0.0018907607239317169,0.0,119.99999413330205,-0.00034377467707849394,54.199973954431464,-44.99999063801583
1682119414.1208165,1.2999839413723249,0.0018907607239317169,0.0,119.99999413330205,-0.00034377467707849394,54.199973954431464,-44.99999063801583
1682119414.204583,1.2999839413723249,0.0018907607239317169,0.0,119.99999413330205,-0.00034377467707849394,54.199973954431464,-44.99999063801583
1682119414.2953055,1.2999839413723249,0.0018907607239317169,0.0,119.99999413330205,-0.00034377467707849394,54.199973954431464,-44.99999063801583
1682119414.3872602,1.2999839413723249,0.0018907607239317169,0.0,119.99999413330205,-0.00034377467707849394,54.199973954431464,-44.99999063801583
1682119414.492977,1.2999839413723249,0.0018907607239317169,0.0,119.99999413330205,-0.00034377467707849394,54.199973954431464,-44.99999063801583
1682119414.5758922,1.2999839413723249,0.0018907607239317169,0.0,119.99999413330205,-0.00034377467707849394,54.199973954431464,-44.99999063801583
1682119414.6593728,1.2999839413723249,0.0018907607239317169,0.0,119.99999413330205,-0.00034377467707849394,54.199973954431464,-44.99999063801583
1682119414.7504392,1.2999839413723249,0.0018907607239317169,0.0,119.99999413330205,-0.00034377467707849394,54.199973954431464,-44.99999063801583
1682119414.832203,1.2999839413723249,0.0018907607239317169,0.0,119.99999413330205,-0.00034377467707849394,54.199973954431464,-44.99999063801583
1682119414.9196894,1.2999839413723249,0.0018907607239317169,0.0,119.99999413330205,-0.00034377467707849394,54.199973954431464,-44.99999063801583
1682119415.0116615,1.2999839413723249,0.0018907607239317169,0.0,119.99999413330205,-0.00034377467707849394,54.199973954431464,-44.99999063801583
1682119415.0886009,1.2999839413723249,0.0018907607239317169,0.0,119.99999413330205,-0.00034377467707849394,54.199973954431464,-44.99999063801583
1682119415.1661358,1.2999839413723249,0.0018907607239317169,0.0,119.99999413330205,-0.00034377467707849394,54.199973954431464,-44.99999063801583
1682119415.2525034,1.2999839413723249,0.0018907607239317169,0.0,119.99999413330205,-0.00034377467707849394,54.199973954431464,-44.99999063801583
1682119415.337217,1.2999839413723249,0.0018907607239317169,0.0,119.99999413330205,-0.00034377467707849394,54.199973954431464,-44.99999063801583
1682119415.4179358,1.2999839413723249,0.0018907607239317169,0.0,119.99999413330205,-0.00034377467707849394,54.199973954431464,-44.99999063801583
1682119415.5150535,1.2999839413723249,0.0018907607239317169,0.0,119.99999413330205,-0.00034377467707849394,54.199973954431464,-44.99999063801583
1682119415.613445,1.2999839413723249,0.0018907607239317169,0.0,119.99999413330205,-0.00034377467707849394,54.199973954431464,-44.99999063801583
1682119415.7048554,1.2999839413723249,0.0018907607239317169,0.0,119.99999413330205,-0.00034377467707849394,54.199973954431464,-44.99999063801583
1682119415.7893786,1.2999839413723249,0.0018907607239317169,0.0,119.99999413330205,-0.00034377467707849394,54.199973954431464,-44.99999063801583
1682119415.875268,1.2999839413723249,0.0018907607239317169,0.0,119.99999413330205,-0.00034377467707849394,54.199973954431464,-44.99999063801583
1682119415.9645653,1.2999839413723249,0.0018907607239317169,0.0,119.99999413330205,-0.00034377467707849394,54.199973954431464,-44.99999063801583
1682119416.0523942,1.2999839413723249,0.0018907607239317169,0.0,119.99999413330205,-0.00034377467707849394,54.199973954431464,-44.99999063801583
1682119416.1406384,1.2999839413723249,0.0018907607239317169,0.0,119.99999413330205,-0.00034377467707849394,54.199973954431464,-44.99999063801583
1682119416.2226255,1.2999839413723249,0.0018907607239317169,0.0,119.99999413330205,-0.00034377467707849394,54.199973954431464,-44.99999063801583
1682119416.306712,1.2999839413723249,0.0018907607239317169,0.0,119.99999413330205,-0.00034377467707849394,54.199973954431464,-44.99999063801583
1682119416.3890634,1.2999839413723249,0.0018907607239317169,0.0,119.99999413330205,-0.00034377467707849394,54.199973954431464,-44.99999063801583
1682119416.4854655,1.2999839413723249,0.0018907607239317169,0.0,119.99999413330205,-0.00034377467707849394,54.199973954431464,-44.99999063801583
1682119416.570852,1.2999839413723249,0.0018907607239317169,0.0,119.99999413330205,-0.00034377467707849394,54.199973954431464,-44.99999063801583
1682119416.664288,1.2999839413723249,0.0018907607239317169,0.0,119.99999413330205,-0.00034377467707849394,54.199973954431464,-44.99999063801583
1682119416.7397838,1.2999839413723249,0.0018907607239317169,0.0,119.99999413330205,-0.00034377467707849394,54.199973954431464,-44.99999063801583
1682119416.8272343,1.2999839413723249,0.0018907607239317169,0.0,119.99999413330205,-0.00034377467707849394,54.199973954431464,-44.99999063801583
1682119416.9293723,1.2999839413723249,0.0018907607239317169,0.0,119.99999413330205,-0.00034377467707849394,54.199973954431464,-44.99999063801583
1682119417.019223,1.2999839413723249,0.0018907607239317169,0.0,119.99999413330205,-0.00034377467707849394,54.199973954431464,-44.99999063801583
1682119417.1053543,1.2999839413723249,0.0018907607239317169,0.0,119.99999413330205,-0.00034377467707849394,54.199973954431464,-44.99999063801583
1682119417.191891,1.2999839413723249,0.0018907607239317169,0.0,119.99999413330205,-0.00034377467707849394,54.199973954431464,-44.99999063801583
1682119417.2749937,1.2999839413723249,0.0018907607239317169,0.0,119.99999413330205,-0.00034377467707849394,54.199973954431464,-44.99999063801583
1682119417.359305,1.2999839413723249,0.0018907607239317169,0.0,119.99999413330205,-0.00034377467707849394,54.199973954431464,-44.99999063801583
1682119417.4456067,1.2999839413723249,0.0018907607239317169,0.0,119.99999413330205,-0.00034377467707849394,54.199973954431464,-44.99999063801583
1682119417.5323796,1.2999839413723249,0.0018907607239317169,0.0,119.99999413330205,-0.00034377467707849394,54.199973954431464,-44.99999063801583
1682119417.6210501,1.2999839413723249,0.0018907607239317169,0.0,119.99999413330205,-0.00034377467707849394,54.199973954431464,-44.99999063801583
1682119417.702281,1.2999839413723249,0.0018907607239317169,0.0,119.99999413330205,-0.00034377467707849394,54.199973954431464,-44.99999063801583
1682119417.7946615,1.2999839413723249,0.0018907607239317169,0.0,119.99999413330205,-0.00034377467707849394,54.199973954431464,-44.99999063801583
1682119417.878713,1.2999839413723249,0.0018907607239317169,0.0,119.99999413330205,-0.00034377467707849394,54.199973954431464,-44.99999063801583
1682119417.9854374,1.2999839413723249,0.0018907607239317169,0.0,119.99999413330205,-0.00034377467707849394,54.199973954431464,-44.99999063801583
1682119418.0755422,1.2999839413723249,0.0018907607239317169,0.0,119.99999413330205,-0.00034377467707849394,54.199973954431464,-44.99999063801583
1682119418.1505046,1.2999839413723249,0.0018907607239317169,0.0,119.99999413330205,-0.00034377467707849394,54.199973954431464,-44.99999063801583
1682119418.2382634,1.2999839413723249,0.0018907607239317169,0.0,119.99999413330205,-0.00034377467707849394,54.199973954431464,-44.99999063801583
1682119418.3346372,1.2999839413723249,0.0018907607239317169,0.0,119.99999413330205,-0.00034377467707849394,54.199973954431464,-44.99999063801583
1682119418.4169455,1.2999839413723249,0.0018907607239317169,0.0,119.99999413330205,-0.00034377467707849394,54.199973954431464,-44.99999063801583
1682119418.4919028,1.2999839413723249,0.0018907607239317169,0.0,119.99999413330205,-0.00034377467707849394,54.199973954431464,-44.99999063801583
1682119418.5860605,1.2999839413723249,0.0018907607239317169,0.0,119.99999413330205,-0.00034377467707849394,54.199973954431464,-44.99999063801583
1682119418.6711805,1.2999839413723249,0.0018907607239317169,0.0,119.99999413330205,-0.00034377467707849394,54.199973954431464,-44.99999063801583
1682119418.7527907,1.2999839413723249,0.0018907607239317169,0.0,119.99999413330205,-0.00034377467707849394,54.199973954431464,-44.99999063801583
1682119418.8329825,1.2999839413723249,0.0018907607239317169,0.0,119.99999413330205,-0.00034377467707849394,54.199973954431464,-44.99999063801583
1682119418.9123504,1.2999839413723249,0.0018907607239317169,0.0,119.99999413330205,-0.00034377467707849394,54.199973954431464,-44.99999063801583
1682119418.9952066,1.2999839413723249,0.0018907607239317169,0.0,119.99999413330205,-0.00034377467707849394,54.199973954431464,-44.99999063801583
1682119419.0856247,1.2999839413723249,0.0018907607239317169,0.0,119.99999413330205,-0.00034377467707849394,54.199973954431464,-44.99999063801583
1682119419.191067,1.2999839413723249,0.0018907607239317169,0.0,119.99999413330205,-0.00034377467707849394,54.199973954431464,-44.99999063801583
1682119419.2757816,1.2999839413723249,0.0018907607239317169,0.0,119.99999413330205,-0.00034377467707849394,54.199973954431464,-44.99999063801583
1682119419.3697925,1.2999839413723249,0.0018907607239317169,0.0,119.99999413330205,-0.00034377467707849394,54.199973954431464,-44.99999063801583
1682119419.45419,1.2999839413723249,0.0018907607239317169,0.0,119.99999413330205,-0.00034377467707849394,54.199973954431464,-44.99999063801583
1682119419.5365438,1.2999839413723249,0.0018907607239317169,0.0,119.99999413330205,-0.00034377467707849394,54.199973954431464,-44.99999063801583
1682119419.623587,1.2999839413723249,0.0018907607239317169,0.0,119.99999413330205,-0.00034377467707849394,54.199973954431464,-44.99999063801583
1682119419.7123942,1.2999839413723249,0.0018907607239317169,0.0,119.99999413330205,-0.00034377467707849394,54.199973954431464,-44.99999063801583
1682119419.8038967,1.2999839413723249,0.0018907607239317169,0.0,119.99999413330205,-0.00034377467707849394,54.199973954431464,-44.99999063801583
1682119419.8884442,1.2999839413723249,0.0018907607239317169,0.0,119.99999413330205,-0.00034377467707849394,54.199973954431464,-44.99999063801583
1682119419.9675279,1.2999839413723249,0.0018907607239317169,0.0,119.99999413330205,-0.00034377467707849394,54.199973954431464,-44.99999063801583
1682119420.0560038,1.2999839413723249,0.0018907607239317169,0.0,119.99999413330205,-0.00034377467707849394,54.199973954431464,-44.99999063801583
1682119420.1445932,1.2999839413723249,0.0018907607239317169,0.0,119.99999413330205,-0.00034377467707849394,54.199973954431464,-44.99999063801583
1682119420.2190912,1.2999839413723249,0.0018907607239317169,0.0,119.99999413330205,-0.00034377467707849394,54.199973954431464,-44.99999063801583
1682119420.298646,1.2999839413723249,0.0018907607239317169,0.0,119.99999413330205,-0.00034377467707849394,54.199973954431464,-44.99999063801583
1682119420.3840597,1.2999839413723249,0.0018907607239317169,0.0,119.99999413330205,-0.00034377467707849394,54.199973954431464,-44.99999063801583
1682119420.4733632,1.2999839413723249,0.0018907607239317169,0.0,119.99999413330205,-0.00034377467707849394,54.199973954431464,-44.99999063801583
1682119420.5565436,1.2999839413723249,0.0018907607239317169,0.0,119.99999413330205,-0.00034377467707849394,54.199973954431464,-44.99999063801583
1682119420.6371136,1.2999839413723249,0.0018907607239317169,0.0,119.99999413330205,-0.00034377467707849394,54.199973954431464,-44.99999063801583
1682119420.730492,1.2999839413723249,0.0018907607239317169,0.0,119.99999413330205,-0.00034377467707849394,54.199973954431464,-44.99999063801583
1682119420.8108618,1.2999839413723249,0.0018907607239317169,0.0,119.99999413330205,-0.00034377467707849394,54.199973954431464,-44.99999063801583
1682119420.9037585,1.2999839413723249,0.0018907607239317169,0.0,119.99999413330205,-0.00034377467707849394,54.199973954431464,-44.99999063801583
1682119420.9882894,1.2999839413723249,0.0018907607239317169,0.0,119.99999413330205,-0.00034377467707849394,54.199973954431464,-44.99999063801583
1682119421.0649157,1.2999839413723249,0.0018907607239317169,0.0,119.99999413330205,-0.00034377467707849394,54.199973954431464,-44.99999063801583
1682119421.1464787,1.2999839413723249,0.0018907607239317169,0.0,119.99999413330205,-0.00034377467707849394,54.199973954431464,-44.99999063801583
1682119421.2200274,1.2999839413723249,0.0018907607239317169,0.0,119.99999413330205,-0.00034377467707849394,54.199973954431464,-44.99999063801583
1682119421.29576,1.2999839413723249,0.0018907607239317169,0.0,119.99999413330205,-0.00034377467707849394,54.199973954431464,-44.99999063801583
1682119421.383715,1.2999839413723249,0.0018907607239317169,0.0,119.99999413330205,-0.00034377467707849394,54.199973954431464,-44.99999063801583
1682119421.4613378,1.2999839413723249,0.0018907607239317169,0.0,119.99999413330205,-0.00034377467707849394,54.199973954431464,-44.99999063801583
1682119421.552508,1.2999839413723249,0.0018907607239317169,0.0,119.99999413330205,-0.00034377467707849394,54.199973954431464,-44.99999063801583
1682119421.6384854,1.2999839413723249,0.0018907607239317169,0.0,119.99999413330205,-0.00034377467707849394,54.199973954431464,-44.99999063801583
1682119421.7192445,1.2999839413723249,0.0018907607239317169,0.0,119.99999413330205,-0.00034377467707849394,54.199973954431464,-44.99999063801583
1682119421.8076882,1.2999839413723249,0.0018907607239317169,0.0,119.99999413330205,-0.00034377467707849394,54.199973954431464,-44.99999063801583
1682119421.892061,1.2999839413723249,0.0018907607239317169,0.0,119.99999413330205,-0.00034377467707849394,54.199973954431464,-44.99999063801583
1682119421.9878128,1.2999839413723249,0.0018907607239317169,0.0,119.99999413330205,-0.00034377467707849394,54.199973954431464,-44.99999063801583
1682119422.067856,1.2999839413723249,0.0018907607239317169,0.0,119.99999413330205,-0.00034377467707849394,54.199973954431464,-44.99999063801583
1682119422.1475372,1.2999839413723249,0.0018907607239317169,0.0,119.99999413330205,-0.00034377467707849394,54.199973954431464,-44.99999063801583
1682119422.2279768,1.2999839413723249,0.0018907607239317169,0.0,119.99999413330205,-0.00034377467707849394,54.199973954431464,-44.99999063801583
1682119422.322326,1.2999839413723249,0.0018907607239317169,0.0,119.99999413330205,-0.00034377467707849394,54.199973954431464,-44.99999063801583
1682119422.414572,1.2999839413723249,0.0018907607239317169,0.0,119.99999413330205,-0.00034377467707849394,54.199973954431464,-44.99999063801583
1682119422.4950867,1.2999839413723249,0.0018907607239317169,0.0,119.99999413330205,-0.00034377467707849394,54.199973954431464,-44.99999063801583
1682119422.5849388,1.2999839413723249,0.0018907607239317169,0.0,119.99999413330205,-0.00034377467707849394,54.199973954431464,-44.99999063801583
1682119422.6727066,1.2999839413723249,0.0018907607239317169,0.0,119.99999413330205,-0.00034377467707849394,54.199973954431464,-44.99999063801583
1682119422.7522955,1.2999839413723249,0.0018907607239317169,0.0,119.99999413330205,-0.00034377467707849394,54.199973954431464,-44.99999063801583
1682119422.8304353,1.2999839413723249,0.0018907607239317169,0.0,119.99999413330205,-0.00034377467707849394,54.199973954431464,-44.99999063801583
1682119422.917109,1.2999839413723249,0.0018907607239317169,0.0,119.99999413330205,-0.00034377467707849394,54.199973954431464,-44.99999063801583
1682119423.0058458,1.2999839413723249,0.0018907607239317169,0.0,119.99999413330205,-0.00034377467707849394,54.199973954431464,-44.99999063801583
1682119423.0768561,1.2999839413723249,0.0018907607239317169,0.0,119.99999413330205,-0.00034377467707849394,54.199973954431464,-44.99999063801583
1682119423.171051,1.2999839413723249,0.0018907607239317169,0.0,119.99999413330205,-0.00034377467707849394,54.199973954431464,-44.99999063801583
1682119423.2478313,1.2999839413723249,0.0018907607239317169,0.0,119.99999413330205,-0.00034377467707849394,54.199973954431464,-44.99999063801583
1682119423.327859,1.2999839413723249,0.0018907607239317169,0.0,119.99999413330205,-0.00034377467707849394,54.199973954431464,-44.99999063801583
1682119423.4071336,1.2999839413723249,0.0018907607239317169,0.0,119.99999413330205,-0.00034377467707849394,54.199973954431464,-44.99999063801583
1682119423.48318,1.2999839413723249,0.0018907607239317169,0.0,119.99999413330205,-0.00034377467707849394,54.199973954431464,-44.99999063801583
1682119423.5655744,1.2999839413723249,0.0018907607239317169,0.0,119.99999413330205,-0.00034377467707849394,54.199973954431464,-44.99999063801583
1682119423.648528,1.2999839413723249,0.0018907607239317169,0.0,119.99999413330205,-0.00034377467707849394,54.199973954431464,-44.99999063801583
1682119423.7344625,1.2999839413723249,0.0018907607239317169,0.0,119.99999413330205,-0.00034377467707849394,54.199973954431464,-44.99999063801583
1682119423.8277752,1.2999839413723249,0.0018907607239317169,0.0,119.99999413330205,-0.00034377467707849394,54.199973954431464,-44.99999063801583
1682119423.9101396,1.2999839413723249,0.0018907607239317169,0.0,119.99999413330205,-0.00034377467707849394,54.199973954431464,-44.99999063801583
1682119423.9922974,1.2999839413723249,0.0018907607239317169,0.0,119.99999413330205,-0.00034377467707849394,54.199973954431464,-44.99999063801583
1682119424.0701742,1.2999839413723249,0.0018907607239317169,0.0,119.99999413330205,-0.00034377467707849394,54.199973954431464,-44.99999063801583
1682119424.145612,1.2999839413723249,0.0018907607239317169,0.0,119.99999413330205,-0.00034377467707849394,54.199973954431464,-44.99999063801583
1682119424.222625,1.2999839413723249,0.0018907607239317169,0.0,119.99999413330205,-0.00034377467707849394,54.199973954431464,-44.99999063801583
1682119424.3024306,1.2999839413723249,0.0018907607239317169,0.0,119.99999413330205,-0.00034377467707849394,54.199973954431464,-44.99999063801583
1682119424.3796327,1.2999839413723249,0.0018907607239317169,0.0,119.99999413330205,-0.00034377467707849394,54.199973954431464,-44.99999063801583
1682119424.45552,1.2999839413723249,0.0018907607239317169,0.0,119.99999413330205,-0.00034377467707849394,54.199973954431464,-44.99999063801583
1682119424.547639,1.2999839413723249,0.0018907607239317169,0.0,119.99999413330205,-0.00034377467707849394,54.199973954431464,-44.99999063801583
1682119424.6271641,1.2999839413723249,0.0018907607239317169,0.0,119.99999413330205,-0.00034377467707849394,54.199973954431464,-44.99999063801583
1682119424.7129161,1.2999839413723249,0.0018907607239317169,0.0,119.99999413330205,-0.00034377467707849394,54.199973954431464,-44.99999063801583
1682119424.8001235,1.2999839413723249,0.0018907607239317169,0.0,119.99999413330205,-0.00034377467707849394,54.199973954431464,-44.99999063801583
1682119424.8870475,1.2999839413723249,0.0018907607239317169,0.0,119.99999413330205,-0.00034377467707849394,54.199973954431464,-44.99999063801583
1682119424.9681141,1.2999839413723249,0.0018907607239317169,0.0,119.99999413330205,-0.00034377467707849394,54.199973954431464,-44.99999063801583
1682119425.0582232,1.2999839413723249,0.0018907607239317169,0.0,119.99999413330205,-0.00034377467707849394,54.199973954431464,-44.99999063801583
1682119425.1391344,1.2999839413723249,0.0018907607239317169,0.0,119.99999413330205,-0.00034377467707849394,54.199973954431464,-44.99999063801583
1682119425.2191966,1.2999839413723249,0.0018907607239317169,0.0,119.99999413330205,-0.00034377467707849394,54.199973954431464,-44.99999063801583
1682119425.3153377,1.2999839413723249,0.0018907607239317169,0.0,119.99999413330205,-0.00034377467707849394,54.199973954431464,-44.99999063801583
1682119425.3912203,1.2999839413723249,0.0018907607239317169,0.0,119.99999413330205,-0.00034377467707849394,54.199973954431464,-44.99999063801583
1682119425.474214,1.2999839413723249,0.0018907607239317169,0.0,119.99999413330205,-0.00034377467707849394,54.199973954431464,-44.99999063801583
1682119425.5543292,1.2999839413723249,0.0018907607239317169,0.0,119.99999413330205,-0.00034377467707849394,54.199973954431464,-44.99999063801583
1682119425.6393726,1.2999839413723249,0.0018907607239317169,0.0,119.99999413330205,-0.00034377467707849394,54.199973954431464,-44.99999063801583
1682119425.7321339,1.2999839413723249,0.0018907607239317169,0.0,119.99999413330205,-0.00034377467707849394,54.199973954431464,-44.99999063801583
1682119425.8254428,1.2999839413723249,0.0018907607239317169,0.0,119.99999413330205,-0.00034377467707849394,54.199973954431464,-44.99999063801583
1682119425.9155352,1.2999839413723249,0.0018907607239317169,0.0,119.99999413330205,-0.00034377467707849394,54.199973954431464,-44.99999063801583
1682119426.016369,1.2999839413723249,0.0018907607239317169,0.0,119.99999413330205,-0.00034377467707849394,54.199973954431464,-44.99999063801583
1682119426.1057484,1.2999839413723249,0.0018907607239317169,0.0,119.99999413330205,-0.00034377467707849394,54.199973954431464,-44.99999063801583
1682119426.1962883,1.2999839413723249,0.0018907607239317169,0.0,119.99999413330205,-0.00034377467707849394,54.199973954431464,-44.99999063801583
1682119426.285638,1.2999839413723249,0.0018907607239317169,0.0,119.99999413330205,-0.00034377467707849394,54.199973954431464,-44.99999063801583
1682119426.381613,1.2999839413723249,0.0018907607239317169,0.0,119.99999413330205,-0.00034377467707849394,54.199973954431464,-44.99999063801583
1682119426.4533134,1.2999839413723249,0.0018907607239317169,0.0,119.99999413330205,-0.00034377467707849394,54.199973954431464,-44.99999063801583
1682119426.5321326,1.2999839413723249,0.0018907607239317169,0.0,119.99999413330205,-0.00034377467707849394,54.199973954431464,-44.99999063801583
1682119426.615937,1.2999839413723249,0.0018907607239317169,0.0,119.99999413330205,-0.00034377467707849394,54.199973954431464,-44.99999063801583
1682119426.695404,1.2999839413723249,0.0018907607239317169,0.0,119.99999413330205,-0.00034377467707849394,54.199973954431464,-44.99999063801583
1682119426.7734063,1.2999839413723249,0.0018907607239317169,0.0,119.99999413330205,-0.00034377467707849394,54.199973954431464,-44.99999063801583
1682119426.8555906,1.2999839413723249,0.0018907607239317169,0.0,119.99999413330205,-0.00034377467707849394,54.199973954431464,-44.99999063801583
1682119426.9647079,1.2999839413723249,0.0018907607239317169,0.0,119.99999413330205,-0.00034377467707849394,54.199973954431464,-44.99999063801583
1682119427.049573,1.2999839413723249,0.0018907607239317169,0.0,119.99999413330205,-0.00034377467707849394,54.199973954431464,-44.99999063801583
1682119427.1319742,1.2999839413723249,0.0018907607239317169,0.0,119.99999413330205,-0.00034377467707849394,54.199973954431464,-44.99999063801583
1682119427.2132978,1.2999839413723249,0.0018907607239317169,0.0,119.99999413330205,-0.00034377467707849394,54.199973954431464,-44.99999063801583
1682119427.2974532,1.2999839413723249,0.0018907607239317169,0.0,119.99999413330205,-0.00034377467707849394,54.199973954431464,-44.99999063801583
1682119427.3851347,1.2999839413723249,0.0018907607239317169,0.0,119.99999413330205,-0.00034377467707849394,54.199973954431464,-44.99999063801583
1682119427.4648435,1.2999839413723249,0.0018907607239317169,0.0,119.99999413330205,-0.00034377467707849394,54.199973954431464,-44.99999063801583
1682119427.5427082,1.2999839413723249,0.0018907607239317169,0.0,119.99999413330205,-0.00034377467707849394,54.199973954431464,-44.99999063801583
1682119427.6321983,1.2999839413723249,0.0018907607239317169,0.0,119.99999413330205,-0.00034377467707849394,54.199973954431464,-44.99999063801583
1682119427.7102704,1.2999839413723249,0.0018907607239317169,0.0,119.99999413330205,-0.00034377467707849394,54.199973954431464,-44.99999063801583
1682119427.7892504,1.2999839413723249,0.0018907607239317169,0.0,119.99999413330205,-0.00034377467707849394,54.199973954431464,-44.99999063801583
1682119427.8853683,1.2999839413723249,0.0018907607239317169,0.0,119.99999413330205,-0.00034377467707849394,54.199973954431464,-44.99999063801583
1682119427.9744134,1.2999839413723249,0.0018907607239317169,0.0,119.99999413330205,-0.00034377467707849394,54.199973954431464,-44.99999063801583
1682119428.0698495,1.2999839413723249,0.0018907607239317169,0.0,119.99999413330205,-0.00034377467707849394,54.199973954431464,-44.99999063801583
1682119428.1640825,1.2999839413723249,0.0018907607239317169,0.0,119.99999413330205,-0.00034377467707849394,54.199973954431464,-44.99999063801583
1682119428.2621906,1.2999839413723249,0.0018907607239317169,0.0,119.99999413330205,-0.00034377467707849394,54.199973954431464,-44.99999063801583
1682119428.3506646,1.2999839413723249,0.0018907607239317169,0.0,119.99999413330205,-0.00034377467707849394,54.199973954431464,-44.99999063801583
1682119428.4281647,1.2999839413723249,0.0018907607239317169,0.0,119.99999413330205,-0.00034377467707849394,54.199973954431464,-44.99999063801583
1682119428.5260642,1.2999839413723249,0.0018907607239317169,0.0,119.99999413330205,-0.00034377467707849394,54.199973954431464,-44.99999063801583
1682119428.6108391,1.2999839413723249,0.0018907607239317169,0.0,119.99999413330205,-0.00034377467707849394,54.199973954431464,-44.99999063801583
1682119428.6932352,1.2999839413723249,0.0018907607239317169,0.0,119.99999413330205,-0.00034377467707849394,54.199973954431464,-44.99999063801583
1682119428.77119,1.2999839413723249,0.0018907607239317169,0.0,119.99999413330205,-0.00034377467707849394,54.199973954431464,-44.99999063801583
1682119428.854985,1.2999839413723249,0.0018907607239317169,0.0,119.99999413330205,-0.00034377467707849394,54.199973954431464,-44.99999063801583
1682119428.9314613,1.2999839413723249,0.0018907607239317169,0.0,119.99999413330205,-0.00034377467707849394,54.199973954431464,-44.99999063801583
1682119429.011771,1.2999839413723249,0.0018907607239317169,0.0,119.99999413330205,-0.00034377467707849394,54.199973954431464,-44.99999063801583
1682119429.0881183,1.2999839413723249,0.0018907607239317169,0.0,119.99999413330205,-0.00034377467707849394,54.199973954431464,-44.99999063801583
1682119429.1815174,1.2999839413723249,0.0018907607239317169,0.0,119.99999413330205,-0.00034377467707849394,54.199973954431464,-44.99999063801583
1682119429.273423,1.2999839413723249,0.0018907607239317169,0.0,119.99999413330205,-0.00034377467707849394,54.199973954431464,-44.99999063801583
1682119429.3633523,1.2999839413723249,0.0018907607239317169,0.0,119.99999413330205,-0.00034377467707849394,54.199973954431464,-44.99999063801583
1682119429.435837,1.2999839413723249,0.0018907607239317169,0.0,119.99999413330205,-0.00034377467707849394,54.199973954431464,-44.99999063801583
1682119429.507858,1.2999839413723249,0.0018907607239317169,0.0,119.99999413330205,-0.00034377467707849394,54.199973954431464,-44.99999063801583
1682119429.5909786,1.2999839413723249,0.0018907607239317169,0.0,119.99999413330205,-0.00034377467707849394,54.199973954431464,-44.99999063801583
1682119429.6803875,1.2999839413723249,0.0018907607239317169,0.0,119.99999413330205,-0.00034377467707849394,54.199973954431464,-44.99999063801583
1682119429.7614055,1.2999839413723249,0.0018907607239317169,0.0,119.99999413330205,-0.00034377467707849394,54.199973954431464,-44.99999063801583
1682119429.85352,1.2999839413723249,0.0018907607239317169,0.0,119.99999413330205,-0.00034377467707849394,54.199973954431464,-44.99999063801583
1682119429.9419703,1.2999839413723249,0.0018907607239317169,0.0,119.99999413330205,-0.00034377467707849394,54.199973954431464,-44.99999063801583
1682119430.016407,1.2999839413723249,0.0018907607239317169,0.0,119.99999413330205,-0.00034377467707849394,54.199973954431464,-44.99999063801583
1682119430.1014142,1.2999839413723249,0.0018907607239317169,0.0,119.99999413330205,-0.00034377467707849394,54.199973954431464,-44.99999063801583
1682119430.1813583,1.2999839413723249,0.0018907607239317169,0.0,119.99999413330205,-0.00034377467707849394,54.199973954431464,-44.99999063801583
1682119430.2684836,1.2999839413723249,0.0018907607239317169,0.0,119.99999413330205,-0.00034377467707849394,54.199973954431464,-44.99999063801583
1682119430.350085,1.2999839413723249,0.0018907607239317169,0.0,119.99999413330205,-0.00034377467707849394,54.199973954431464,-44.99999063801583
1682119430.4187908,1.2999839413723249,0.0018907607239317169,0.0,119.99999413330205,-0.00034377467707849394,54.199973954431464,-44.99999063801583
1682119430.4971545,1.2999839413723249,0.0018907607239317169,0.0,119.99999413330205,-0.00034377467707849394,54.199973954431464,-44.99999063801583
1682183458.1141496,21.299992512885918,52.06009118117686,0.0,119.99999413330205,-0.0006875493541569879,56.59997956667545,-44.99999063801583
1682183464.1273441,1.3033643923635967,0.008823550045014677,0.0,119.99999413330205,-0.0,54.200432320667566,-44.99999063801583
1682183464.1282594,1.3033643923635967,0.008823550045014677,0.0,119.99999413330205,-0.0,54.200432320667566,-44.99999063801583
1682183464.1293159,1.3033643923635967,0.008823550045014677,0.0,119.99999413330205,-0.0,54.200432320667566,-44.99999063801583
1682183464.1306973,1.3033643923635967,0.008823550045014677,0.0,119.99999413330205,-0.0,54.200432320667566,-44.99999063801583
1682183464.1314206,1.3033643923635967,0.008823550045014677,0.0,119.99999413330205,-0.0,54.200432320667566,-44.99999063801583
1682183464.1321385,1.3033643923635967,0.008823550045014677,0.0,119.99999413330205,-0.0,54.200432320667566,-44.99999063801583
1682183464.13284,1.3033643923635967,0.008823550045014677,0.0,119.99999413330205,-0.0,54.200432320667566,-44.99999063801583
1682183464.1338675,1.3033643923635967,0.008823550045014677,0.0,119.99999413330205,-0.0,54.200432320667566,-44.99999063801583
1682183464.1349819,1.3033643923635967,0.008823550045014677,0.0,119.99999413330205,-0.0,54.200432320667566,-44.99999063801583
1682183464.1360888,1.3033643923635967,0.008823550045014677,0.0,119.99999413330205,-0.0,54.200432320667566,-44.99999063801583
1682183464.1368177,1.3033643923635967,0.008823550045014677,0.0,119.99999413330205,-0.0,54.200432320667566,-44.99999063801583
1682183464.1381822,1.3033643923635967,0.008823550045014677,0.0,119.99999413330205,-0.0,54.200432320667566,-44.99999063801583
1682183464.139137,1.3033643923635967,0.008823550045014677,0.0,119.99999413330205,-0.0,54.200432320667566,-44.99999063801583
1682183464.1401591,1.3033643923635967,0.008823550045014677,0.0,119.99999413330205,-0.0,54.200432320667566,-44.99999063801583
1682183464.1414938,1.3033643923635967,0.008823550045014677,0.0,119.99999413330205,-0.0,54.200432320667566,-44.99999063801583
1682183464.1426551,1.3033643923635967,0.008823550045014677,0.0,119.99999413330205,-0.0,54.200432320667566,-44.99999063801583
1682183464.1437047,1.3033643923635967,0.008823550045014677,0.0,119.99999413330205,-0.0,54.200432320667566,-44.99999063801583
1682183464.1446671,1.3033643923635967,0.008823550045014677,0.0,119.99999413330205,-0.0,54.200432320667566,-44.99999063801583
1682183464.1542652,1.3033643923635967,0.008823550045014677,0.0,119.99999413330205,-0.0,54.200432320667566,-44.99999063801583
1682183464.1577647,1.3033643923635967,0.008823550045014677,0.0,119.99999413330205,-0.0,54.200432320667566,-44.99999063801583
1682183464.1620016,1.3033643923635967,0.008823550045014677,0.0,119.99999413330205,-0.0,54.200432320667566,-44.99999063801583
1682183464.1656194,1.3033643923635967,0.008823550045014677,0.0,119.99999413330205,-0.0,54.200432320667566,-44.99999063801583
1682183464.1690016,1.3033643923635967,0.008823550045014677,0.0,119.99999413330205,-0.0,54.200432320667566,-44.99999063801583
1682183464.1716573,1.3033643923635967,0.008823550045014677,0.0,119.99999413330205,-0.0,54.200432320667566,-44.99999063801583
1682183464.1743908,1.3033643923635967,0.008823550045014677,0.0,119.99999413330205,-0.0,54.200432320667566,-44.99999063801583
1682183464.1839204,1.3033643923635967,0.008823550045014677,0.0,119.99999413330205,-0.0,54.200432320667566,-44.99999063801583
1682183464.1864,1.3033643923635967,0.008823550045014677,0.0,119.99999413330205,-0.0,54.200432320667566,-44.99999063801583
1682183464.1895769,1.3033643923635967,0.008823550045014677,0.0,119.99999413330205,-0.0,54.200432320667566,-44.99999063801583
1682183464.1947637,1.3033643923635967,0.008823550045014677,0.0,119.99999413330205,-0.0,54.200432320667566,-44.99999063801583
1682183464.1975334,1.3033643923635967,0.008823550045014677,0.0,119.99999413330205,-0.0,54.200432320667566,-44.99999063801583
1682183464.2012134,1.3033643923635967,0.008823550045014677,0.0,119.99999413330205,-0.0,54.200432320667566,-44.99999063801583
1682183464.204271,1.3033643923635967,0.008823550045014677,0.0,119.99999413330205,-0.0,54.200432320667566,-44.99999063801583
1682183464.2075644,1.3033643923635967,0.008823550045014677,0.0,119.99999413330205,-0.0,54.200432320667566,-44.99999063801583
1682183464.2123241,1.3033643923635967,0.008823550045014677,0.0,119.99999413330205,-0.0,54.200432320667566,-44.99999063801583
1682183464.2154367,1.3033643923635967,0.008823550045014677,0.0,119.99999413330205,-0.0,54.200432320667566,-44.99999063801583
1682183464.2198312,1.3033643923635967,0.008823550045014677,0.0,119.99999413330205,-0.0,54.200432320667566,-44.99999063801583
1682183464.2233145,1.3033643923635967,0.008823550045014677,0.0,119.99999413330205,-0.0,54.200432320667566,-44.99999063801583
1682183464.2260098,1.3033643923635967,0.008823550045014677,0.0,119.99999413330205,-0.0,54.200432320667566,-44.99999063801583
1682183464.228548,1.3033643923635967,0.008823550045014677,0.0,119.99999413330205,-0.0,54.200432320667566,-44.99999063801583
1682183464.2308726,1.3033643923635967,0.008823550045014677,0.0,119.99999413330205,-0.0,54.200432320667566,-44.99999063801583
1682183464.2350388,1.3033643923635967,0.008823550045014677,0.0,119.99999413330205,-0.0,54.200432320667566,-44.99999063801583
1682183464.238908,1.3033643923635967,0.008823550045014677,0.0,119.99999413330205,-0.0,54.200432320667566,-44.99999063801583
1682183464.2424495,1.3033643923635967,0.008823550045014677,0.0,119.99999413330205,-0.0,54.200432320667566,-44.99999063801583
1682183464.2467184,1.3033643923635967,0.008823550045014677,0.0,119.99999413330205,-0.0,54.200432320667566,-44.99999063801583
1682183464.2500527,1.3033643923635967,0.008823550045014677,0.0,119.99999413330205,-0.0,54.200432320667566,-44.99999063801583
1682183464.2524695,1.3033643923635967,0.008823550045014677,0.0,119.99999413330205,-0.0,54.200432320667566,-44.99999063801583
1682183464.256716,1.3033643923635967,0.008823550045014677,0.0,119.99999413330205,-0.0,54.200432320667566,-44.99999063801583
1682183464.2605433,1.3033643923635967,0.008823550045014677,0.0,119.99999413330205,-0.0,54.200432320667566,-44.99999063801583
1682183464.2650344,1.3033643923635967,0.008823550045014677,0.0,119.99999413330205,-0.0,54.200432320667566,-44.99999063801583
1682183464.2692425,1.3033643923635967,0.008823550045014677,0.0,119.99999413330205,-0.0,54.200432320667566,-44.99999063801583
1682183464.2726028,1.3033643923635967,0.008823550045014677,0.0,119.99999413330205,-0.0,54.200432320667566,-44.99999063801583
1682183464.2761931,1.3033643923635967,0.008823550045014677,0.0,119.99999413330205,-0.0,54.200432320667566,-44.99999063801583
1682183464.280081,1.3033643923635967,0.008823550045014677,0.0,119.99999413330205,-0.0,54.200432320667566,-44.99999063801583
1682183464.2834816,1.3033643923635967,0.008823550045014677,0.0,119.99999413330205,-0.0,54.200432320667566,-44.99999063801583
1682183464.2887175,1.3033643923635967,0.008823550045014677,0.0,119.99999413330205,-0.0,54.200432320667566,-44.99999063801583
1682183464.291593,1.3033643923635967,0.008823550045014677,0.0,119.99999413330205,-0.0,54.200432320667566,-44.99999063801583
1682183464.2936318,1.3033643923635967,0.008823550045014677,0.0,119.99999413330205,-0.0,54.200432320667566,-44.99999063801583
1682183464.2964509,1.3033643923635967,0.008823550045014677,0.0,119.99999413330205,-0.0,54.200432320667566,-44.99999063801583
1682183464.29968,1.3033643923635967,0.008823550045014677,0.0,119.99999413330205,-0.0,54.200432320667566,-44.99999063801583
1682183464.3030589,1.3033643923635967,0.008823550045014677,0.0,119.99999413330205,-0.0,54.200432320667566,-44.99999063801583
1682183464.3055959,1.3033643923635967,0.008823550045014677,0.0,119.99999413330205,-0.0,54.200432320667566,-44.99999063801583
1682183464.3077438,1.3033643923635967,0.008823550045014677,0.0,119.99999413330205,-0.0,54.200432320667566,-44.99999063801583
1682183464.3102136,1.3033643923635967,0.008823550045014677,0.0,119.99999413330205,-0.0,54.200432320667566,-44.99999063801583
1682183464.3132012,1.3033643923635967,0.008823550045014677,0.0,119.99999413330205,-0.0,54.200432320667566,-44.99999063801583
1682183464.3141587,1.3033643923635967,0.008823550045014677,0.0,119.99999413330205,-0.0,54.200432320667566,-44.99999063801583
1682183464.3154023,1.3033643923635967,0.008823550045014677,0.0,119.99999413330205,-0.0,54.200432320667566,-44.99999063801583
1682183464.316736,1.3033643923635967,0.008823550045014677,0.0,119.99999413330205,-0.0,54.200432320667566,-44.99999063801583
1682183464.3182578,1.3033643923635967,0.008823550045014677,0.0,119.99999413330205,-0.0,54.200432320667566,-44.99999063801583
1682183464.3196037,1.3033643923635967,0.008823550045014677,0.0,119.99999413330205,-0.0,54.200432320667566,-44.99999063801583
1682183464.3838956,1.3033643923635967,0.008823550045014677,0.0,119.99999413330205,-0.0,54.200432320667566,-44.99999063801583
1682183464.4596431,1.3033643923635967,0.008823550045014677,0.0,119.99999413330205,-0.0,54.200432320667566,-44.99999063801583
1682183464.5391717,1.3033643923635967,0.008823550045014677,0.0,119.99999413330205,-0.0,54.200432320667566,-44.99999063801583
1682183464.617538,1.3033643923635967,0.008823550045014677,0.0,119.99999413330205,-0.0,54.200432320667566,-44.99999063801583
1682183464.6978576,1.3033643923635967,0.008823550045014677,0.0,119.99999413330205,-0.0,54.200432320667566,-44.99999063801583
1682183464.7729862,1.3033643923635967,0.008823550045014677,0.0,119.99999413330205,-0.0,54.200432320667566,-44.99999063801583
1682183464.8545322,1.3033643923635967,0.008823550045014677,0.0,119.99999413330205,-0.0,54.200432320667566,-44.99999063801583
1682183464.9447076,1.3033643923635967,0.008823550045014677,0.0,119.99999413330205,-0.0,54.200432320667566,-44.99999063801583
1682183465.0168047,1.3033643923635967,0.008823550045014677,0.0,119.99999413330205,-0.0,54.200432320667566,-44.99999063801583
1682183465.0916657,1.3033643923635967,0.008823550045014677,0.0,119.99999413330205,-0.0,54.200432320667566,-44.99999063801583
1682183465.174897,1.3033643923635967,0.008823550045014677,0.0,119.99999413330205,-0.0,54.200432320667566,-44.99999063801583
1682183465.2507408,1.3033643923635967,0.008823550045014677,0.0,119.99999413330205,-0.0,54.200432320667566,-44.99999063801583
1682183465.3314588,1.3033643923635967,0.008823550045014677,0.0,119.99999413330205,-0.0,54.200432320667566,-44.99999063801583
1682183465.4050305,1.3033643923635967,0.008823550045014677,0.0,119.99999413330205,-0.0,54.200432320667566,-44.99999063801583
1682183465.4759984,1.3033643923635967,0.008823550045014677,0.0,119.99999413330205,-0.0,54.200432320667566,-44.99999063801583
1682183465.569472,1.3033643923635967,0.008823550045014677,0.0,119.99999413330205,-0.0,54.200432320667566,-44.99999063801583
1682183465.6446388,1.3033643923635967,0.008823550045014677,0.0,119.99999413330205,-0.0,54.200432320667566,-44.99999063801583
1682183465.719455,1.3033643923635967,0.008823550045014677,0.0,119.99999413330205,-0.0,54.200432320667566,-44.99999063801583
1682183465.7939782,1.3033643923635967,0.008823550045014677,0.0,119.99999413330205,-0.0,54.200432320667566,-44.99999063801583
1682183465.8661578,1.3033643923635967,0.008823550045014677,0.0,119.99999413330205,-0.0,54.200432320667566,-44.99999063801583
1682183465.9302871,1.3033643923635967,0.008823550045014677,0.0,119.99999413330205,-0.0,54.200432320667566,-44.99999063801583
1682183466.029972,1.3033643923635967,0.008823550045014677,0.0,119.99999413330205,-0.0,54.200432320667566,-44.99999063801583
1682183466.110453,1.3033643923635967,0.008823550045014677,0.0,119.99999413330205,-0.0,54.200432320667566,-44.99999063801583
1682183466.1988733,1.3033643923635967,0.008823550045014677,0.0,119.99999413330205,-0.0,54.200432320667566,-44.99999063801583
1682183466.2827184,1.3033643923635967,0.008823550045014677,0.0,119.99999413330205,-0.0,54.200432320667566,-44.99999063801583
1682183466.3576944,1.3033643923635967,0.008823550045014677,0.0,119.99999413330205,-0.0,54.200432320667566,-44.99999063801583
1682183466.4341526,1.3033643923635967,0.008823550045014677,0.0,119.99999413330205,-0.0,54.200432320667566,-44.99999063801583
1682183466.5151017,1.3033643923635967,0.008823550045014677,0.0,119.99999413330205,-0.0,54.200432320667566,-44.99999063801583
1682183466.5949686,1.3033643923635967,0.008823550045014677,0.0,119.99999413330205,-0.0,54.200432320667566,-44.99999063801583
1682183466.6809459,1.3033643923635967,0.008823550045014677,0.0,119.99999413330205,-0.0,54.200432320667566,-44.99999063801583
1682183466.7633715,1.3033643923635967,0.008823550045014677,0.0,119.99999413330205,-0.0,54.200432320667566,-44.99999063801583
1682183466.8517902,1.3033643923635967,0.008823550045014677,0.0,119.99999413330205,-0.0,54.200432320667566,-44.99999063801583
1682183466.9453804,1.3033643923635967,0.008823550045014677,0.0,119.99999413330205,-0.0,54.200432320667566,-44.99999063801583
1682183467.030898,1.3033643923635967,0.008823550045014677,0.0,119.99999413330205,-0.0,54.200432320667566,-44.99999063801583
1682183467.1055543,1.3033643923635967,0.008823550045014677,0.0,119.99999413330205,-0.0,54.200432320667566,-44.99999063801583
1682183467.183364,1.3033643923635967,0.008823550045014677,0.0,119.99999413330205,-0.0,54.200432320667566,-44.99999063801583
1682183467.269946,1.3033643923635967,0.008823550045014677,0.0,119.99999413330205,-0.0,54.200432320667566,-44.99999063801583
1682183467.3553386,1.3033643923635967,0.008823550045014677,0.0,119.99999413330205,-0.0,54.200432320667566,-44.99999063801583
1682183467.4451969,1.3033643923635967,0.008823550045014677,0.0,119.99999413330205,-0.0,54.200432320667566,-44.99999063801583
1682183467.535123,1.3033643923635967,0.008823550045014677,0.0,119.99999413330205,-0.0,54.200432320667566,-44.99999063801583
1682183467.6109922,1.3033643923635967,0.008823550045014677,0.0,119.99999413330205,-0.0,54.200432320667566,-44.99999063801583
1682183467.6800053,1.3033643923635967,0.008823550045014677,0.0,119.99999413330205,-0.0,54.200432320667566,-44.99999063801583
1682183467.7587755,1.3033643923635967,0.008823550045014677,0.0,119.99999413330205,-0.0,54.200432320667566,-44.99999063801583
1682183467.8403392,1.3033643923635967,0.008823550045014677,0.0,119.99999413330205,-0.0,54.200432320667566,-44.99999063801583
1682183467.9382813,1.3033643923635967,0.008823550045014677,0.0,119.99999413330205,-0.0,54.200432320667566,-44.99999063801583
1682183468.0189443,1.3033643923635967,0.008823550045014677,0.0,119.99999413330205,-0.0,54.200432320667566,-44.99999063801583
1682183468.0989714,1.3033643923635967,0.008823550045014677,0.0,119.99999413330205,-0.0,54.200432320667566,-44.99999063801583
1682183468.184028,1.3033643923635967,0.008823550045014677,0.0,119.99999413330205,-0.0,54.200432320667566,-44.99999063801583
1682183468.2513733,1.3033643923635967,0.008823550045014677,0.0,119.99999413330205,-0.0,54.200432320667566,-44.99999063801583
1682183468.3328986,1.3033643923635967,0.008823550045014677,0.0,119.99999413330205,-0.0,54.200432320667566,-44.99999063801583
1682183468.4106898,1.3033643923635967,0.008823550045014677,0.0,119.99999413330205,-0.0,54.200432320667566,-44.99999063801583
1682183468.5009916,1.3033643923635967,0.008823550045014677,0.0,119.99999413330205,-0.0,54.200432320667566,-44.99999063801583
1682183468.586824,1.3033643923635967,0.008823550045014677,0.0,119.99999413330205,-0.0,54.200432320667566,-44.99999063801583
1682183468.665121,1.3033643923635967,0.008823550045014677,0.0,119.99999413330205,-0.0,54.200432320667566,-44.99999063801583
1682183468.733487,1.3033643923635967,0.008823550045014677,0.0,119.99999413330205,-0.0,54.200432320667566,-44.99999063801583
1682183468.7979777,1.3033643923635967,0.008823550045014677,0.0,119.99999413330205,-0.0,54.200432320667566,-44.99999063801583
1682183468.8726397,1.3033643923635967,0.008823550045014677,0.0,119.99999413330205,-0.0,54.200432320667566,-44.99999063801583
1682183468.9527445,1.3033643923635967,0.008823550045014677,0.0,119.99999413330205,-0.0,54.200432320667566,-44.99999063801583
1682183469.024863,1.3033643923635967,0.008823550045014677,0.0,119.99999413330205,-0.0,54.200432320667566,-44.99999063801583
1682183469.1144955,1.3033643923635967,0.008823550045014677,0.0,119.99999413330205,-0.0,54.200432320667566,-44.99999063801583
1682183469.192202,1.3033643923635967,0.008823550045014677,0.0,119.99999413330205,-0.0,54.200432320667566,-44.99999063801583
1682183469.2760706,1.3033643923635967,0.008823550045014677,0.0,119.99999413330205,-0.0,54.200432320667566,-44.99999063801583
1682183469.3559659,1.3033643923635967,0.008823550045014677,0.0,119.99999413330205,-0.0,54.200432320667566,-44.99999063801583
1682183469.4546375,1.3033643923635967,0.008823550045014677,0.0,119.99999413330205,-0.0,54.200432320667566,-44.99999063801583
1682183469.537392,1.3033643923635967,0.008823550045014677,0.0,119.99999413330205,-0.0,54.200432320667566,-44.99999063801583
1682183469.618696,1.3033643923635967,0.008823550045014677,0.0,119.99999413330205,-0.0,54.200432320667566,-44.99999063801583
1682183469.7001417,1.3033643923635967,0.008823550045014677,0.0,119.99999413330205,-0.0,54.200432320667566,-44.99999063801583
1682183469.779636,1.3033643923635967,0.008823550045014677,0.0,119.99999413330205,-0.0,54.200432320667566,-44.99999063801583
1682183469.8637524,1.3033643923635967,0.008823550045014677,0.0,119.99999413330205,-0.0,54.200432320667566,-44.99999063801583
1682183469.9587755,1.3033643923635967,0.008823550045014677,0.0,119.99999413330205,-0.0,54.200432320667566,-44.99999063801583
1682183470.0582812,1.3033643923635967,0.008823550045014677,0.0,119.99999413330205,-0.0,54.200432320667566,-44.99999063801583
1682183470.1497273,1.3033643923635967,0.008823550045014677,0.0,119.99999413330205,-0.0,54.200432320667566,-44.99999063801583
1682183470.2351515,1.3033643923635967,0.008823550045014677,0.0,119.99999413330205,-0.0,54.200432320667566,-44.99999063801583
1682183470.3088608,1.3033643923635967,0.008823550045014677,0.0,119.99999413330205,-0.0,54.200432320667566,-44.99999063801583
1682183470.3772285,1.3033643923635967,0.008823550045014677,0.0,119.99999413330205,-0.0,54.200432320667566,-44.99999063801583
1682183470.4768994,1.3033643923635967,0.008823550045014677,0.0,119.99999413330205,-0.0,54.200432320667566,-44.99999063801583
1682183470.5597124,1.3033643923635967,0.008823550045014677,0.0,119.99999413330205,-0.0,54.200432320667566,-44.99999063801583
1682183470.6566687,1.3033643923635967,0.008823550045014677,0.0,119.99999413330205,-0.0,54.200432320667566,-44.99999063801583
1682183470.7331793,1.3033643923635967,0.008823550045014677,0.0,119.99999413330205,-0.0,54.200432320667566,-44.99999063801583
1682183470.8153846,1.3033643923635967,0.008823550045014677,0.0,119.99999413330205,-0.0,54.200432320667566,-44.99999063801583
1682183470.9189048,1.3033643923635967,0.008823550045014677,0.0,119.99999413330205,-0.0,54.200432320667566,-44.99999063801583
1682183470.9944994,1.3033643923635967,0.008823550045014677,0.0,119.99999413330205,-0.0,54.200432320667566,-44.99999063801583
1682183471.0747333,1.3033643923635967,0.008823550045014677,0.0,119.99999413330205,-0.0,54.200432320667566,-44.99999063801583
1682183471.1458638,1.3033643923635967,0.008823550045014677,0.0,119.99999413330205,-0.0,54.200432320667566,-44.99999063801583
1682183471.227651,1.3033643923635967,0.008823550045014677,0.0,119.99999413330205,-0.0,54.200432320667566,-44.99999063801583
1682183471.3027318,1.3033643923635967,0.008823550045014677,0.0,119.99999413330205,-0.0,54.200432320667566,-44.99999063801583
1682183471.38307,1.3033643923635967,0.008823550045014677,0.0,119.99999413330205,-0.0,54.200432320667566,-44.99999063801583
1682183471.4658427,1.3033643923635967,0.008823550045014677,0.0,119.99999413330205,-0.0,54.200432320667566,-44.99999063801583
1682183471.5383615,1.3033643923635967,0.008823550045014677,0.0,119.99999413330205,-0.0,54.200432320667566,-44.99999063801583
1682183471.628194,1.3033643923635967,0.008823550045014677,0.0,119.99999413330205,-0.0,54.200432320667566,-44.99999063801583
1682183471.7020972,1.3033643923635967,0.008823550045014677,0.0,119.99999413330205,-0.0,54.200432320667566,-44.99999063801583
1682183471.78306,1.3033643923635967,0.008823550045014677,0.0,119.99999413330205,-0.0,54.200432320667566,-44.99999063801583
1682183471.8789153,1.3033643923635967,0.008823550045014677,0.0,119.99999413330205,-0.0,54.200432320667566,-44.99999063801583
1682183471.9565673,1.3033643923635967,0.008823550045014677,0.0,119.99999413330205,-0.0,54.200432320667566,-44.99999063801583
1682183472.0458636,1.3033643923635967,0.008823550045014677,0.0,119.99999413330205,-0.0,54.200432320667566,-44.99999063801583
1682183472.1307037,1.3033643923635967,0.008823550045014677,0.0,119.99999413330205,-0.0,54.200432320667566,-44.99999063801583
1682183472.2184417,1.3033643923635967,0.008823550045014677,0.0,119.99999413330205,-0.0,54.200432320667566,-44.99999063801583
1682183472.2991111,1.3033643923635967,0.008823550045014677,0.0,119.99999413330205,-0.0,54.200432320667566,-44.99999063801583
1682183472.38554,1.3033643923635967,0.008823550045014677,0.0,119.99999413330205,-0.0,54.200432320667566,-44.99999063801583
1682183472.4784024,1.3033643923635967,0.008823550045014677,0.0,119.99999413330205,-0.0,54.200432320667566,-44.99999063801583
1682183472.5564826,1.3033643923635967,0.008823550045014677,0.0,119.99999413330205,-0.0,54.200432320667566,-44.99999063801583
1682183472.6401742,1.3033643923635967,0.008823550045014677,0.0,119.99999413330205,-0.0,54.200432320667566,-44.99999063801583
1682183472.72743,1.3033643923635967,0.008823550045014677,0.0,119.99999413330205,-0.0,54.200432320667566,-44.99999063801583
1682183472.8234649,1.3033643923635967,0.008823550045014677,0.0,119.99999413330205,-0.0,54.200432320667566,-44.99999063801583
1682183472.9095209,1.3033643923635967,0.008823550045014677,0.0,119.99999413330205,-0.0,54.200432320667566,-44.99999063801583
1682183472.9901013,1.3033643923635967,0.008823550045014677,0.0,119.99999413330205,-0.0,54.200432320667566,-44.99999063801583
1682183473.1437085,1.3033643923635967,0.008823550045014677,0.0,119.99999413330205,-0.0,54.200432320667566,-44.99999063801583
1682183473.213284,1.3033643923635967,0.008823550045014677,0.0,119.99999413330205,-0.0,54.200432320667566,-44.99999063801583
1682183473.3478284,1.3033643923635967,0.008823550045014677,0.0,119.99999413330205,-0.0,54.200432320667566,-44.99999063801583
1682183473.4482787,1.3033643923635967,0.008823550045014677,0.0,119.99999413330205,-0.0,54.200432320667566,-44.99999063801583
1682183473.5498545,1.3033643923635967,0.008823550045014677,0.0,119.99999413330205,-0.0,54.200432320667566,-44.99999063801583
1682183473.627908,1.3033643923635967,0.008823550045014677,0.0,119.99999413330205,-0.0,54.200432320667566,-44.99999063801583
1682183473.710096,1.3033643923635967,0.008823550045014677,0.0,119.99999413330205,-0.0,54.200432320667566,-44.99999063801583
1682183473.771764,1.3033643923635967,0.008823550045014677,0.0,119.99999413330205,-0.0,54.200432320667566,-44.99999063801583
1682183473.867214,1.3033643923635967,0.008823550045014677,0.0,119.99999413330205,-0.0,54.200432320667566,-44.99999063801583
1682183473.956704,1.3033643923635967,0.008823550045014677,0.0,119.99999413330205,-0.0,54.200432320667566,-44.99999063801583
1682183474.0407138,1.3033643923635967,0.008823550045014677,0.0,119.99999413330205,-0.0,54.200432320667566,-44.99999063801583
1682183474.1378868,1.3033643923635967,0.008823550045014677,0.0,119.99999413330205,-0.0,54.200432320667566,-44.99999063801583
1682183474.223225,1.3033643923635967,0.008823550045014677,0.0,119.99999413330205,-0.0,54.200432320667566,-44.99999063801583
1682183474.3087149,1.3033643923635967,0.008823550045014677,0.0,119.99999413330205,-0.0,54.200432320667566,-44.99999063801583
1682183474.383677,1.3033643923635967,0.008823550045014677,0.0,119.99999413330205,-0.0,54.200432320667566,-44.99999063801583
1682183474.4766123,1.3033643923635967,0.008823550045014677,0.0,119.99999413330205,-0.0,54.200432320667566,-44.99999063801583
1682183474.5529218,1.3033643923635967,0.008823550045014677,0.0,119.99999413330205,-0.0,54.200432320667566,-44.99999063801583
1682183474.6359305,1.3033643923635967,0.008823550045014677,0.0,119.99999413330205,-0.0,54.200432320667566,-44.99999063801583
1682183474.7160962,1.3033643923635967,0.008823550045014677,0.0,119.99999413330205,-0.0,54.200432320667566,-44.99999063801583
1682183474.8072088,1.3033643923635967,0.008823550045014677,0.0,119.99999413330205,-0.0,54.200432320667566,-44.99999063801583
1682183474.893411,1.3033643923635967,0.008823550045014677,0.0,119.99999413330205,-0.0,54.200432320667566,-44.99999063801583
1682183474.9674733,1.3033643923635967,0.008823550045014677,0.0,119.99999413330205,-0.0,54.200432320667566,-44.99999063801583
1682183475.04909,1.3033643923635967,0.008823550045014677,0.0,119.99999413330205,-0.0,54.200432320667566,-44.99999063801583
1682183475.1227612,1.3033643923635967,0.008823550045014677,0.0,119.99999413330205,-0.0,54.200432320667566,-44.99999063801583
1682183475.207812,1.3033643923635967,0.008823550045014677,0.0,119.99999413330205,-0.0,54.200432320667566,-44.99999063801583
1682183475.2902417,1.3033643923635967,0.008823550045014677,0.0,119.99999413330205,-0.0,54.200432320667566,-44.99999063801583
1682183475.3788037,1.3033643923635967,0.008823550045014677,0.0,119.99999413330205,-0.0,54.200432320667566,-44.99999063801583
1682183475.4725418,1.3033643923635967,0.008823550045014677,0.0,119.99999413330205,-0.0,54.200432320667566,-44.99999063801583
1682183475.5598676,1.3033643923635967,0.008823550045014677,0.0,119.99999413330205,-0.0,54.200432320667566,-44.99999063801583
1682183475.6543393,1.3033643923635967,0.008823550045014677,0.0,119.99999413330205,-0.0,54.200432320667566,-44.99999063801583
1682183475.7375617,1.3033643923635967,0.008823550045014677,0.0,119.99999413330205,-0.0,54.200432320667566,-44.99999063801583
1682183475.8267775,1.3033643923635967,0.008823550045014677,0.0,119.99999413330205,-0.0,54.200432320667566,-44.99999063801583
1682183475.9258971,1.3033643923635967,0.008823550045014677,0.0,119.99999413330205,-0.0,54.200432320667566,-44.99999063801583
1682183476.0272653,1.3033643923635967,0.008823550045014677,0.0,119.99999413330205,-0.0,54.200432320667566,-44.99999063801583
1682183476.1145446,1.3033643923635967,0.008823550045014677,0.0,119.99999413330205,-0.0,54.200432320667566,-44.99999063801583
1682183476.196723,1.3033643923635967,0.008823550045014677,0.0,119.99999413330205,-0.0,54.200432320667566,-44.99999063801583
1682183476.2908278,1.3033643923635967,0.008823550045014677,0.0,119.99999413330205,-0.0,54.200432320667566,-44.99999063801583
1682183476.385231,1.3033643923635967,0.008823550045014677,0.0,119.99999413330205,-0.0,54.200432320667566,-44.99999063801583
1682183476.4698617,1.3033643923635967,0.008823550045014677,0.0,119.99999413330205,-0.0,54.200432320667566,-44.99999063801583
1682183476.5430856,1.3033643923635967,0.008823550045014677,0.0,119.99999413330205,-0.0,54.200432320667566,-44.99999063801583
1682183476.6265845,1.3033643923635967,0.008823550045014677,0.0,119.99999413330205,-0.0,54.200432320667566,-44.99999063801583
1682183476.7076612,1.3033643923635967,0.008823550045014677,0.0,119.99999413330205,-0.0,54.200432320667566,-44.99999063801583
1682183476.8008707,1.3033643923635967,0.008823550045014677,0.0,119.99999413330205,-0.0,54.200432320667566,-44.99999063801583
1682183476.8735044,1.3033643923635967,0.008823550045014677,0.0,119.99999413330205,-0.0,54.200432320667566,-44.99999063801583
1682183476.9433203,1.3033643923635967,0.008823550045014677,0.0,119.99999413330205,-0.0,54.200432320667566,-44.99999063801583
1682183477.0251467,1.3033643923635967,0.008823550045014677,0.0,119.99999413330205,-0.0,54.200432320667566,-44.99999063801583
1682183477.0967157,1.3033643923635967,0.008823550045014677,0.0,119.99999413330205,-0.0,54.200432320667566,-44.99999063801583
1682183477.177537,1.3033643923635967,0.008823550045014677,0.0,119.99999413330205,-0.0,54.200432320667566,-44.99999063801583
1682183477.257749,1.3033643923635967,0.008823550045014677,0.0,119.99999413330205,-0.0,54.200432320667566,-44.99999063801583
1682183477.3426428,1.3033643923635967,0.008823550045014677,0.0,119.99999413330205,-0.0,54.200432320667566,-44.99999063801583
1682183477.4300141,1.3033643923635967,0.008823550045014677,0.0,119.99999413330205,-0.0,54.200432320667566,-44.99999063801583
1682183477.5051546,1.3033643923635967,0.008823550045014677,0.0,119.99999413330205,-0.0,54.200432320667566,-44.99999063801583
1682183477.5794885,1.3033643923635967,0.008823550045014677,0.0,119.99999413330205,-0.0,54.200432320667566,-44.99999063801583
1682183477.6612866,1.3033643923635967,0.008823550045014677,0.0,119.99999413330205,-0.0,54.200432320667566,-44.99999063801583
1682183477.7494414,1.3033643923635967,0.008823550045014677,0.0,119.99999413330205,-0.0,54.200432320667566,-44.99999063801583
1682183477.8247375,1.3033643923635967,0.008823550045014677,0.0,119.99999413330205,-0.0,54.200432320667566,-44.99999063801583
1682183477.901146,1.3033643923635967,0.008823550045014677,0.0,119.99999413330205,-0.0,54.200432320667566,-44.99999063801583
1682183477.9844046,1.3033643923635967,0.008823550045014677,0.0,119.99999413330205,-0.0,54.200432320667566,-44.99999063801583
1682183478.0518572,1.3033643923635967,0.008823550045014677,0.0,119.99999413330205,-0.0,54.200432320667566,-44.99999063801583
1682183478.1265967,1.3033643923635967,0.008823550045014677,0.0,119.99999413330205,-0.0,54.200432320667566,-44.99999063801583
1682183478.21014,1.3033643923635967,0.008823550045014677,0.0,119.99999413330205,-0.0,54.200432320667566,-44.99999063801583
1682183478.2902122,1.3033643923635967,0.008823550045014677,0.0,119.99999413330205,-0.0,54.200432320667566,-44.99999063801583
1682183478.3795207,1.3033643923635967,0.008823550045014677,0.0,119.99999413330205,-0.0,54.200432320667566,-44.99999063801583
1682183478.4494202,1.3033643923635967,0.008823550045014677,0.0,119.99999413330205,-0.0,54.200432320667566,-44.99999063801583
1682183478.5224519,1.3033643923635967,0.008823550045014677,0.0,119.99999413330205,-0.0,54.200432320667566,-44.99999063801583
1682183478.6089718,1.3033643923635967,0.008823550045014677,0.0,119.99999413330205,-0.0,54.200432320667566,-44.99999063801583
1682183478.700567,1.3033643923635967,0.008823550045014677,0.0,119.99999413330205,-0.0,54.200432320667566,-44.99999063801583
1682183478.7886968,1.3033643923635967,0.008823550045014677,0.0,119.99999413330205,-0.0,54.200432320667566,-44.99999063801583
1682183478.8685637,1.3033643923635967,0.008823550045014677,0.0,119.99999413330205,-0.0,54.200432320667566,-44.99999063801583
1682183478.9402707,1.3033643923635967,0.008823550045014677,0.0,119.99999413330205,-0.0,54.200432320667566,-44.99999063801583
1682183479.0151048,1.3033643923635967,0.008823550045014677,0.0,119.99999413330205,-0.0,54.200432320667566,-44.99999063801583
1682183479.0994482,1.3033643923635967,0.008823550045014677,0.0,119.99999413330205,-0.0,54.200432320667566,-44.99999063801583
1682183479.1969895,1.3033643923635967,0.008823550045014677,0.0,119.99999413330205,-0.0,54.200432320667566,-44.99999063801583
1682183479.2734964,1.3033643923635967,0.008823550045014677,0.0,119.99999413330205,-0.0,54.200432320667566,-44.99999063801583
1682183479.3563466,1.3033643923635967,0.008823550045014677,0.0,119.99999413330205,-0.0,54.200432320667566,-44.99999063801583
1682183479.439734,1.3033643923635967,0.008823550045014677,0.0,119.99999413330205,-0.0,54.200432320667566,-44.99999063801583
1682183479.5176566,1.3033643923635967,0.008823550045014677,0.0,119.99999413330205,-0.0,54.200432320667566,-44.99999063801583
1682183479.5894194,1.3033643923635967,0.008823550045014677,0.0,119.99999413330205,-0.0,54.200432320667566,-44.99999063801583
1682183479.6776853,1.3033643923635967,0.008823550045014677,0.0,119.99999413330205,-0.0,54.200432320667566,-44.99999063801583
1682183479.7549329,1.3033643923635967,0.008823550045014677,0.0,119.99999413330205,-0.0,54.200432320667566,-44.99999063801583
1682183479.8309608,1.3033643923635967,0.008823550045014677,0.0,119.99999413330205,-0.0,54.200432320667566,-44.99999063801583
1682183479.9115694,1.3033643923635967,0.008823550045014677,0.0,119.99999413330205,-0.0,54.200432320667566,-44.99999063801583
1682183479.9924922,1.3033643923635967,0.008823550045014677,0.0,119.99999413330205,-0.0,54.200432320667566,-44.99999063801583
1682183480.0752938,1.3033643923635967,0.008823550045014677,0.0,119.99999413330205,-0.0,54.200432320667566,-44.99999063801583
